{
  "type": "map",
  "version": "1.10",
  "orientation": "orthogonal",
  "renderorder": "right-down",
  "infinite": false,
  "width": 480,
  "height": 270,
  "tilewidth": 1,
  "tileheight": 1,
  "nextlayerid": 4,
  "nextobjectid": 4,
  "properties": [
    {
      "name": "persistent",
      "type": "bool",
      "value": false
    },
    {
      "name": "views_enabled",
      "type": "bool",
      "value": false
    },
    {
      "name": "clear_view_background",
      "type": "bool",
      "value": false
    },
    {
      "name": "view_visible",
      "type": "bool",
      "value": false
    },
    {
      "name": "view_x",
      "type": "int",
      "value": 0
    },
    {
      "name": "view_y",
      "type": "int",
      "value": 0
    },
    {
      "name": "view_width",
      "type": "int",
      "value": 1366
    },
    {
      "name": "view_height",
      "type": "int",
      "value": 768
    },
    {
      "name": "port_x",
      "type": "int",
      "value": 0
    },
    {
      "name": "port_y",
      "type": "int",
      "value": 0
    },
    {
      "name": "port_width",
      "type": "int",
      "value": 1366
    },
    {
      "name": "port_height",
      "type": "int",
      "value": 768
    }
  ],
  "tilesets": [
    {
      "firstgid": 1,
      "source": "Tilesets/objects.tsj"
    },
    {
      "firstgid": 10000,
      "source": "Tilesets/sprites.tsj"
    }
  ],
  "layers": [
    {
      "type": "imagelayer",
      "id": 1,
      "name": "Background",
      "image": "../Textures/Zones/test.apng",
      "imagewidth": 96,
      "imageheight": 96,
      "repeatx": true,
      "repeaty": true,
      "offsetx": 0.0,
      "offsety": 0.0,
      "opacity": 1.0,
      "visible": true,
      "tintcolor": "#ff282828",
      "x": 0,
      "y": 0,
      "properties": [
        {
          "name": "depth",
          "type": "int",
          "value": 200
        },
        {
          "name": "effect",
          "type": "string",
          "value": "_filter_heathaze"
        },
        {
          "name": "effect.g_Distort1Speed",
          "type": "float",
          "value": 0.01
        },
        {
          "name": "effect.g_Distort2Speed",
          "type": "float",
          "value": 0.025
        },
        {
          "name": "effect.g_Distort1Scale",
          "type": "float",
          "value": 1.3
        },
        {
          "name": "effect.g_Distort2Scale",
          "type": "float",
          "value": 3.3
        },
        {
          "name": "effect.g_Distort1Amount",
          "type": "float",
          "value": 2.0
        },
        {
          "name": "effect.g_Distort2Amount",
          "type": "float",
          "value": 4.0
        },
        {
          "name": "effect.g_ChromaSpreadAmount",
          "type": "float",
          "value": 0.5
        },
        {
          "name": "effect.g_CamOffsetScale",
          "type": "float",
          "value": 1.0
        },
        {
          "name": "effect.g_DistortTexture",
          "type": "string",
          "value": "_filter_heathaze_noise_sprite"
        },
        {
          "name": "hspeed",
          "type": "float",
          "value": -0.2
        }
      ]
    },
    {
      "type": "objectgroup",
      "id": 2,
      "name": "Instances",
      "draworder": "index",
      "opacity": 1.0,
      "visible": true,
      "x": 0,
      "y": 0,
      "objects": [
        {
          "id": 1,
          "name": "",
          "type": "obj_connecting",
          "gid": 40,
          "x": 0.0,
          "y": -32.0,
          "width": 16.0,
          "height": 16.0,
          "rotation": -0.0,
          "visible": true
        }
      ],
      "properties": [
        {
          "name": "depth",
          "type": "int",
          "value": 100
        }
      ]
    },
    {
      "type": "objectgroup",
      "id": 3,
      "name": "Assets_1",
      "draworder": "index",
      "opacity": 1.0,
      "visible": true,
      "x": 0,
      "y": 0,
      "objects": [
        {
          "id": 2,
          "name": "",
          "type": "",
          "gid": 10558,
          "x": 153.5,
          "y": 131.0,
          "width": 191.0,
          "height": 8.0,
          "rotation": -0.0,
          "visible": true
        },
        {
          "id": 3,
          "name": "",
          "type": "",
          "gid": 10140,
          "x": 224.5,
          "y": 156.0,
          "width": 31.0,
          "height": 8.0,
          "rotation": -0.0,
          "visible": true,
          "properties": [
            {
              "name": "image_blend",
              "type": "color",
              "value": "#ff910000"
            }
          ]
        }
      ],
      "properties": [
        {
          "name": "depth",
          "type": "int",
          "value": 0
        },
        {
          "name": "asset_layer",
          "type": "bool",
          "value": true
        }
      ]
    }
  ]
}