{
  "type": "map",
  "version": "1.10",
  "orientation": "orthogonal",
  "renderorder": "right-down",
  "infinite": false,
  "width": 3296,
  "height": 1350,
  "tilewidth": 1,
  "tileheight": 1,
  "nextlayerid": 13,
  "nextobjectid": 351,
  "properties": [
    {
      "name": "persistent",
      "type": "bool",
      "value": false
    },
    {
      "name": "views_enabled",
      "type": "bool",
      "value": true
    },
    {
      "name": "clear_view_background",
      "type": "bool",
      "value": false
    },
    {
      "name": "view_visible",
      "type": "bool",
      "value": true
    },
    {
      "name": "view_x",
      "type": "int",
      "value": 0
    },
    {
      "name": "view_y",
      "type": "int",
      "value": 0
    },
    {
      "name": "view_width",
      "type": "int",
      "value": 480
    },
    {
      "name": "view_height",
      "type": "int",
      "value": 270
    },
    {
      "name": "port_x",
      "type": "int",
      "value": 0
    },
    {
      "name": "port_y",
      "type": "int",
      "value": 0
    },
    {
      "name": "port_width",
      "type": "int",
      "value": 480
    },
    {
      "name": "port_height",
      "type": "int",
      "value": 270
    }
  ],
  "tilesets": [
    {
      "firstgid": 1,
      "source": "Tilesets/objects.tsj"
    },
    {
      "firstgid": 10000,
      "source": "Tilesets/sprites.tsj"
    }
  ],
  "layers": [
    {
      "type": "imagelayer",
      "id": 1,
      "name": "Background",
      "image": "../Textures/Zones/DesertTown/dt.png",
      "imagewidth": 512,
      "imageheight": 256,
      "repeatx": true,
      "repeaty": false,
      "offsetx": 0.0,
      "offsety": 0.0,
      "parallaxx": 0.2,
      "parallaxy": 0.0,
      "opacity": 1.0,
      "visible": true,
      "x": 0,
      "y": 0,
      "properties": [
        {
          "name": "depth",
          "type": "int",
          "value": 600
        }
      ]
    },
    {
      "type": "imagelayer",
      "id": 2,
      "name": "Background2",
      "image": "../Textures/Zones/DesertTown/dt3.png",
      "imagewidth": 512,
      "imageheight": 95,
      "repeatx": true,
      "repeaty": false,
      "offsetx": 0.0,
      "offsety": 0.0,
      "parallaxx": 0.1,
      "parallaxy": 0.0,
      "opacity": 1.0,
      "visible": true,
      "x": 0,
      "y": 0,
      "properties": [
        {
          "name": "depth",
          "type": "int",
          "value": 500
        }
      ]
    },
    {
      "type": "imagelayer",
      "id": 3,
      "name": "Background3",
      "image": "../Textures/Zones/DesertTown/dt4.png",
      "imagewidth": 512,
      "imageheight": 43,
      "repeatx": true,
      "repeaty": false,
      "offsetx": 0.0,
      "offsety": 136.0,
      "parallaxx": 0.3,
      "parallaxy": 0.0,
      "opacity": 1.0,
      "visible": true,
      "x": 0,
      "y": 0,
      "properties": [
        {
          "name": "depth",
          "type": "int",
          "value": 400
        }
      ]
    },
    {
      "type": "imagelayer",
      "id": 4,
      "name": "Background4",
      "image": "../Textures/Zones/DesertTown/dt5.png",
      "imagewidth": 504,
      "imageheight": 43,
      "repeatx": true,
      "repeaty": false,
      "offsetx": 0.0,
      "offsety": 151.0,
      "parallaxx": 0.4,
      "parallaxy": 0.0,
      "opacity": 1.0,
      "visible": true,
      "x": 0,
      "y": 0,
      "properties": [
        {
          "name": "depth",
          "type": "int",
          "value": 300
        },
        {
          "name": "hspeed",
          "type": "float",
          "value": -1.0
        }
      ]
    },
    {
      "type": "imagelayer",
      "id": 5,
      "name": "Background5",
      "image": "../Textures/Zones/DesertTown/dt6.png",
      "imagewidth": 512,
      "imageheight": 48,
      "repeatx": true,
      "repeaty": false,
      "offsetx": 0.0,
      "offsety": 182.0,
      "parallaxx": 0.5,
      "parallaxy": 0.0,
      "opacity": 1.0,
      "visible": true,
      "x": 0,
      "y": 0,
      "properties": [
        {
          "name": "depth",
          "type": "int",
          "value": 200
        },
        {
          "name": "hspeed",
          "type": "float",
          "value": -1.0
        }
      ]
    },
    {
      "type": "imagelayer",
      "id": 6,
      "name": "Background6",
      "image": "../Textures/Zones/DesertTown/dt2.png",
      "imagewidth": 512,
      "imageheight": 91,
      "repeatx": true,
      "repeaty": false,
      "offsetx": 0.0,
      "offsety": 216.0,
      "parallaxx": 0.6,
      "parallaxy": 0.0,
      "opacity": 1.0,
      "visible": true,
      "x": 0,
      "y": 0,
      "properties": [
        {
          "name": "depth",
          "type": "int",
          "value": 100
        }
      ]
    },
    {
      "type": "objectgroup",
      "id": 10,
      "name": "LevelArt deserttown_tiles",
      "draworder": "index",
      "opacity": 1.0,
      "visible": true,
      "x": 0,
      "y": 0,
      "objects": [
        {
          "id": 345,
          "name": "",
          "type": "",
          "gid": 10213,
          "x": 0.0,
          "y": 0.0,
          "width": 1648.0,
          "height": 1360.0,
          "rotation": -0.0,
          "visible": true,
          "properties": [
            {
              "name": "animation_speed",
              "type": "float",
              "value": 0.0
            }
          ]
        },
        {
          "id": 346,
          "name": "",
          "type": "",
          "gid": 10213,
          "x": 1648.0,
          "y": 0.0,
          "width": 1648.0,
          "height": 1360.0,
          "rotation": -0.0,
          "visible": true,
          "properties": [
            {
              "name": "animation_speed",
              "type": "float",
              "value": 0.0
            },
            {
              "name": "frame",
              "type": "float",
              "value": 1.0
            }
          ]
        }
      ],
      "properties": [
        {
          "name": "depth",
          "type": "int",
          "value": 90
        },
        {
          "name": "asset_layer",
          "type": "bool",
          "value": true
        }
      ]
    },
    {
      "type": "objectgroup",
      "id": 7,
      "name": "Instances",
      "draworder": "index",
      "opacity": 1.0,
      "visible": true,
      "x": 0,
      "y": 0,
      "objects": [
        {
          "id": 1,
          "name": "",
          "type": "obj_parallax",
          "gid": 211,
          "x": 8.0,
          "y": 8.0,
          "width": 16.0,
          "height": 16.0,
          "rotation": -0.0,
          "visible": true
        },
        {
          "id": 2,
          "name": "",
          "type": "obj_deserttown_hide",
          "gid": 62,
          "x": 577.0,
          "y": 992.0,
          "width": 49.0,
          "height": 80.0,
          "rotation": -0.0,
          "visible": true
        },
        {
          "id": 3,
          "name": "",
          "type": "obj_deserttown_hide",
          "gid": 62,
          "x": 737.0,
          "y": 992.0,
          "width": 49.0,
          "height": 80.0,
          "rotation": -0.0,
          "visible": true
        },
        {
          "id": 4,
          "name": "",
          "type": "obj_deserttown_hide",
          "gid": 62,
          "x": 897.0,
          "y": 992.0,
          "width": 49.0,
          "height": 80.0,
          "rotation": -0.0,
          "visible": true
        },
        {
          "id": 5,
          "name": "",
          "type": "obj_deserttown_hide",
          "gid": 62,
          "x": 1921.0,
          "y": 656.0,
          "width": 49.0,
          "height": 80.0,
          "rotation": -0.0,
          "visible": true
        },
        {
          "id": 6,
          "name": "",
          "type": "obj_deserttown_hide",
          "gid": 62,
          "x": 2177.0,
          "y": 720.0,
          "width": 49.0,
          "height": 80.0,
          "rotation": -0.0,
          "visible": true
        },
        {
          "id": 7,
          "name": "",
          "type": "obj_deserttown_hide",
          "gid": 62,
          "x": 2305.0,
          "y": 720.0,
          "width": 49.0,
          "height": 80.0,
          "rotation": -0.0,
          "visible": true
        },
        {
          "id": 8,
          "name": "",
          "type": "obj_deserttown_hide",
          "gid": 62,
          "x": 3201.0,
          "y": 608.0,
          "width": 49.0,
          "height": 80.0,
          "rotation": -0.0,
          "visible": true
        },
        {
          "id": 9,
          "name": "",
          "type": "obj_deserttown_hide",
          "gid": 62,
          "x": 3073.0,
          "y": 608.0,
          "width": 49.0,
          "height": 80.0,
          "rotation": -0.0,
          "visible": true
        },
        {
          "id": 10,
          "name": "",
          "type": "obj_deserttown_hide",
          "gid": 62,
          "x": 2945.0,
          "y": 448.0,
          "width": 49.0,
          "height": 80.0,
          "rotation": -0.0,
          "visible": true
        },
        {
          "id": 11,
          "name": "",
          "type": "obj_spring_up",
          "gid": 265,
          "x": 1408.0,
          "y": 704.0,
          "width": 32.0,
          "height": 32.0,
          "rotation": -0.0,
          "visible": true
        },
        {
          "id": 12,
          "name": "",
          "type": "obj_spring_up",
          "gid": 265,
          "x": 1824.0,
          "y": 704.0,
          "width": 32.0,
          "height": 32.0,
          "rotation": -0.0,
          "visible": true
        },
        {
          "id": 13,
          "name": "",
          "type": "obj_yspring_up",
          "gid": 299,
          "x": 1472.0,
          "y": 1200.0,
          "width": 32.0,
          "height": 32.0,
          "rotation": -0.0,
          "visible": true
        },
        {
          "id": 14,
          "name": "",
          "type": "obj_spring_left",
          "gid": 262,
          "x": 3252.0,
          "y": 644.0,
          "width": 44.0,
          "height": 44.0,
          "rotation": -0.0,
          "visible": true
        },
        {
          "id": 15,
          "name": "",
          "type": "obj_solid_block",
          "gid": 255,
          "x": 0.0,
          "y": 0.0,
          "width": 448.0,
          "height": 712.0,
          "rotation": -0.0,
          "visible": true
        },
        {
          "id": 16,
          "name": "",
          "type": "obj_solid_block",
          "gid": 255,
          "x": 384.0,
          "y": 712.0,
          "width": 64.0,
          "height": 248.0,
          "rotation": -0.0,
          "visible": true
        },
        {
          "id": 17,
          "name": "",
          "type": "obj_solid_block",
          "gid": 255,
          "x": 128.0,
          "y": 912.0,
          "width": 256.0,
          "height": 48.0,
          "rotation": -0.0,
          "visible": true
        },
        {
          "id": 18,
          "name": "",
          "type": "obj_platform_jumptrough",
          "gid": 221,
          "x": 0.0,
          "y": 992.0,
          "width": 64.0,
          "height": 32.0,
          "rotation": -0.0,
          "visible": true
        },
        {
          "id": 19,
          "name": "",
          "type": "obj_solid_block",
          "gid": 255,
          "x": 0.0,
          "y": 1072.0,
          "width": 448.0,
          "height": 288.0,
          "rotation": -0.0,
          "visible": true
        },
        {
          "id": 20,
          "name": "",
          "type": "obj_solid_block",
          "gid": 255,
          "x": 544.0,
          "y": 1072.0,
          "width": 416.0,
          "height": 288.0,
          "rotation": -0.0,
          "visible": true
        },
        {
          "id": 21,
          "name": "",
          "type": "obj_solid_block",
          "gid": 255,
          "x": 1056.0,
          "y": 1232.0,
          "width": 928.0,
          "height": 128.0,
          "rotation": -0.0,
          "visible": true
        },
        {
          "id": 22,
          "name": "",
          "type": "obj_solid_block",
          "gid": 255,
          "x": 1056.0,
          "y": 1024.0,
          "width": 352.0,
          "height": 96.0,
          "rotation": -0.0,
          "visible": true
        },
        {
          "id": 23,
          "name": "",
          "type": "obj_solid_block",
          "gid": 255,
          "x": 1568.0,
          "y": 1024.0,
          "width": 416.0,
          "height": 96.0,
          "rotation": -0.0,
          "visible": true
        },
        {
          "id": 24,
          "name": "",
          "type": "obj_solid_block",
          "gid": 255,
          "x": 1344.0,
          "y": 960.0,
          "width": 64.0,
          "height": 64.0,
          "rotation": -0.0,
          "visible": true
        },
        {
          "id": 25,
          "name": "",
          "type": "obj_solid_block",
          "gid": 255,
          "x": 1504.0,
          "y": 896.0,
          "width": 160.0,
          "height": 48.0,
          "rotation": -0.0,
          "visible": true
        },
        {
          "id": 26,
          "name": "",
          "type": "obj_solid_block",
          "gid": 255,
          "x": 1760.0,
          "y": 784.0,
          "width": 64.0,
          "height": 129.0,
          "rotation": -0.0,
          "visible": true
        },
        {
          "id": 27,
          "name": "",
          "type": "obj_solid_block",
          "gid": 255,
          "x": 1184.0,
          "y": 720.0,
          "width": 32.0,
          "height": 192.0,
          "rotation": -0.0,
          "visible": true
        },
        {
          "id": 28,
          "name": "",
          "type": "obj_solid_block",
          "gid": 255,
          "x": 1216.0,
          "y": 880.0,
          "width": 32.0,
          "height": 32.0,
          "rotation": -0.0,
          "visible": true
        },
        {
          "id": 29,
          "name": "",
          "type": "obj_solid_block",
          "gid": 255,
          "x": 1248.0,
          "y": 880.0,
          "width": 32.0,
          "height": 32.0,
          "rotation": -0.0,
          "visible": true
        },
        {
          "id": 30,
          "name": "",
          "type": "obj_solid_block",
          "gid": 255,
          "x": 1184.0,
          "y": 144.0,
          "width": 64.0,
          "height": 576.0,
          "rotation": -0.0,
          "visible": true
        },
        {
          "id": 31,
          "name": "",
          "type": "obj_solid_block",
          "gid": 255,
          "x": 1248.0,
          "y": 144.0,
          "width": 576.0,
          "height": 64.0,
          "rotation": -0.0,
          "visible": true
        },
        {
          "id": 32,
          "name": "",
          "type": "obj_solid_block",
          "gid": 255,
          "x": 1760.0,
          "y": 208.0,
          "width": 64.0,
          "height": 80.0,
          "rotation": -0.0,
          "visible": true
        },
        {
          "id": 33,
          "name": "",
          "type": "obj_solid_block",
          "gid": 255,
          "x": 1472.0,
          "y": 208.0,
          "width": 64.0,
          "height": 64.0,
          "rotation": -0.0,
          "visible": true
        },
        {
          "id": 34,
          "name": "",
          "type": "obj_solid_block",
          "gid": 255,
          "x": 1248.0,
          "y": 416.0,
          "width": 128.0,
          "height": 48.0,
          "rotation": -0.0,
          "visible": true
        },
        {
          "id": 35,
          "name": "",
          "type": "obj_solid_block",
          "gid": 255,
          "x": 1344.0,
          "y": 736.0,
          "width": 640.0,
          "height": 48.0,
          "rotation": -0.0,
          "visible": true
        },
        {
          "id": 36,
          "name": "",
          "type": "obj_solid_block",
          "gid": 255,
          "x": 1344.0,
          "y": 784.0,
          "width": 128.0,
          "height": 16.0,
          "rotation": -0.0,
          "visible": true
        },
        {
          "id": 37,
          "name": "",
          "type": "obj_solid_block",
          "gid": 255,
          "x": 1312.0,
          "y": 800.0,
          "width": 128.0,
          "height": 16.0,
          "rotation": -0.0,
          "visible": true
        },
        {
          "id": 38,
          "name": "",
          "type": "obj_solid_block",
          "gid": 255,
          "x": 1312.0,
          "y": 816.0,
          "width": 96.0,
          "height": 16.0,
          "rotation": -0.0,
          "visible": true
        },
        {
          "id": 39,
          "name": "",
          "type": "obj_solid_block",
          "gid": 255,
          "x": 1792.0,
          "y": 416.0,
          "width": 32.0,
          "height": 320.0,
          "rotation": -0.0,
          "visible": true
        },
        {
          "id": 40,
          "name": "",
          "type": "obj_solid_block",
          "gid": 255,
          "x": 1472.0,
          "y": 416.0,
          "width": 320.0,
          "height": 48.0,
          "rotation": -0.0,
          "visible": true
        },
        {
          "id": 41,
          "name": "",
          "type": "obj_solid_block",
          "gid": 255,
          "x": 1472.0,
          "y": 608.0,
          "width": 160.0,
          "height": 32.0,
          "rotation": -0.0,
          "visible": true
        },
        {
          "id": 42,
          "name": "",
          "type": "obj_solid_block",
          "gid": 255,
          "x": 1472.0,
          "y": 464.0,
          "width": 32.0,
          "height": 144.0,
          "rotation": -0.0,
          "visible": true
        },
        {
          "id": 43,
          "name": "",
          "type": "obj_solid_block",
          "gid": 255,
          "x": 2144.0,
          "y": 1024.0,
          "width": 288.0000256,
          "height": 336.0,
          "rotation": -0.0,
          "visible": true
        },
        {
          "id": 44,
          "name": "",
          "type": "obj_solid_block",
          "gid": 255,
          "x": 2816.0,
          "y": 1024.0,
          "width": 288.0,
          "height": 176.0000128,
          "rotation": -0.0,
          "visible": true
        },
        {
          "id": 45,
          "name": "",
          "type": "obj_solid_block",
          "gid": 255,
          "x": 3168.0,
          "y": 1024.0,
          "width": 128.0,
          "height": 336.0,
          "rotation": -0.0,
          "visible": true
        },
        {
          "id": 46,
          "name": "",
          "type": "obj_solid_block",
          "gid": 255,
          "x": 2656.0,
          "y": 1312.0,
          "width": 192.0,
          "height": 48.0,
          "rotation": -0.0,
          "visible": true
        },
        {
          "id": 47,
          "name": "",
          "type": "obj_solid_block",
          "gid": 255,
          "x": 2976.0,
          "y": 1312.0,
          "width": 192.0,
          "height": 48.0,
          "rotation": -0.0,
          "visible": true
        },
        {
          "id": 48,
          "name": "",
          "type": "obj_solid_block",
          "gid": 255,
          "x": 2432.0,
          "y": 1232.0,
          "width": 64.0,
          "height": 128.0,
          "rotation": -0.0,
          "visible": true
        },
        {
          "id": 49,
          "name": "",
          "type": "obj_solid_block",
          "gid": 255,
          "x": 2432.0,
          "y": 1024.0,
          "width": 192.0,
          "height": 48.0,
          "rotation": -0.0,
          "visible": true
        },
        {
          "id": 50,
          "name": "",
          "type": "obj_solid_block",
          "gid": 255,
          "x": 2144.0,
          "y": 800.0,
          "width": 320.0,
          "height": 48.0,
          "rotation": -0.0,
          "visible": true
        },
        {
          "id": 51,
          "name": "",
          "type": "obj_solid_block",
          "gid": 255,
          "x": 2368.0,
          "y": 848.0,
          "width": 64.0,
          "height": 64.0,
          "rotation": -0.0,
          "visible": true
        },
        {
          "id": 52,
          "name": "",
          "type": "obj_solid_block",
          "gid": 255,
          "x": 2432.0,
          "y": 848.0,
          "width": 96.0,
          "height": 64.0,
          "rotation": -0.0,
          "visible": true
        },
        {
          "id": 53,
          "name": "",
          "type": "obj_solid_block",
          "gid": 255,
          "x": 2528.0,
          "y": 864.0,
          "width": 32.0,
          "height": 48.0,
          "rotation": -0.0,
          "visible": true
        },
        {
          "id": 54,
          "name": "",
          "type": "obj_solid_block",
          "gid": 255,
          "x": 2560.0,
          "y": 880.0,
          "width": 32.0,
          "height": 32.0,
          "rotation": -0.0,
          "visible": true
        },
        {
          "id": 55,
          "name": "",
          "type": "obj_solid_block",
          "gid": 255,
          "x": 2592.0,
          "y": 896.0,
          "width": 32.0,
          "height": 16.0,
          "rotation": -0.0,
          "visible": true
        },
        {
          "id": 56,
          "name": "",
          "type": "obj_solid_block",
          "gid": 255,
          "x": 2624.0,
          "y": 896.0,
          "width": 32.0,
          "height": 16.0,
          "rotation": -0.0,
          "visible": true
        },
        {
          "id": 57,
          "name": "",
          "type": "obj_solid_block",
          "gid": 255,
          "x": 2816.0,
          "y": 448.0,
          "width": 64.0,
          "height": 576.0,
          "rotation": -0.0,
          "visible": true
        },
        {
          "id": 58,
          "name": "",
          "type": "obj_solid_block",
          "gid": 255,
          "x": 2624.0,
          "y": 448.0,
          "width": 192.0,
          "height": 48.0,
          "rotation": -0.0,
          "visible": true
        },
        {
          "id": 59,
          "name": "",
          "type": "obj_solid_block",
          "gid": 255,
          "x": 2432.0,
          "y": 512.0,
          "width": 96.0,
          "height": 128.0,
          "rotation": -0.0,
          "visible": true
        },
        {
          "id": 60,
          "name": "",
          "type": "obj_solid_block",
          "gid": 255,
          "x": 2528.0,
          "y": 592.0,
          "width": 160.0,
          "height": 48.0,
          "rotation": -0.0,
          "visible": true
        },
        {
          "id": 61,
          "name": "",
          "type": "obj_solid_block",
          "gid": 255,
          "x": 2368.0,
          "y": 256.0,
          "width": 64.0,
          "height": 384.0,
          "rotation": -0.0,
          "visible": true
        },
        {
          "id": 62,
          "name": "",
          "type": "obj_solid_block",
          "gid": 255,
          "x": 2432.0,
          "y": 256.0,
          "width": 448.0,
          "height": 64.0,
          "rotation": -0.0,
          "visible": true
        },
        {
          "id": 63,
          "name": "",
          "type": "obj_solid_block",
          "gid": 255,
          "x": 2784.0,
          "y": 672.0,
          "width": 32.0,
          "height": 112.0,
          "rotation": -0.0,
          "visible": true
        },
        {
          "id": 64,
          "name": "",
          "type": "obj_solid_block",
          "gid": 255,
          "x": 2752.0,
          "y": 704.0,
          "width": 32.0,
          "height": 80.0,
          "rotation": -0.0,
          "visible": true
        },
        {
          "id": 65,
          "name": "",
          "type": "obj_solid_block",
          "gid": 255,
          "x": 2720.0,
          "y": 720.0,
          "width": 32.0,
          "height": 64.0,
          "rotation": -0.0,
          "visible": true
        },
        {
          "id": 66,
          "name": "",
          "type": "obj_solid_block",
          "gid": 255,
          "x": 2688.0,
          "y": 736.0,
          "width": 32.0,
          "height": 48.0,
          "rotation": -0.0,
          "visible": true
        },
        {
          "id": 67,
          "name": "",
          "type": "obj_solid_block",
          "gid": 255,
          "x": 2656.0,
          "y": 752.0,
          "width": 32.0,
          "height": 32.0,
          "rotation": -0.0,
          "visible": true
        },
        {
          "id": 68,
          "name": "",
          "type": "obj_solid_block",
          "gid": 255,
          "x": 2592.0,
          "y": 768.0,
          "width": 64.0,
          "height": 16.0,
          "rotation": -0.0,
          "visible": true
        },
        {
          "id": 69,
          "name": "",
          "type": "obj_solid_block",
          "gid": 255,
          "x": 2720.0,
          "y": 944.0,
          "width": 96.0,
          "height": 32.0,
          "rotation": -0.0,
          "visible": true
        },
        {
          "id": 70,
          "name": "",
          "type": "obj_solid_block",
          "gid": 255,
          "x": 2624.0,
          "y": 1056.0,
          "width": 32.0,
          "height": 16.0,
          "rotation": -0.0,
          "visible": true
        },
        {
          "id": 71,
          "name": "",
          "type": "obj_solid_block",
          "gid": 255,
          "x": 2656.0,
          "y": 1056.0,
          "width": 32.0,
          "height": 16.0,
          "rotation": -0.0,
          "visible": true
        },
        {
          "id": 72,
          "name": "",
          "type": "obj_solid_block",
          "gid": 255,
          "x": 3040.0,
          "y": 688.0,
          "width": 256.0,
          "height": 48.0,
          "rotation": -0.0,
          "visible": true
        },
        {
          "id": 73,
          "name": "",
          "type": "obj_solid_block",
          "gid": 255,
          "x": 2880.0,
          "y": 528.0,
          "width": 128.0,
          "height": 64.0,
          "rotation": -0.0,
          "visible": true
        },
        {
          "id": 74,
          "name": "",
          "type": "obj_solid_block",
          "gid": 255,
          "x": 2856.0,
          "y": -136.0,
          "width": 24.0,
          "height": 392.0,
          "rotation": -0.0,
          "visible": true
        },
        {
          "id": 75,
          "name": "",
          "type": "obj_solid_block",
          "gid": 255,
          "x": 2368.0,
          "y": -128.0,
          "width": 24.0,
          "height": 384.0,
          "rotation": -0.0,
          "visible": true
        },
        {
          "id": 76,
          "name": "",
          "type": "obj_solid_block",
          "gid": 255,
          "x": 1800.0,
          "y": -128.0,
          "width": 24.0,
          "height": 272.0,
          "rotation": -0.0,
          "visible": true
        },
        {
          "id": 77,
          "name": "",
          "type": "obj_solid_block",
          "gid": 255,
          "x": 1184.0,
          "y": -136.0,
          "width": 24.0,
          "height": 280.0,
          "rotation": -0.0,
          "visible": true
        },
        {
          "id": 78,
          "name": "",
          "type": "obj_solid_block",
          "gid": 255,
          "x": 2452.1013,
          "y": 821.56165,
          "width": 24.0,
          "height": 183.0,
          "rotation": 296.0,
          "visible": true
        },
        {
          "id": 79,
          "name": "",
          "type": "obj_solid_block",
          "gid": 255,
          "x": 2624.0,
          "y": 880.0,
          "width": 32.0,
          "height": 32.0,
          "rotation": -0.0,
          "visible": true
        },
        {
          "id": 80,
          "name": "",
          "type": "obj_solid_block",
          "gid": 255,
          "x": 2784.0,
          "y": 672.0,
          "width": 24.0,
          "height": 183.0,
          "rotation": 63.873535,
          "visible": true
        },
        {
          "id": 81,
          "name": "",
          "type": "obj_solid_block",
          "gid": 255,
          "x": 2592.0,
          "y": 752.0,
          "width": 32.0,
          "height": 32.0,
          "rotation": -0.0,
          "visible": true
        },
        {
          "id": 82,
          "name": "",
          "type": "obj_solid_block",
          "gid": 255,
          "x": 2784.0,
          "y": 1104.0,
          "width": 24.0,
          "height": 143.0,
          "rotation": 64.0,
          "visible": true
        },
        {
          "id": 83,
          "name": "",
          "type": "obj_solid_block",
          "gid": 255,
          "x": 2784.0,
          "y": 1104.0,
          "width": 32.0,
          "height": 96.0,
          "rotation": -0.0,
          "visible": true
        },
        {
          "id": 84,
          "name": "",
          "type": "obj_solid_block",
          "gid": 255,
          "x": 2624.0,
          "y": 1168.0,
          "width": 32.0,
          "height": 32.0,
          "rotation": -0.0,
          "visible": true
        },
        {
          "id": 85,
          "name": "",
          "type": "obj_solid_block",
          "gid": 255,
          "x": 2656.0,
          "y": 1190.0,
          "width": 128.0,
          "height": 10.0,
          "rotation": -0.0,
          "visible": true
        },
        {
          "id": 86,
          "name": "",
          "type": "obj_solid_block",
          "gid": 255,
          "x": 2485.0,
          "y": 1253.0,
          "width": 24.0,
          "height": 191.0,
          "rotation": 296.0,
          "visible": true
        },
        {
          "id": 87,
          "name": "",
          "type": "obj_solid_block",
          "gid": 255,
          "x": 1760.0,
          "y": 656.0,
          "width": 24.0,
          "height": 183.0,
          "rotation": 63.873535,
          "visible": true
        },
        {
          "id": 88,
          "name": "",
          "type": "obj_solid_block",
          "gid": 255,
          "x": 1760.0,
          "y": 656.0,
          "width": 32.0,
          "height": 32.0,
          "rotation": -0.0,
          "visible": true
        },
        {
          "id": 89,
          "name": "",
          "type": "obj_solid_block",
          "gid": 255,
          "x": 1493.0,
          "y": 373.0,
          "width": 24.0,
          "height": 151.0,
          "rotation": 296.0,
          "visible": true
        },
        {
          "id": 90,
          "name": "",
          "type": "obj_solid_block",
          "gid": 255,
          "x": 1472.0,
          "y": 352.0,
          "width": 32.0,
          "height": 64.0,
          "rotation": -0.0,
          "visible": true
        },
        {
          "id": 91,
          "name": "",
          "type": "obj_solid_block",
          "gid": 255,
          "x": 2617.0002,
          "y": 1038.0,
          "width": 16.0,
          "height": 71.0,
          "rotation": 296.0,
          "visible": true
        },
        {
          "id": 92,
          "name": "",
          "type": "obj_platform_jumptrough",
          "gid": 221,
          "x": 1408.0,
          "y": 1024.0,
          "width": 160.0,
          "height": 48.0,
          "rotation": -0.0,
          "visible": true
        },
        {
          "id": 93,
          "name": "",
          "type": "obj_ring_spawner",
          "gid": 249,
          "x": 272.0,
          "y": 888.0,
          "width": 16.0,
          "height": 16.0,
          "rotation": -0.0,
          "visible": true
        },
        {
          "id": 94,
          "name": "",
          "type": "obj_ring_spawner",
          "gid": 249,
          "x": 304.0,
          "y": 888.0,
          "width": 16.0,
          "height": 16.0,
          "rotation": -0.0,
          "visible": true
        },
        {
          "id": 95,
          "name": "",
          "type": "obj_ring_spawner",
          "gid": 249,
          "x": 776.0,
          "y": 1048.0,
          "width": 16.0,
          "height": 16.0,
          "rotation": -0.0,
          "visible": true
        },
        {
          "id": 96,
          "name": "",
          "type": "obj_ring_spawner",
          "gid": 249,
          "x": 744.0,
          "y": 1048.0,
          "width": 16.0,
          "height": 16.0,
          "rotation": -0.0,
          "visible": true
        },
        {
          "id": 97,
          "name": "",
          "type": "obj_ring_spawner",
          "gid": 249,
          "x": 712.0,
          "y": 1048.0,
          "width": 16.0,
          "height": 16.0,
          "rotation": -0.0,
          "visible": true
        },
        {
          "id": 98,
          "name": "",
          "type": "obj_ring_spawner",
          "gid": 249,
          "x": 1785.0,
          "y": 1192.0,
          "width": 16.0,
          "height": 16.0,
          "rotation": -0.0,
          "visible": true
        },
        {
          "id": 99,
          "name": "",
          "type": "obj_ring_spawner",
          "gid": 249,
          "x": 1753.0,
          "y": 1192.0,
          "width": 16.0,
          "height": 16.0,
          "rotation": -0.0,
          "visible": true
        },
        {
          "id": 100,
          "name": "",
          "type": "obj_ring_spawner",
          "gid": 249,
          "x": 1721.0,
          "y": 1192.0,
          "width": 16.0,
          "height": 16.0,
          "rotation": -0.0,
          "visible": true
        },
        {
          "id": 101,
          "name": "",
          "type": "obj_ring_spawner",
          "gid": 249,
          "x": 1225.0,
          "y": 1192.0,
          "width": 16.0,
          "height": 16.0,
          "rotation": -0.0,
          "visible": true
        },
        {
          "id": 102,
          "name": "",
          "type": "obj_ring_spawner",
          "gid": 249,
          "x": 1193.0,
          "y": 1192.0,
          "width": 16.0,
          "height": 16.0,
          "rotation": -0.0,
          "visible": true
        },
        {
          "id": 103,
          "name": "",
          "type": "obj_ring_spawner",
          "gid": 249,
          "x": 1161.0,
          "y": 1192.0,
          "width": 16.0,
          "height": 16.0,
          "rotation": -0.0,
          "visible": true
        },
        {
          "id": 104,
          "name": "",
          "type": "obj_ring_spawner",
          "gid": 249,
          "x": 1617.0,
          "y": 872.0,
          "width": 16.0,
          "height": 16.0,
          "rotation": -0.0,
          "visible": true
        },
        {
          "id": 105,
          "name": "",
          "type": "obj_ring_spawner",
          "gid": 249,
          "x": 1585.0,
          "y": 872.0,
          "width": 16.0,
          "height": 16.0,
          "rotation": -0.0,
          "visible": true
        },
        {
          "id": 106,
          "name": "",
          "type": "obj_ring_spawner",
          "gid": 249,
          "x": 1553.0,
          "y": 872.0,
          "width": 16.0,
          "height": 16.0,
          "rotation": -0.0,
          "visible": true
        },
        {
          "id": 107,
          "name": "",
          "type": "obj_ring_spawner",
          "gid": 249,
          "x": 1537.0,
          "y": 708.0,
          "width": 16.0,
          "height": 16.0,
          "rotation": -0.0,
          "visible": true
        },
        {
          "id": 108,
          "name": "",
          "type": "obj_ring_spawner",
          "gid": 249,
          "x": 1505.0,
          "y": 708.0,
          "width": 16.0,
          "height": 16.0,
          "rotation": -0.0,
          "visible": true
        },
        {
          "id": 109,
          "name": "",
          "type": "obj_ring_spawner",
          "gid": 249,
          "x": 1473.0,
          "y": 708.0,
          "width": 16.0,
          "height": 16.0,
          "rotation": -0.0,
          "visible": true
        },
        {
          "id": 110,
          "name": "",
          "type": "obj_ring_spawner",
          "gid": 249,
          "x": 2289.0,
          "y": 772.0,
          "width": 16.0,
          "height": 16.0,
          "rotation": -0.0,
          "visible": true
        },
        {
          "id": 111,
          "name": "",
          "type": "obj_ring_spawner",
          "gid": 249,
          "x": 2257.0,
          "y": 772.0,
          "width": 16.0,
          "height": 16.0,
          "rotation": -0.0,
          "visible": true
        },
        {
          "id": 112,
          "name": "",
          "type": "obj_ring_spawner",
          "gid": 249,
          "x": 2225.0,
          "y": 772.0,
          "width": 16.0,
          "height": 16.0,
          "rotation": -0.0,
          "visible": true
        },
        {
          "id": 113,
          "name": "",
          "type": "obj_ring_spawner",
          "gid": 249,
          "x": 2743.0,
          "y": 396.0,
          "width": 16.0,
          "height": 16.0,
          "rotation": -0.0,
          "visible": true
        },
        {
          "id": 114,
          "name": "",
          "type": "obj_ring_spawner",
          "gid": 249,
          "x": 2711.0,
          "y": 396.0,
          "width": 16.0,
          "height": 16.0,
          "rotation": -0.0,
          "visible": true
        },
        {
          "id": 115,
          "name": "",
          "type": "obj_ring_spawner",
          "gid": 249,
          "x": 2679.0,
          "y": 396.0,
          "width": 16.0,
          "height": 16.0,
          "rotation": -0.0,
          "visible": true
        },
        {
          "id": 116,
          "name": "",
          "type": "obj_ring_spawner",
          "gid": 249,
          "x": 3040.0,
          "y": 1288.0,
          "width": 16.0,
          "height": 16.0,
          "rotation": -0.0,
          "visible": true
        },
        {
          "id": 117,
          "name": "",
          "type": "obj_ring_spawner",
          "gid": 249,
          "x": 3008.0,
          "y": 1288.0,
          "width": 16.0,
          "height": 16.0,
          "rotation": -0.0,
          "visible": true
        },
        {
          "id": 118,
          "name": "",
          "type": "obj_ring_spawner",
          "gid": 249,
          "x": 2976.0,
          "y": 1288.0,
          "width": 16.0,
          "height": 16.0,
          "rotation": -0.0,
          "visible": true
        },
        {
          "id": 119,
          "name": "",
          "type": "obj_spawnpoint",
          "gid": 259,
          "x": 175.0,
          "y": 880.0,
          "width": 32.0,
          "height": 32.0,
          "rotation": -0.0,
          "visible": true
        },
        {
          "id": 120,
          "name": "",
          "type": "obj_spawnpoint",
          "gid": 259,
          "x": 839.0,
          "y": 1040.0,
          "width": 32.0,
          "height": 32.0,
          "rotation": -0.0,
          "visible": true
        },
        {
          "id": 121,
          "name": "",
          "type": "obj_spawnpoint",
          "gid": 259,
          "x": 3143.0,
          "y": 656.0,
          "width": 32.0,
          "height": 32.0,
          "rotation": -0.0,
          "visible": true
        },
        {
          "id": 122,
          "name": "",
          "type": "obj_spawnpoint",
          "gid": 259,
          "x": 2487.0,
          "y": 480.0,
          "width": 32.0,
          "height": 32.0,
          "rotation": -0.0,
          "visible": true
        },
        {
          "id": 123,
          "name": "",
          "type": "obj_ringspawn",
          "gid": 251,
          "x": 1551.0,
          "y": 520.0,
          "width": 32.0,
          "height": 32.0,
          "rotation": -0.0,
          "visible": true
        },
        {
          "id": 124,
          "name": "",
          "type": "obj_ringspawn",
          "gid": 251,
          "x": 1471.0,
          "y": 1120.0,
          "width": 32.0,
          "height": 32.0,
          "rotation": -0.0,
          "visible": true
        },
        {
          "id": 125,
          "name": "",
          "type": "obj_ringspawn",
          "gid": 251,
          "x": 287.0,
          "y": 824.0,
          "width": 32.0,
          "height": 32.0,
          "rotation": -0.0,
          "visible": true
        },
        {
          "id": 126,
          "name": "",
          "type": "obj_ringspawn",
          "gid": 251,
          "x": 2895.0,
          "y": 1248.0,
          "width": 32.0,
          "height": 32.0,
          "rotation": -0.0,
          "visible": true
        },
        {
          "id": 127,
          "name": "",
          "type": "obj_exespawn",
          "gid": 85,
          "x": 1479.0,
          "y": 704.0,
          "width": 32.0,
          "height": 32.0,
          "rotation": -0.0,
          "visible": true
        },
        {
          "id": 128,
          "name": "",
          "type": "obj_exespawn",
          "gid": 85,
          "x": 2215.0,
          "y": 992.0,
          "width": 32.0,
          "height": 32.0,
          "rotation": -0.0,
          "visible": true
        },
        {
          "id": 129,
          "name": "",
          "type": "obj_exespawn",
          "gid": 85,
          "x": 3047.0,
          "y": 992.0,
          "width": 32.0,
          "height": 32.0,
          "rotation": -0.0,
          "visible": true
        },
        {
          "id": 130,
          "name": "",
          "type": "obj_exespawn",
          "gid": 85,
          "x": 1319.0,
          "y": 384.0,
          "width": 32.0,
          "height": 32.0,
          "rotation": -0.0,
          "visible": true
        },
        {
          "id": 131,
          "name": "",
          "type": "obj_ringspawn",
          "gid": 251,
          "x": 3079.0,
          "y": 416.0,
          "width": 32.0,
          "height": 32.0,
          "rotation": -0.0,
          "visible": true
        },
        {
          "id": 132,
          "name": "",
          "type": "obj_abyss",
          "gid": 4,
          "x": 2839.5,
          "y": 1360.0,
          "width": 145.0,
          "height": 32.0,
          "rotation": -0.0,
          "visible": true,
          "properties": [
            {
              "name": "target_id",
              "type": "int",
              "value": 0
            }
          ]
        },
        {
          "id": 133,
          "name": "",
          "type": "obj_abyss_target",
          "gid": 5,
          "x": 2807.0,
          "y": 1280.0,
          "width": 32.0,
          "height": 32.0,
          "rotation": -0.0,
          "visible": true,
          "properties": [
            {
              "name": "tid",
              "type": "int",
              "value": 0
            }
          ]
        },
        {
          "id": 134,
          "name": "",
          "type": "obj_abyss_target",
          "gid": 5,
          "x": 2983.0,
          "y": 1280.0,
          "width": 32.0,
          "height": 32.0,
          "rotation": -0.0,
          "visible": true,
          "properties": [
            {
              "name": "tid",
              "type": "int",
              "value": 1
            }
          ]
        },
        {
          "id": 135,
          "name": "",
          "type": "obj_abyss",
          "gid": 4,
          "x": 1986.25,
          "y": 1360.0,
          "width": 169.0,
          "height": 32.0,
          "rotation": -0.0,
          "visible": true,
          "properties": [
            {
              "name": "target_id",
              "type": "int",
              "value": 2
            }
          ]
        },
        {
          "id": 136,
          "name": "",
          "type": "obj_abyss_target",
          "gid": 5,
          "x": 1943.0,
          "y": 1200.0,
          "width": 32.0,
          "height": 32.0,
          "rotation": -0.0,
          "visible": true,
          "properties": [
            {
              "name": "tid",
              "type": "int",
              "value": 2
            }
          ]
        },
        {
          "id": 137,
          "name": "",
          "type": "obj_abyss",
          "gid": 4,
          "x": 955.5,
          "y": 1360.0,
          "width": 105.0,
          "height": 32.0,
          "rotation": -0.0,
          "visible": true,
          "properties": [
            {
              "name": "target_id",
              "type": "int",
              "value": 4
            }
          ]
        },
        {
          "id": 138,
          "name": "",
          "type": "obj_abyss_target",
          "gid": 5,
          "x": 1079.0,
          "y": 1200.0,
          "width": 32.0,
          "height": 32.0,
          "rotation": -0.0,
          "visible": true,
          "properties": [
            {
              "name": "tid",
              "type": "int",
              "value": 4
            }
          ]
        },
        {
          "id": 139,
          "name": "",
          "type": "obj_abyss",
          "gid": 4,
          "x": 442.42105,
          "y": 1360.0,
          "width": 105.0,
          "height": 32.0,
          "rotation": -0.0,
          "visible": true,
          "properties": [
            {
              "name": "target_id",
              "type": "int",
              "value": 5
            }
          ]
        },
        {
          "id": 140,
          "name": "",
          "type": "obj_abyss_target",
          "gid": 5,
          "x": 399.0,
          "y": 1040.0,
          "width": 32.0,
          "height": 32.0,
          "rotation": -0.0,
          "visible": true,
          "properties": [
            {
              "name": "tid",
              "type": "int",
              "value": 5
            }
          ]
        },
        {
          "id": 141,
          "name": "",
          "type": "obj_abyss_target",
          "gid": 5,
          "x": 559.0,
          "y": 1040.0,
          "width": 32.0,
          "height": 32.0,
          "rotation": -0.0,
          "visible": true,
          "properties": [
            {
              "name": "tid",
              "type": "int",
              "value": 6
            }
          ]
        },
        {
          "id": 142,
          "name": "",
          "type": "obj_spring_up",
          "gid": 265,
          "x": 2880.0,
          "y": 992.0,
          "width": 32.0,
          "height": 32.0,
          "rotation": -0.0,
          "visible": true
        },
        {
          "id": 143,
          "name": "",
          "type": "obj_angleanuller",
          "gid": 20,
          "x": 2624.0,
          "y": 1072.0,
          "width": 160.0,
          "height": 112.0,
          "rotation": -0.0,
          "visible": true
        },
        {
          "id": 144,
          "name": "",
          "type": "obj_angleanuller",
          "gid": 20,
          "x": 2496.0,
          "y": 1200.0,
          "width": 168.0,
          "height": 112.0,
          "rotation": -0.0,
          "visible": true
        },
        {
          "id": 145,
          "name": "",
          "type": "obj_angleanuller",
          "gid": 20,
          "x": 2456.0,
          "y": 760.0,
          "width": 180.0,
          "height": 136.0,
          "rotation": -0.0,
          "visible": true
        },
        {
          "id": 146,
          "name": "",
          "type": "obj_angleanuller",
          "gid": 20,
          "x": 2600.0,
          "y": 992.0,
          "width": 92.000016,
          "height": 80.0,
          "rotation": -0.0,
          "visible": true
        },
        {
          "id": 147,
          "name": "",
          "type": "obj_angleanuller",
          "gid": 20,
          "x": 2608.0,
          "y": 632.0,
          "width": 180.0,
          "height": 136.0,
          "rotation": -0.0,
          "visible": true
        },
        {
          "id": 148,
          "name": "",
          "type": "obj_angleanuller",
          "gid": 20,
          "x": 1584.0,
          "y": 624.0,
          "width": 180.0,
          "height": 136.0,
          "rotation": -0.0,
          "visible": true
        },
        {
          "id": 149,
          "name": "",
          "type": "obj_angleanuller",
          "gid": 20,
          "x": 1488.0,
          "y": 328.0,
          "width": 156.0,
          "height": 104.0,
          "rotation": -0.0,
          "visible": true
        },
        {
          "id": 305,
          "name": "",
          "type": "obj_deserttown_hide2",
          "gid": 63,
          "x": 3119.0,
          "y": 1231.0,
          "width": 49.0,
          "height": 80.0,
          "rotation": -0.0,
          "visible": true
        },
        {
          "id": 306,
          "name": "",
          "type": "obj_deserttown_hide2",
          "gid": 63,
          "x": 3072.0,
          "y": 1231.0,
          "width": 49.0,
          "height": 80.0,
          "rotation": -0.0,
          "visible": true
        },
        {
          "id": 307,
          "name": "",
          "type": "obj_deserttown_hide",
          "gid": 62,
          "x": 2422.0,
          "y": 1152.0,
          "width": 49.0,
          "height": 80.0,
          "rotation": -0.0,
          "visible": true,
          "properties": [
            {
              "name": "image_index",
              "type": "int",
              "value": -1
            }
          ]
        },
        {
          "id": 308,
          "name": "",
          "type": "obj_deserttown_hide",
          "gid": 62,
          "x": 2452.0,
          "y": 1152.0,
          "width": 49.0,
          "height": 80.0,
          "rotation": -0.0,
          "visible": true,
          "properties": [
            {
              "name": "image_index",
              "type": "int",
              "value": -1
            }
          ]
        },
        {
          "id": 309,
          "name": "",
          "type": "obj_deserttown_hide",
          "gid": 62,
          "x": 1238.0,
          "y": 336.0,
          "width": 49.0,
          "height": 80.0,
          "rotation": -0.0,
          "visible": true,
          "properties": [
            {
              "name": "image_index",
              "type": "int",
              "value": 1
            }
          ]
        },
        {
          "id": 310,
          "name": "",
          "type": "obj_deserttown_hide",
          "gid": 62,
          "x": 344.0,
          "y": 832.0,
          "width": 49.0,
          "height": 80.0,
          "rotation": -0.0,
          "visible": true,
          "properties": [
            {
              "name": "image_index",
              "type": "int",
              "value": 1
            }
          ]
        },
        {
          "id": 311,
          "name": "",
          "type": "obj_deserttown_hide",
          "gid": 62,
          "x": 312.0,
          "y": 832.0,
          "width": 49.0,
          "height": 80.0,
          "rotation": -0.0,
          "visible": true,
          "properties": [
            {
              "name": "image_index",
              "type": "int",
              "value": 1
            }
          ]
        },
        {
          "id": 312,
          "name": "",
          "type": "obj_deserttown_hide2",
          "gid": 63,
          "x": 1704.0,
          "y": 336.0,
          "width": 49.0,
          "height": 80.0,
          "rotation": -0.0,
          "visible": true,
          "properties": [
            {
              "name": "image_index",
              "type": "int",
              "value": 2
            }
          ]
        },
        {
          "id": 313,
          "name": "",
          "type": "obj_deserttown_hide2",
          "gid": 63,
          "x": 1744.0,
          "y": 576.0,
          "width": 49.0,
          "height": 80.0,
          "rotation": -0.0,
          "visible": true
        },
        {
          "id": 314,
          "name": "",
          "type": "obj_deserttown_hide2",
          "gid": 63,
          "x": 1344.0,
          "y": 656.0,
          "width": 49.0,
          "height": 80.0,
          "rotation": -0.0,
          "visible": true,
          "properties": [
            {
              "name": "image_index",
              "type": "int",
              "value": 1
            }
          ]
        },
        {
          "id": 315,
          "name": "",
          "type": "obj_deserttown_hide2",
          "gid": 63,
          "x": 2696.0,
          "y": 1232.0,
          "width": 49.0,
          "height": 80.0,
          "rotation": -0.0,
          "visible": true,
          "properties": [
            {
              "name": "image_index",
              "type": "int",
              "value": 1
            }
          ]
        },
        {
          "id": 316,
          "name": "",
          "type": "obj_deserttown_hide2",
          "gid": 63,
          "x": 2744.0,
          "y": 1232.0,
          "width": 49.0,
          "height": 80.0,
          "rotation": -0.0,
          "visible": true,
          "properties": [
            {
              "name": "image_index",
              "type": "int",
              "value": 2
            }
          ]
        },
        {
          "id": 317,
          "name": "",
          "type": "obj_deserttown_hide2",
          "gid": 63,
          "x": 2432.0,
          "y": 432.0,
          "width": 49.0,
          "height": 80.0,
          "rotation": -0.0,
          "visible": true,
          "properties": [
            {
              "name": "image_index",
              "type": "int",
              "value": 2
            }
          ]
        },
        {
          "id": 323,
          "name": "",
          "type": "obj_deserttown_trigger",
          "gid": 67,
          "x": 1215.687416,
          "y": 164.00006399999995,
          "width": 587.000064,
          "height": 867.999936,
          "rotation": -0.0,
          "visible": true
        },
        {
          "id": 324,
          "name": "",
          "type": "obj_deserttown_trigger",
          "gid": 67,
          "x": 2432.281216,
          "y": 272.0,
          "width": 391.000064,
          "height": 1040.0,
          "rotation": -0.0,
          "visible": true
        },
        {
          "id": 325,
          "name": "",
          "type": "obj_deserttown_trigger",
          "gid": 67,
          "x": 2820.187483,
          "y": 1040.0,
          "width": 474.000032,
          "height": 328.0,
          "rotation": -0.0,
          "visible": true
        },
        {
          "id": 326,
          "name": "",
          "type": "obj_deserttown_trigger",
          "gid": 67,
          "x": -1.3125339999999994,
          "y": 700.000016,
          "width": 394.000064,
          "height": 227.999984,
          "rotation": -0.0,
          "visible": true
        },
        {
          "id": 327,
          "name": "",
          "type": "obj_deserttown_i",
          "gid": 64,
          "x": 8.0,
          "y": 40.0,
          "width": 16.0,
          "height": 16.0,
          "rotation": -0.0,
          "visible": true
        },
        {
          "id": 328,
          "name": "",
          "type": "obj_deserttown_hide",
          "gid": 62,
          "x": 1494.0,
          "y": 528.0,
          "width": 49.0,
          "height": 80.0,
          "rotation": -0.0,
          "visible": true,
          "properties": [
            {
              "name": "image_index",
              "type": "int",
              "value": 1
            }
          ]
        },
        {
          "id": 329,
          "name": "",
          "type": "obj_warning",
          "gid": 280,
          "x": 540.0,
          "y": 1005.0,
          "width": 41.0,
          "height": 38.0,
          "rotation": -0.0,
          "visible": true
        },
        {
          "id": 330,
          "name": "",
          "type": "obj_warning",
          "gid": 280,
          "x": 1052.0,
          "y": 1165.0,
          "width": 41.0,
          "height": 38.0,
          "rotation": -0.0,
          "visible": true
        },
        {
          "id": 331,
          "name": "",
          "type": "obj_warning",
          "gid": 280,
          "x": 1948.0,
          "y": 1165.0,
          "width": 41.0,
          "height": 38.0,
          "rotation": -0.0,
          "visible": true
        },
        {
          "id": 332,
          "name": "",
          "type": "obj_warning",
          "gid": 280,
          "x": 2140.0,
          "y": 965.0,
          "width": 41.0,
          "height": 38.0,
          "rotation": -0.0,
          "visible": true
        },
        {
          "id": 333,
          "name": "",
          "type": "obj_warning",
          "gid": 280,
          "x": 1948.0,
          "y": 965.0,
          "width": 41.0,
          "height": 38.0,
          "rotation": -0.0,
          "visible": true
        },
        {
          "id": 334,
          "name": "",
          "type": "obj_warning",
          "gid": 280,
          "x": 1052.0,
          "y": 973.0,
          "width": 41.0,
          "height": 38.0,
          "rotation": -0.0,
          "visible": true
        },
        {
          "id": 335,
          "name": "",
          "type": "obj_warning",
          "gid": 280,
          "x": 2812.0,
          "y": 1269.0,
          "width": 41.0,
          "height": 38.0,
          "rotation": -0.0,
          "visible": true
        },
        {
          "id": 336,
          "name": "",
          "type": "obj_warning",
          "gid": 280,
          "x": 2972.0,
          "y": 1269.0,
          "width": 41.0,
          "height": 38.0,
          "rotation": -0.0,
          "visible": true
        },
        {
          "id": 337,
          "name": "",
          "type": "obj_warning",
          "gid": 280,
          "x": 2044.0,
          "y": 709.0,
          "width": 41.0,
          "height": 38.0,
          "rotation": -0.0,
          "visible": true
        },
        {
          "id": 338,
          "name": "",
          "type": "obj_warning",
          "gid": 280,
          "x": 412.0,
          "y": 1005.0,
          "width": 41.0,
          "height": 38.0,
          "rotation": -0.0,
          "visible": true
        },
        {
          "id": 339,
          "name": "",
          "type": "obj_warning",
          "gid": 280,
          "x": 924.0,
          "y": 1021.0,
          "width": 41.0,
          "height": 38.0,
          "rotation": -0.0,
          "visible": true
        },
        {
          "id": 342,
          "name": "",
          "type": "obj_solid_block",
          "gid": 255,
          "x": -32.0,
          "y": -8.0,
          "width": 32.0,
          "height": 1368.0,
          "rotation": -0.0,
          "visible": true
        },
        {
          "id": 343,
          "name": "",
          "type": "obj_solid_block2",
          "gid": 256,
          "x": 3296.0,
          "y": -16.0,
          "width": 32.0,
          "height": 1376.000128,
          "rotation": -0.0,
          "visible": true
        },
        {
          "id": 344,
          "name": "",
          "type": "obj_solid_block2",
          "gid": 256,
          "x": -32.0,
          "y": -32.0,
          "width": 3360.0,
          "height": 32.0,
          "rotation": -0.0,
          "visible": true
        }
      ],
      "properties": [
        {
          "name": "depth",
          "type": "int",
          "value": 0
        }
      ]
    },
    {
      "type": "objectgroup",
      "id": 8,
      "name": "Tiles",
      "draworder": "index",
      "opacity": 1.0,
      "visible": true,
      "x": 0,
      "y": 0,
      "objects": [
        {
          "id": 150,
          "name": "",
          "type": "obj_deserttown_tiles",
          "gid": 66,
          "x": 1728.0,
          "y": 656.0,
          "width": 32.0,
          "height": 32.0,
          "rotation": -0.0,
          "visible": true
        },
        {
          "id": 151,
          "name": "",
          "type": "obj_deserttown_tiles",
          "gid": 66,
          "x": 1696.0,
          "y": 672.0,
          "width": 32.0,
          "height": 32.0,
          "rotation": -0.0,
          "visible": true
        },
        {
          "id": 152,
          "name": "",
          "type": "obj_deserttown_tiles",
          "gid": 66,
          "x": 1664.0,
          "y": 688.0,
          "width": 32.0,
          "height": 32.0,
          "rotation": -0.0,
          "visible": true
        },
        {
          "id": 153,
          "name": "",
          "type": "obj_deserttown_tiles",
          "gid": 66,
          "x": 1632.0,
          "y": 704.0,
          "width": 32.0,
          "height": 32.0,
          "rotation": -0.0,
          "visible": true
        },
        {
          "id": 154,
          "name": "",
          "type": "obj_deserttown_tiles",
          "gid": 66,
          "x": 1600.0,
          "y": 720.0,
          "width": 32.0,
          "height": 32.0,
          "rotation": -0.0,
          "visible": true
        },
        {
          "id": 155,
          "name": "",
          "type": "obj_deserttown_tiles",
          "gid": 66,
          "x": 1504.0,
          "y": 352.0,
          "width": 32.0,
          "height": 32.0,
          "rotation": -0.0,
          "visible": true
        },
        {
          "id": 156,
          "name": "",
          "type": "obj_deserttown_tiles",
          "gid": 66,
          "x": 1536.0,
          "y": 368.0,
          "width": 32.0,
          "height": 32.0,
          "rotation": -0.0,
          "visible": true
        },
        {
          "id": 157,
          "name": "",
          "type": "obj_deserttown_tiles",
          "gid": 66,
          "x": 1568.0,
          "y": 384.0,
          "width": 32.0,
          "height": 32.0,
          "rotation": -0.0,
          "visible": true
        },
        {
          "id": 158,
          "name": "",
          "type": "obj_deserttown_tiles",
          "gid": 66,
          "x": 1600.0,
          "y": 400.0,
          "width": 32.0,
          "height": 32.0,
          "rotation": -0.0,
          "visible": true
        },
        {
          "id": 159,
          "name": "",
          "type": "obj_deserttown_tiles",
          "gid": 66,
          "x": 1632.0,
          "y": 416.0,
          "width": 32.0,
          "height": 32.0,
          "rotation": -0.0,
          "visible": true
        },
        {
          "id": 160,
          "name": "",
          "type": "obj_deserttown_tiles",
          "gid": 66,
          "x": 2464.0,
          "y": 800.0,
          "width": 32.0,
          "height": 32.0,
          "rotation": -0.0,
          "visible": true
        },
        {
          "id": 161,
          "name": "",
          "type": "obj_deserttown_tiles",
          "gid": 66,
          "x": 2496.0,
          "y": 816.0,
          "width": 32.0,
          "height": 32.0,
          "rotation": -0.0,
          "visible": true
        },
        {
          "id": 162,
          "name": "",
          "type": "obj_deserttown_tiles",
          "gid": 66,
          "x": 2528.0,
          "y": 832.0,
          "width": 32.0,
          "height": 32.0,
          "rotation": -0.0,
          "visible": true
        },
        {
          "id": 163,
          "name": "",
          "type": "obj_deserttown_tiles",
          "gid": 66,
          "x": 2560.0,
          "y": 848.0,
          "width": 32.0,
          "height": 32.0,
          "rotation": -0.0,
          "visible": true
        },
        {
          "id": 164,
          "name": "",
          "type": "obj_deserttown_tiles",
          "gid": 66,
          "x": 2592.0,
          "y": 864.0,
          "width": 32.0,
          "height": 32.0,
          "rotation": -0.0,
          "visible": true
        },
        {
          "id": 165,
          "name": "",
          "type": "obj_deserttown_tiles",
          "gid": 66,
          "x": 2624.0,
          "y": 880.0,
          "width": 32.0,
          "height": 32.0,
          "rotation": -0.0,
          "visible": true
        },
        {
          "id": 166,
          "name": "",
          "type": "obj_deserttown_tiles",
          "gid": 66,
          "x": 2592.0,
          "y": 752.0,
          "width": 32.0,
          "height": 32.0,
          "rotation": -0.0,
          "visible": true
        },
        {
          "id": 167,
          "name": "",
          "type": "obj_deserttown_tiles",
          "gid": 66,
          "x": 2624.0,
          "y": 736.0,
          "width": 32.0,
          "height": 32.0,
          "rotation": -0.0,
          "visible": true
        },
        {
          "id": 168,
          "name": "",
          "type": "obj_deserttown_tiles",
          "gid": 66,
          "x": 2656.0,
          "y": 720.0,
          "width": 32.0,
          "height": 32.0,
          "rotation": -0.0,
          "visible": true
        },
        {
          "id": 169,
          "name": "",
          "type": "obj_deserttown_tiles",
          "gid": 66,
          "x": 2688.0,
          "y": 704.0,
          "width": 32.0,
          "height": 32.0,
          "rotation": -0.0,
          "visible": true
        },
        {
          "id": 170,
          "name": "",
          "type": "obj_deserttown_tiles",
          "gid": 66,
          "x": 2720.0,
          "y": 688.0,
          "width": 32.0,
          "height": 32.0,
          "rotation": -0.0,
          "visible": true
        },
        {
          "id": 171,
          "name": "",
          "type": "obj_deserttown_tiles",
          "gid": 66,
          "x": 2752.0,
          "y": 672.0,
          "width": 32.0,
          "height": 32.0,
          "rotation": -0.0,
          "visible": true
        },
        {
          "id": 172,
          "name": "",
          "type": "obj_deserttown_tiles",
          "gid": 66,
          "x": 2752.0,
          "y": 1104.0,
          "width": 32.0,
          "height": 32.0,
          "rotation": -0.0,
          "visible": true
        },
        {
          "id": 173,
          "name": "",
          "type": "obj_deserttown_tiles",
          "gid": 66,
          "x": 2720.0,
          "y": 1120.0,
          "width": 32.0,
          "height": 32.0,
          "rotation": -0.0,
          "visible": true
        },
        {
          "id": 174,
          "name": "",
          "type": "obj_deserttown_tiles",
          "gid": 66,
          "x": 2688.0,
          "y": 1136.0,
          "width": 32.0,
          "height": 32.0,
          "rotation": -0.0,
          "visible": true
        },
        {
          "id": 175,
          "name": "",
          "type": "obj_deserttown_tiles",
          "gid": 66,
          "x": 2656.0,
          "y": 1152.0,
          "width": 32.0,
          "height": 32.0,
          "rotation": -0.0,
          "visible": true
        },
        {
          "id": 176,
          "name": "",
          "type": "obj_deserttown_tiles",
          "gid": 66,
          "x": 2624.0,
          "y": 1168.0,
          "width": 32.0,
          "height": 32.0,
          "rotation": -0.0,
          "visible": true
        },
        {
          "id": 177,
          "name": "",
          "type": "obj_deserttown_tiles",
          "gid": 66,
          "x": 2496.0,
          "y": 1232.0,
          "width": 32.0,
          "height": 32.0,
          "rotation": -0.0,
          "visible": true
        },
        {
          "id": 178,
          "name": "",
          "type": "obj_deserttown_tiles",
          "gid": 66,
          "x": 2528.0,
          "y": 1248.0,
          "width": 32.0,
          "height": 32.0,
          "rotation": -0.0,
          "visible": true
        },
        {
          "id": 179,
          "name": "",
          "type": "obj_deserttown_tiles",
          "gid": 66,
          "x": 2560.0,
          "y": 1264.0,
          "width": 32.0,
          "height": 32.0,
          "rotation": -0.0,
          "visible": true
        },
        {
          "id": 180,
          "name": "",
          "type": "obj_deserttown_tiles",
          "gid": 66,
          "x": 2592.0,
          "y": 1280.0,
          "width": 32.0,
          "height": 32.0,
          "rotation": -0.0,
          "visible": true
        },
        {
          "id": 181,
          "name": "",
          "type": "obj_deserttown_tiles",
          "gid": 66,
          "x": 2624.0,
          "y": 1296.0,
          "width": 32.0,
          "height": 32.0,
          "rotation": -0.0,
          "visible": true
        },
        {
          "id": 182,
          "name": "",
          "type": "obj_deserttown_misc",
          "gid": 65,
          "x": 149.0,
          "y": 876.0,
          "width": 48.0,
          "height": 36.0,
          "rotation": -0.0,
          "visible": true,
          "properties": [
            {
              "name": "image_index",
              "type": "int",
              "value": 1
            }
          ]
        },
        {
          "id": 183,
          "name": "",
          "type": "obj_deserttown_misc",
          "gid": 65,
          "x": 222.0,
          "y": 876.0,
          "width": 48.0,
          "height": 36.0,
          "rotation": -0.0,
          "visible": true,
          "properties": [
            {
              "name": "image_index",
              "type": "int",
              "value": 2
            }
          ]
        },
        {
          "id": 184,
          "name": "",
          "type": "obj_deserttown_misc",
          "gid": 65,
          "x": 187.0,
          "y": 876.0,
          "width": 48.0,
          "height": 36.0,
          "rotation": -0.0,
          "visible": true,
          "properties": [
            {
              "name": "image_index",
              "type": "int",
              "value": 4
            }
          ]
        },
        {
          "id": 185,
          "name": "",
          "type": "obj_deserttown_tiles",
          "gid": 66,
          "x": 0.0,
          "y": 1044.0,
          "width": 32.0,
          "height": 32.0,
          "rotation": -0.0,
          "visible": true,
          "properties": [
            {
              "name": "image_index",
              "type": "int",
              "value": 2
            }
          ]
        },
        {
          "id": 186,
          "name": "",
          "type": "obj_deserttown_tiles",
          "gid": 66,
          "x": 32.0,
          "y": 1044.0,
          "width": 32.0,
          "height": 32.0,
          "rotation": -0.0,
          "visible": true,
          "properties": [
            {
              "name": "image_index",
              "type": "int",
              "value": 2
            }
          ]
        },
        {
          "id": 187,
          "name": "",
          "type": "obj_deserttown_tiles",
          "gid": 66,
          "x": 64.0,
          "y": 1044.0,
          "width": 32.0,
          "height": 32.0,
          "rotation": -0.0,
          "visible": true,
          "properties": [
            {
              "name": "image_index",
              "type": "int",
              "value": 2
            }
          ]
        },
        {
          "id": 188,
          "name": "",
          "type": "obj_deserttown_tiles",
          "gid": 66,
          "x": 160.0,
          "y": 1044.0,
          "width": 32.0,
          "height": 32.0,
          "rotation": -0.0,
          "visible": true,
          "properties": [
            {
              "name": "image_index",
              "type": "int",
              "value": 2
            }
          ]
        },
        {
          "id": 189,
          "name": "",
          "type": "obj_deserttown_tiles",
          "gid": 66,
          "x": 128.0,
          "y": 1044.0,
          "width": 32.0,
          "height": 32.0,
          "rotation": -0.0,
          "visible": true,
          "properties": [
            {
              "name": "image_index",
              "type": "int",
              "value": 2
            }
          ]
        },
        {
          "id": 190,
          "name": "",
          "type": "obj_deserttown_tiles",
          "gid": 66,
          "x": 96.0,
          "y": 1044.0,
          "width": 32.0,
          "height": 32.0,
          "rotation": -0.0,
          "visible": true,
          "properties": [
            {
              "name": "image_index",
              "type": "int",
              "value": 2
            }
          ]
        },
        {
          "id": 191,
          "name": "",
          "type": "obj_deserttown_tiles",
          "gid": 66,
          "x": 192.0,
          "y": 1044.0,
          "width": 32.0,
          "height": 32.0,
          "rotation": -0.0,
          "visible": true,
          "properties": [
            {
              "name": "image_index",
              "type": "int",
              "value": 2
            }
          ]
        },
        {
          "id": 192,
          "name": "",
          "type": "obj_deserttown_tiles",
          "gid": 66,
          "x": 224.0,
          "y": 1044.0,
          "width": 32.0,
          "height": 32.0,
          "rotation": -0.0,
          "visible": true,
          "properties": [
            {
              "name": "image_index",
              "type": "int",
              "value": 2
            }
          ]
        },
        {
          "id": 193,
          "name": "",
          "type": "obj_deserttown_tiles",
          "gid": 66,
          "x": 256.0,
          "y": 1044.0,
          "width": 32.0,
          "height": 32.0,
          "rotation": -0.0,
          "visible": true,
          "properties": [
            {
              "name": "image_index",
              "type": "int",
              "value": 2
            }
          ]
        },
        {
          "id": 194,
          "name": "",
          "type": "obj_deserttown_tiles",
          "gid": 66,
          "x": 384.0,
          "y": 1044.0,
          "width": 32.0,
          "height": 32.0,
          "rotation": -0.0,
          "visible": true,
          "properties": [
            {
              "name": "image_index",
              "type": "int",
              "value": 2
            }
          ]
        },
        {
          "id": 195,
          "name": "",
          "type": "obj_deserttown_tiles",
          "gid": 66,
          "x": 352.0,
          "y": 1044.0,
          "width": 32.0,
          "height": 32.0,
          "rotation": -0.0,
          "visible": true,
          "properties": [
            {
              "name": "image_index",
              "type": "int",
              "value": 2
            }
          ]
        },
        {
          "id": 196,
          "name": "",
          "type": "obj_deserttown_tiles",
          "gid": 66,
          "x": 320.0,
          "y": 1044.0,
          "width": 32.0,
          "height": 32.0,
          "rotation": -0.0,
          "visible": true,
          "properties": [
            {
              "name": "image_index",
              "type": "int",
              "value": 2
            }
          ]
        },
        {
          "id": 197,
          "name": "",
          "type": "obj_deserttown_tiles",
          "gid": 66,
          "x": 288.0,
          "y": 1044.0,
          "width": 32.0,
          "height": 32.0,
          "rotation": -0.0,
          "visible": true,
          "properties": [
            {
              "name": "image_index",
              "type": "int",
              "value": 2
            }
          ]
        },
        {
          "id": 198,
          "name": "",
          "type": "obj_deserttown_tiles",
          "gid": 66,
          "x": 416.0,
          "y": 1044.0,
          "width": 32.0,
          "height": 32.0,
          "rotation": -0.0,
          "visible": true,
          "properties": [
            {
              "name": "image_index",
              "type": "int",
              "value": 2
            }
          ]
        },
        {
          "id": 199,
          "name": "",
          "type": "obj_deserttown_tiles",
          "gid": 66,
          "x": 544.0,
          "y": 1044.0,
          "width": 32.0,
          "height": 32.0,
          "rotation": -0.0,
          "visible": true,
          "properties": [
            {
              "name": "image_index",
              "type": "int",
              "value": 2
            }
          ]
        },
        {
          "id": 200,
          "name": "",
          "type": "obj_deserttown_tiles",
          "gid": 66,
          "x": 576.0,
          "y": 1044.0,
          "width": 32.0,
          "height": 32.0,
          "rotation": -0.0,
          "visible": true,
          "properties": [
            {
              "name": "image_index",
              "type": "int",
              "value": 2
            }
          ]
        },
        {
          "id": 201,
          "name": "",
          "type": "obj_deserttown_tiles",
          "gid": 66,
          "x": 608.0,
          "y": 1044.0,
          "width": 32.0,
          "height": 32.0,
          "rotation": -0.0,
          "visible": true,
          "properties": [
            {
              "name": "image_index",
              "type": "int",
              "value": 2
            }
          ]
        },
        {
          "id": 202,
          "name": "",
          "type": "obj_deserttown_tiles",
          "gid": 66,
          "x": 640.0,
          "y": 1044.0,
          "width": 32.0,
          "height": 32.0,
          "rotation": -0.0,
          "visible": true,
          "properties": [
            {
              "name": "image_index",
              "type": "int",
              "value": 2
            }
          ]
        },
        {
          "id": 203,
          "name": "",
          "type": "obj_deserttown_tiles",
          "gid": 66,
          "x": 767.0,
          "y": 1044.0,
          "width": 32.0,
          "height": 32.0,
          "rotation": -0.0,
          "visible": true,
          "properties": [
            {
              "name": "image_index",
              "type": "int",
              "value": 2
            }
          ]
        },
        {
          "id": 204,
          "name": "",
          "type": "obj_deserttown_tiles",
          "gid": 66,
          "x": 735.0,
          "y": 1044.0,
          "width": 32.0,
          "height": 32.0,
          "rotation": -0.0,
          "visible": true,
          "properties": [
            {
              "name": "image_index",
              "type": "int",
              "value": 2
            }
          ]
        },
        {
          "id": 205,
          "name": "",
          "type": "obj_deserttown_tiles",
          "gid": 66,
          "x": 703.0,
          "y": 1044.0,
          "width": 32.0,
          "height": 32.0,
          "rotation": -0.0,
          "visible": true,
          "properties": [
            {
              "name": "image_index",
              "type": "int",
              "value": 2
            }
          ]
        },
        {
          "id": 206,
          "name": "",
          "type": "obj_deserttown_tiles",
          "gid": 66,
          "x": 671.0,
          "y": 1044.0,
          "width": 32.0,
          "height": 32.0,
          "rotation": -0.0,
          "visible": true,
          "properties": [
            {
              "name": "image_index",
              "type": "int",
              "value": 2
            }
          ]
        },
        {
          "id": 207,
          "name": "",
          "type": "obj_deserttown_tiles",
          "gid": 66,
          "x": 895.0,
          "y": 1044.0,
          "width": 32.0,
          "height": 32.0,
          "rotation": -0.0,
          "visible": true,
          "properties": [
            {
              "name": "image_index",
              "type": "int",
              "value": 2
            }
          ]
        },
        {
          "id": 208,
          "name": "",
          "type": "obj_deserttown_tiles",
          "gid": 66,
          "x": 863.0,
          "y": 1044.0,
          "width": 32.0,
          "height": 32.0,
          "rotation": -0.0,
          "visible": true,
          "properties": [
            {
              "name": "image_index",
              "type": "int",
              "value": 2
            }
          ]
        },
        {
          "id": 209,
          "name": "",
          "type": "obj_deserttown_tiles",
          "gid": 66,
          "x": 831.0,
          "y": 1044.0,
          "width": 32.0,
          "height": 32.0,
          "rotation": -0.0,
          "visible": true,
          "properties": [
            {
              "name": "image_index",
              "type": "int",
              "value": 2
            }
          ]
        },
        {
          "id": 210,
          "name": "",
          "type": "obj_deserttown_tiles",
          "gid": 66,
          "x": 799.0,
          "y": 1044.0,
          "width": 32.0,
          "height": 32.0,
          "rotation": -0.0,
          "visible": true,
          "properties": [
            {
              "name": "image_index",
              "type": "int",
              "value": 2
            }
          ]
        },
        {
          "id": 211,
          "name": "",
          "type": "obj_deserttown_tiles",
          "gid": 66,
          "x": 928.0,
          "y": 1044.0,
          "width": 32.0,
          "height": 32.0,
          "rotation": -0.0,
          "visible": true,
          "properties": [
            {
              "name": "image_index",
              "type": "int",
              "value": 2
            }
          ]
        },
        {
          "id": 212,
          "name": "",
          "type": "obj_deserttown_tiles",
          "gid": 66,
          "x": 1248.0,
          "y": 1203.0,
          "width": 32.0,
          "height": 32.0,
          "rotation": -0.0,
          "visible": true,
          "properties": [
            {
              "name": "image_index",
              "type": "int",
              "value": 2
            }
          ]
        },
        {
          "id": 213,
          "name": "",
          "type": "obj_deserttown_tiles",
          "gid": 66,
          "x": 1216.0,
          "y": 1203.0,
          "width": 32.0,
          "height": 32.0,
          "rotation": -0.0,
          "visible": true,
          "properties": [
            {
              "name": "image_index",
              "type": "int",
              "value": 2
            }
          ]
        },
        {
          "id": 214,
          "name": "",
          "type": "obj_deserttown_tiles",
          "gid": 66,
          "x": 1184.0,
          "y": 1203.0,
          "width": 32.0,
          "height": 32.0,
          "rotation": -0.0,
          "visible": true,
          "properties": [
            {
              "name": "image_index",
              "type": "int",
              "value": 2
            }
          ]
        },
        {
          "id": 215,
          "name": "",
          "type": "obj_deserttown_tiles",
          "gid": 66,
          "x": 1152.0,
          "y": 1203.0,
          "width": 32.0,
          "height": 32.0,
          "rotation": -0.0,
          "visible": true,
          "properties": [
            {
              "name": "image_index",
              "type": "int",
              "value": 2
            }
          ]
        },
        {
          "id": 216,
          "name": "",
          "type": "obj_deserttown_tiles",
          "gid": 66,
          "x": 1120.0,
          "y": 1203.0,
          "width": 32.0,
          "height": 32.0,
          "rotation": -0.0,
          "visible": true,
          "properties": [
            {
              "name": "image_index",
              "type": "int",
              "value": 2
            }
          ]
        },
        {
          "id": 217,
          "name": "",
          "type": "obj_deserttown_tiles",
          "gid": 66,
          "x": 1088.0,
          "y": 1203.0,
          "width": 32.0,
          "height": 32.0,
          "rotation": -0.0,
          "visible": true,
          "properties": [
            {
              "name": "image_index",
              "type": "int",
              "value": 2
            }
          ]
        },
        {
          "id": 218,
          "name": "",
          "type": "obj_deserttown_tiles",
          "gid": 66,
          "x": 1056.0,
          "y": 1203.0,
          "width": 32.0,
          "height": 32.0,
          "rotation": -0.0,
          "visible": true,
          "properties": [
            {
              "name": "image_index",
              "type": "int",
              "value": 2
            }
          ]
        },
        {
          "id": 219,
          "name": "",
          "type": "obj_deserttown_tiles",
          "gid": 66,
          "x": 1344.0,
          "y": 1203.0,
          "width": 32.0,
          "height": 32.0,
          "rotation": -0.0,
          "visible": true,
          "properties": [
            {
              "name": "image_index",
              "type": "int",
              "value": 2
            }
          ]
        },
        {
          "id": 220,
          "name": "",
          "type": "obj_deserttown_tiles",
          "gid": 66,
          "x": 1312.0,
          "y": 1203.0,
          "width": 32.0,
          "height": 32.0,
          "rotation": -0.0,
          "visible": true,
          "properties": [
            {
              "name": "image_index",
              "type": "int",
              "value": 2
            }
          ]
        },
        {
          "id": 221,
          "name": "",
          "type": "obj_deserttown_tiles",
          "gid": 66,
          "x": 1280.0,
          "y": 1203.0,
          "width": 32.0,
          "height": 32.0,
          "rotation": -0.0,
          "visible": true,
          "properties": [
            {
              "name": "image_index",
              "type": "int",
              "value": 2
            }
          ]
        },
        {
          "id": 222,
          "name": "",
          "type": "obj_deserttown_tiles",
          "gid": 66,
          "x": 1376.0,
          "y": 1203.0,
          "width": 32.0,
          "height": 32.0,
          "rotation": -0.0,
          "visible": true,
          "properties": [
            {
              "name": "image_index",
              "type": "int",
              "value": 2
            }
          ]
        },
        {
          "id": 223,
          "name": "",
          "type": "obj_deserttown_tiles",
          "gid": 66,
          "x": 1568.0,
          "y": 1204.0,
          "width": 32.0,
          "height": 32.0,
          "rotation": -0.0,
          "visible": true,
          "properties": [
            {
              "name": "image_index",
              "type": "int",
              "value": 2
            }
          ]
        },
        {
          "id": 224,
          "name": "",
          "type": "obj_deserttown_tiles",
          "gid": 66,
          "x": 1600.0,
          "y": 1204.0,
          "width": 32.0,
          "height": 32.0,
          "rotation": -0.0,
          "visible": true,
          "properties": [
            {
              "name": "image_index",
              "type": "int",
              "value": 2
            }
          ]
        },
        {
          "id": 225,
          "name": "",
          "type": "obj_deserttown_tiles",
          "gid": 66,
          "x": 1664.0,
          "y": 1204.0,
          "width": 32.0,
          "height": 32.0,
          "rotation": -0.0,
          "visible": true,
          "properties": [
            {
              "name": "image_index",
              "type": "int",
              "value": 2
            }
          ]
        },
        {
          "id": 226,
          "name": "",
          "type": "obj_deserttown_tiles",
          "gid": 66,
          "x": 1632.0,
          "y": 1204.0,
          "width": 32.0,
          "height": 32.0,
          "rotation": -0.0,
          "visible": true,
          "properties": [
            {
              "name": "image_index",
              "type": "int",
              "value": 2
            }
          ]
        },
        {
          "id": 227,
          "name": "",
          "type": "obj_deserttown_tiles",
          "gid": 66,
          "x": 1792.0,
          "y": 1204.0,
          "width": 32.0,
          "height": 32.0,
          "rotation": -0.0,
          "visible": true,
          "properties": [
            {
              "name": "image_index",
              "type": "int",
              "value": 2
            }
          ]
        },
        {
          "id": 228,
          "name": "",
          "type": "obj_deserttown_tiles",
          "gid": 66,
          "x": 1760.0,
          "y": 1204.0,
          "width": 32.0,
          "height": 32.0,
          "rotation": -0.0,
          "visible": true,
          "properties": [
            {
              "name": "image_index",
              "type": "int",
              "value": 2
            }
          ]
        },
        {
          "id": 229,
          "name": "",
          "type": "obj_deserttown_tiles",
          "gid": 66,
          "x": 1728.0,
          "y": 1204.0,
          "width": 32.0,
          "height": 32.0,
          "rotation": -0.0,
          "visible": true,
          "properties": [
            {
              "name": "image_index",
              "type": "int",
              "value": 2
            }
          ]
        },
        {
          "id": 230,
          "name": "",
          "type": "obj_deserttown_tiles",
          "gid": 66,
          "x": 1696.0,
          "y": 1204.0,
          "width": 32.0,
          "height": 32.0,
          "rotation": -0.0,
          "visible": true,
          "properties": [
            {
              "name": "image_index",
              "type": "int",
              "value": 2
            }
          ]
        },
        {
          "id": 231,
          "name": "",
          "type": "obj_deserttown_tiles",
          "gid": 66,
          "x": 1920.0,
          "y": 1204.0,
          "width": 32.0,
          "height": 32.0,
          "rotation": -0.0,
          "visible": true,
          "properties": [
            {
              "name": "image_index",
              "type": "int",
              "value": 2
            }
          ]
        },
        {
          "id": 232,
          "name": "",
          "type": "obj_deserttown_tiles",
          "gid": 66,
          "x": 1888.0,
          "y": 1204.0,
          "width": 32.0,
          "height": 32.0,
          "rotation": -0.0,
          "visible": true,
          "properties": [
            {
              "name": "image_index",
              "type": "int",
              "value": 2
            }
          ]
        },
        {
          "id": 233,
          "name": "",
          "type": "obj_deserttown_tiles",
          "gid": 66,
          "x": 1856.0,
          "y": 1204.0,
          "width": 32.0,
          "height": 32.0,
          "rotation": -0.0,
          "visible": true,
          "properties": [
            {
              "name": "image_index",
              "type": "int",
              "value": 2
            }
          ]
        },
        {
          "id": 234,
          "name": "",
          "type": "obj_deserttown_tiles",
          "gid": 66,
          "x": 1824.0,
          "y": 1204.0,
          "width": 32.0,
          "height": 32.0,
          "rotation": -0.0,
          "visible": true,
          "properties": [
            {
              "name": "image_index",
              "type": "int",
              "value": 2
            }
          ]
        },
        {
          "id": 235,
          "name": "",
          "type": "obj_deserttown_tiles",
          "gid": 66,
          "x": 1952.0,
          "y": 1204.0,
          "width": 32.0,
          "height": 32.0,
          "rotation": -0.0,
          "visible": true,
          "properties": [
            {
              "name": "image_index",
              "type": "int",
              "value": 2
            }
          ]
        },
        {
          "id": 236,
          "name": "",
          "type": "obj_deserttown_tiles",
          "gid": 66,
          "x": 1856.0,
          "y": 708.0,
          "width": 32.0,
          "height": 32.0,
          "rotation": -0.0,
          "visible": true,
          "properties": [
            {
              "name": "image_index",
              "type": "int",
              "value": 2
            }
          ]
        },
        {
          "id": 237,
          "name": "",
          "type": "obj_deserttown_tiles",
          "gid": 66,
          "x": 1888.0,
          "y": 708.0,
          "width": 32.0,
          "height": 32.0,
          "rotation": -0.0,
          "visible": true,
          "properties": [
            {
              "name": "image_index",
              "type": "int",
              "value": 2
            }
          ]
        },
        {
          "id": 238,
          "name": "",
          "type": "obj_deserttown_tiles",
          "gid": 66,
          "x": 1920.0,
          "y": 708.0,
          "width": 32.0,
          "height": 32.0,
          "rotation": -0.0,
          "visible": true,
          "properties": [
            {
              "name": "image_index",
              "type": "int",
              "value": 2
            }
          ]
        },
        {
          "id": 239,
          "name": "",
          "type": "obj_deserttown_tiles",
          "gid": 66,
          "x": 1952.0,
          "y": 708.0,
          "width": 32.0,
          "height": 32.0,
          "rotation": -0.0,
          "visible": true,
          "properties": [
            {
              "name": "image_index",
              "type": "int",
              "value": 2
            }
          ]
        },
        {
          "id": 240,
          "name": "",
          "type": "obj_deserttown_tiles",
          "gid": 66,
          "x": 2144.0,
          "y": 772.0,
          "width": 32.0,
          "height": 32.0,
          "rotation": -0.0,
          "visible": true,
          "properties": [
            {
              "name": "image_index",
              "type": "int",
              "value": 2
            }
          ]
        },
        {
          "id": 241,
          "name": "",
          "type": "obj_deserttown_tiles",
          "gid": 66,
          "x": 2176.0,
          "y": 772.0,
          "width": 32.0,
          "height": 32.0,
          "rotation": -0.0,
          "visible": true,
          "properties": [
            {
              "name": "image_index",
              "type": "int",
              "value": 2
            }
          ]
        },
        {
          "id": 242,
          "name": "",
          "type": "obj_deserttown_tiles",
          "gid": 66,
          "x": 2208.0,
          "y": 772.0,
          "width": 32.0,
          "height": 32.0,
          "rotation": -0.0,
          "visible": true,
          "properties": [
            {
              "name": "image_index",
              "type": "int",
              "value": 2
            }
          ]
        },
        {
          "id": 243,
          "name": "",
          "type": "obj_deserttown_tiles",
          "gid": 66,
          "x": 2240.0,
          "y": 772.0,
          "width": 32.0,
          "height": 32.0,
          "rotation": -0.0,
          "visible": true,
          "properties": [
            {
              "name": "image_index",
              "type": "int",
              "value": 2
            }
          ]
        },
        {
          "id": 244,
          "name": "",
          "type": "obj_deserttown_tiles",
          "gid": 66,
          "x": 2336.0,
          "y": 772.0,
          "width": 32.0,
          "height": 32.0,
          "rotation": -0.0,
          "visible": true,
          "properties": [
            {
              "name": "image_index",
              "type": "int",
              "value": 2
            }
          ]
        },
        {
          "id": 245,
          "name": "",
          "type": "obj_deserttown_tiles",
          "gid": 66,
          "x": 2304.0,
          "y": 772.0,
          "width": 32.0,
          "height": 32.0,
          "rotation": -0.0,
          "visible": true,
          "properties": [
            {
              "name": "image_index",
              "type": "int",
              "value": 2
            }
          ]
        },
        {
          "id": 246,
          "name": "",
          "type": "obj_deserttown_tiles",
          "gid": 66,
          "x": 2272.0,
          "y": 772.0,
          "width": 32.0,
          "height": 32.0,
          "rotation": -0.0,
          "visible": true,
          "properties": [
            {
              "name": "image_index",
              "type": "int",
              "value": 2
            }
          ]
        },
        {
          "id": 247,
          "name": "",
          "type": "obj_deserttown_tiles",
          "gid": 66,
          "x": 2880.0,
          "y": 500.0,
          "width": 32.0,
          "height": 32.0,
          "rotation": -0.0,
          "visible": true,
          "properties": [
            {
              "name": "image_index",
              "type": "int",
              "value": 2
            }
          ]
        },
        {
          "id": 248,
          "name": "",
          "type": "obj_deserttown_tiles",
          "gid": 66,
          "x": 2912.0,
          "y": 500.0,
          "width": 32.0,
          "height": 32.0,
          "rotation": -0.0,
          "visible": true,
          "properties": [
            {
              "name": "image_index",
              "type": "int",
              "value": 2
            }
          ]
        },
        {
          "id": 249,
          "name": "",
          "type": "obj_deserttown_tiles",
          "gid": 66,
          "x": 2944.0,
          "y": 500.0,
          "width": 32.0,
          "height": 32.0,
          "rotation": -0.0,
          "visible": true,
          "properties": [
            {
              "name": "image_index",
              "type": "int",
              "value": 2
            }
          ]
        },
        {
          "id": 250,
          "name": "",
          "type": "obj_deserttown_tiles",
          "gid": 66,
          "x": 2976.0,
          "y": 500.0,
          "width": 32.0,
          "height": 32.0,
          "rotation": -0.0,
          "visible": true,
          "properties": [
            {
              "name": "image_index",
              "type": "int",
              "value": 2
            }
          ]
        },
        {
          "id": 251,
          "name": "",
          "type": "obj_deserttown_tiles",
          "gid": 66,
          "x": 3136.0,
          "y": 660.0,
          "width": 32.0,
          "height": 32.0,
          "rotation": -0.0,
          "visible": true,
          "properties": [
            {
              "name": "image_index",
              "type": "int",
              "value": 2
            }
          ]
        },
        {
          "id": 252,
          "name": "",
          "type": "obj_deserttown_tiles",
          "gid": 66,
          "x": 3104.0,
          "y": 660.0,
          "width": 32.0,
          "height": 32.0,
          "rotation": -0.0,
          "visible": true,
          "properties": [
            {
              "name": "image_index",
              "type": "int",
              "value": 2
            }
          ]
        },
        {
          "id": 253,
          "name": "",
          "type": "obj_deserttown_tiles",
          "gid": 66,
          "x": 3072.0,
          "y": 660.0,
          "width": 32.0,
          "height": 32.0,
          "rotation": -0.0,
          "visible": true,
          "properties": [
            {
              "name": "image_index",
              "type": "int",
              "value": 2
            }
          ]
        },
        {
          "id": 254,
          "name": "",
          "type": "obj_deserttown_tiles",
          "gid": 66,
          "x": 3040.0,
          "y": 660.0,
          "width": 32.0,
          "height": 32.0,
          "rotation": -0.0,
          "visible": true,
          "properties": [
            {
              "name": "image_index",
              "type": "int",
              "value": 2
            }
          ]
        },
        {
          "id": 255,
          "name": "",
          "type": "obj_deserttown_tiles",
          "gid": 66,
          "x": 3264.0,
          "y": 660.0,
          "width": 32.0,
          "height": 32.0,
          "rotation": -0.0,
          "visible": true,
          "properties": [
            {
              "name": "image_index",
              "type": "int",
              "value": 2
            }
          ]
        },
        {
          "id": 256,
          "name": "",
          "type": "obj_deserttown_tiles",
          "gid": 66,
          "x": 3232.0,
          "y": 660.0,
          "width": 32.0,
          "height": 32.0,
          "rotation": -0.0,
          "visible": true,
          "properties": [
            {
              "name": "image_index",
              "type": "int",
              "value": 2
            }
          ]
        },
        {
          "id": 257,
          "name": "",
          "type": "obj_deserttown_tiles",
          "gid": 66,
          "x": 3200.0,
          "y": 660.0,
          "width": 32.0,
          "height": 32.0,
          "rotation": -0.0,
          "visible": true,
          "properties": [
            {
              "name": "image_index",
              "type": "int",
              "value": 2
            }
          ]
        },
        {
          "id": 258,
          "name": "",
          "type": "obj_deserttown_tiles",
          "gid": 66,
          "x": 3168.0,
          "y": 660.0,
          "width": 32.0,
          "height": 32.0,
          "rotation": -0.0,
          "visible": true,
          "properties": [
            {
              "name": "image_index",
              "type": "int",
              "value": 2
            }
          ]
        },
        {
          "id": 259,
          "name": "",
          "type": "obj_deserttown_tiles",
          "gid": 66,
          "x": 2656.0,
          "y": 228.0,
          "width": 32.0,
          "height": 32.0,
          "rotation": -0.0,
          "visible": true,
          "properties": [
            {
              "name": "image_index",
              "type": "int",
              "value": 2
            }
          ]
        },
        {
          "id": 260,
          "name": "",
          "type": "obj_deserttown_tiles",
          "gid": 66,
          "x": 2688.0,
          "y": 228.0,
          "width": 32.0,
          "height": 32.0,
          "rotation": -0.0,
          "visible": true,
          "properties": [
            {
              "name": "image_index",
              "type": "int",
              "value": 2
            }
          ]
        },
        {
          "id": 261,
          "name": "",
          "type": "obj_deserttown_tiles",
          "gid": 66,
          "x": 2720.0,
          "y": 228.0,
          "width": 32.0,
          "height": 32.0,
          "rotation": -0.0,
          "visible": true,
          "properties": [
            {
              "name": "image_index",
              "type": "int",
              "value": 2
            }
          ]
        },
        {
          "id": 262,
          "name": "",
          "type": "obj_deserttown_tiles",
          "gid": 66,
          "x": 2752.0,
          "y": 228.0,
          "width": 32.0,
          "height": 32.0,
          "rotation": -0.0,
          "visible": true,
          "properties": [
            {
              "name": "image_index",
              "type": "int",
              "value": 2
            }
          ]
        },
        {
          "id": 263,
          "name": "",
          "type": "obj_deserttown_tiles",
          "gid": 66,
          "x": 2784.0,
          "y": 228.0,
          "width": 32.0,
          "height": 32.0,
          "rotation": -0.0,
          "visible": true,
          "properties": [
            {
              "name": "image_index",
              "type": "int",
              "value": 2
            }
          ]
        },
        {
          "id": 264,
          "name": "",
          "type": "obj_deserttown_tiles",
          "gid": 66,
          "x": 2816.0,
          "y": 228.0,
          "width": 32.0,
          "height": 32.0,
          "rotation": -0.0,
          "visible": true,
          "properties": [
            {
              "name": "image_index",
              "type": "int",
              "value": 2
            }
          ]
        },
        {
          "id": 265,
          "name": "",
          "type": "obj_deserttown_tiles",
          "gid": 66,
          "x": 2848.0,
          "y": 228.0,
          "width": 32.0,
          "height": 32.0,
          "rotation": -0.0,
          "visible": true,
          "properties": [
            {
              "name": "image_index",
              "type": "int",
              "value": 2
            }
          ]
        },
        {
          "id": 266,
          "name": "",
          "type": "obj_deserttown_tiles",
          "gid": 66,
          "x": 2368.0,
          "y": 228.0,
          "width": 32.0,
          "height": 32.0,
          "rotation": -0.0,
          "visible": true,
          "properties": [
            {
              "name": "image_index",
              "type": "int",
              "value": 2
            }
          ]
        },
        {
          "id": 267,
          "name": "",
          "type": "obj_deserttown_tiles",
          "gid": 66,
          "x": 2400.0,
          "y": 228.0,
          "width": 32.0,
          "height": 32.0,
          "rotation": -0.0,
          "visible": true,
          "properties": [
            {
              "name": "image_index",
              "type": "int",
              "value": 2
            }
          ]
        },
        {
          "id": 268,
          "name": "",
          "type": "obj_deserttown_tiles",
          "gid": 66,
          "x": 2432.0,
          "y": 228.0,
          "width": 32.0,
          "height": 32.0,
          "rotation": -0.0,
          "visible": true,
          "properties": [
            {
              "name": "image_index",
              "type": "int",
              "value": 2
            }
          ]
        },
        {
          "id": 269,
          "name": "",
          "type": "obj_deserttown_tiles",
          "gid": 66,
          "x": 2464.0,
          "y": 228.0,
          "width": 32.0,
          "height": 32.0,
          "rotation": -0.0,
          "visible": true,
          "properties": [
            {
              "name": "image_index",
              "type": "int",
              "value": 2
            }
          ]
        },
        {
          "id": 270,
          "name": "",
          "type": "obj_deserttown_tiles",
          "gid": 66,
          "x": 2496.0,
          "y": 228.0,
          "width": 32.0,
          "height": 32.0,
          "rotation": -0.0,
          "visible": true,
          "properties": [
            {
              "name": "image_index",
              "type": "int",
              "value": 2
            }
          ]
        },
        {
          "id": 271,
          "name": "",
          "type": "obj_deserttown_tiles",
          "gid": 66,
          "x": 2528.0,
          "y": 228.0,
          "width": 32.0,
          "height": 32.0,
          "rotation": -0.0,
          "visible": true,
          "properties": [
            {
              "name": "image_index",
              "type": "int",
              "value": 2
            }
          ]
        },
        {
          "id": 272,
          "name": "",
          "type": "obj_deserttown_tiles",
          "gid": 66,
          "x": 2560.0,
          "y": 228.0,
          "width": 32.0,
          "height": 32.0,
          "rotation": -0.0,
          "visible": true,
          "properties": [
            {
              "name": "image_index",
              "type": "int",
              "value": 2
            }
          ]
        },
        {
          "id": 273,
          "name": "",
          "type": "obj_deserttown_tiles",
          "gid": 66,
          "x": 2592.0,
          "y": 228.0,
          "width": 32.0,
          "height": 32.0,
          "rotation": -0.0,
          "visible": true,
          "properties": [
            {
              "name": "image_index",
              "type": "int",
              "value": 2
            }
          ]
        },
        {
          "id": 274,
          "name": "",
          "type": "obj_deserttown_tiles",
          "gid": 66,
          "x": 2624.0,
          "y": 228.0,
          "width": 32.0,
          "height": 32.0,
          "rotation": -0.0,
          "visible": true,
          "properties": [
            {
              "name": "image_index",
              "type": "int",
              "value": 2
            }
          ]
        },
        {
          "id": 275,
          "name": "",
          "type": "obj_deserttown_tiles",
          "gid": 66,
          "x": 1184.0,
          "y": 116.0,
          "width": 32.0,
          "height": 32.0,
          "rotation": -0.0,
          "visible": true,
          "properties": [
            {
              "name": "image_index",
              "type": "int",
              "value": 2
            }
          ]
        },
        {
          "id": 276,
          "name": "",
          "type": "obj_deserttown_tiles",
          "gid": 66,
          "x": 1216.0,
          "y": 116.0,
          "width": 32.0,
          "height": 32.0,
          "rotation": -0.0,
          "visible": true,
          "properties": [
            {
              "name": "image_index",
              "type": "int",
              "value": 2
            }
          ]
        },
        {
          "id": 277,
          "name": "",
          "type": "obj_deserttown_tiles",
          "gid": 66,
          "x": 1248.0,
          "y": 116.0,
          "width": 32.0,
          "height": 32.0,
          "rotation": -0.0,
          "visible": true,
          "properties": [
            {
              "name": "image_index",
              "type": "int",
              "value": 2
            }
          ]
        },
        {
          "id": 278,
          "name": "",
          "type": "obj_deserttown_tiles",
          "gid": 66,
          "x": 1280.0,
          "y": 116.0,
          "width": 32.0,
          "height": 32.0,
          "rotation": -0.0,
          "visible": true,
          "properties": [
            {
              "name": "image_index",
              "type": "int",
              "value": 2
            }
          ]
        },
        {
          "id": 279,
          "name": "",
          "type": "obj_deserttown_tiles",
          "gid": 66,
          "x": 1312.0,
          "y": 116.0,
          "width": 32.0,
          "height": 32.0,
          "rotation": -0.0,
          "visible": true,
          "properties": [
            {
              "name": "image_index",
              "type": "int",
              "value": 2
            }
          ]
        },
        {
          "id": 280,
          "name": "",
          "type": "obj_deserttown_tiles",
          "gid": 66,
          "x": 1344.0,
          "y": 116.0,
          "width": 32.0,
          "height": 32.0,
          "rotation": -0.0,
          "visible": true,
          "properties": [
            {
              "name": "image_index",
              "type": "int",
              "value": 2
            }
          ]
        },
        {
          "id": 281,
          "name": "",
          "type": "obj_deserttown_tiles",
          "gid": 66,
          "x": 1376.0,
          "y": 116.0,
          "width": 32.0,
          "height": 32.0,
          "rotation": -0.0,
          "visible": true,
          "properties": [
            {
              "name": "image_index",
              "type": "int",
              "value": 2
            }
          ]
        },
        {
          "id": 282,
          "name": "",
          "type": "obj_deserttown_tiles",
          "gid": 66,
          "x": 1408.0,
          "y": 116.0,
          "width": 32.0,
          "height": 32.0,
          "rotation": -0.0,
          "visible": true,
          "properties": [
            {
              "name": "image_index",
              "type": "int",
              "value": 2
            }
          ]
        },
        {
          "id": 283,
          "name": "",
          "type": "obj_deserttown_tiles",
          "gid": 66,
          "x": 1440.0,
          "y": 116.0,
          "width": 32.0,
          "height": 32.0,
          "rotation": -0.0,
          "visible": true,
          "properties": [
            {
              "name": "image_index",
              "type": "int",
              "value": 2
            }
          ]
        },
        {
          "id": 284,
          "name": "",
          "type": "obj_deserttown_tiles",
          "gid": 66,
          "x": 1472.0,
          "y": 116.0,
          "width": 32.0,
          "height": 32.0,
          "rotation": -0.0,
          "visible": true,
          "properties": [
            {
              "name": "image_index",
              "type": "int",
              "value": 2
            }
          ]
        },
        {
          "id": 285,
          "name": "",
          "type": "obj_deserttown_tiles",
          "gid": 66,
          "x": 1504.0,
          "y": 116.0,
          "width": 32.0,
          "height": 32.0,
          "rotation": -0.0,
          "visible": true,
          "properties": [
            {
              "name": "image_index",
              "type": "int",
              "value": 2
            }
          ]
        },
        {
          "id": 286,
          "name": "",
          "type": "obj_deserttown_tiles",
          "gid": 66,
          "x": 1536.0,
          "y": 116.0,
          "width": 32.0,
          "height": 32.0,
          "rotation": -0.0,
          "visible": true,
          "properties": [
            {
              "name": "image_index",
              "type": "int",
              "value": 2
            }
          ]
        },
        {
          "id": 287,
          "name": "",
          "type": "obj_deserttown_tiles",
          "gid": 66,
          "x": 1568.0,
          "y": 116.0,
          "width": 32.0,
          "height": 32.0,
          "rotation": -0.0,
          "visible": true,
          "properties": [
            {
              "name": "image_index",
              "type": "int",
              "value": 2
            }
          ]
        },
        {
          "id": 288,
          "name": "",
          "type": "obj_deserttown_tiles",
          "gid": 66,
          "x": 1600.0,
          "y": 116.0,
          "width": 32.0,
          "height": 32.0,
          "rotation": -0.0,
          "visible": true,
          "properties": [
            {
              "name": "image_index",
              "type": "int",
              "value": 2
            }
          ]
        },
        {
          "id": 289,
          "name": "",
          "type": "obj_deserttown_tiles",
          "gid": 66,
          "x": 1632.0,
          "y": 116.0,
          "width": 32.0,
          "height": 32.0,
          "rotation": -0.0,
          "visible": true,
          "properties": [
            {
              "name": "image_index",
              "type": "int",
              "value": 2
            }
          ]
        },
        {
          "id": 290,
          "name": "",
          "type": "obj_deserttown_tiles",
          "gid": 66,
          "x": 1664.0,
          "y": 116.0,
          "width": 32.0,
          "height": 32.0,
          "rotation": -0.0,
          "visible": true,
          "properties": [
            {
              "name": "image_index",
              "type": "int",
              "value": 2
            }
          ]
        },
        {
          "id": 291,
          "name": "",
          "type": "obj_deserttown_tiles",
          "gid": 66,
          "x": 1695.0,
          "y": 116.0,
          "width": 32.0,
          "height": 32.0,
          "rotation": -0.0,
          "visible": true,
          "properties": [
            {
              "name": "image_index",
              "type": "int",
              "value": 2
            }
          ]
        },
        {
          "id": 292,
          "name": "",
          "type": "obj_deserttown_tiles",
          "gid": 66,
          "x": 1727.0,
          "y": 116.0,
          "width": 32.0,
          "height": 32.0,
          "rotation": -0.0,
          "visible": true,
          "properties": [
            {
              "name": "image_index",
              "type": "int",
              "value": 2
            }
          ]
        },
        {
          "id": 293,
          "name": "",
          "type": "obj_deserttown_tiles",
          "gid": 66,
          "x": 1759.0,
          "y": 116.0,
          "width": 32.0,
          "height": 32.0,
          "rotation": -0.0,
          "visible": true,
          "properties": [
            {
              "name": "image_index",
              "type": "int",
              "value": 2
            }
          ]
        },
        {
          "id": 294,
          "name": "",
          "type": "obj_deserttown_tiles",
          "gid": 66,
          "x": 1791.0,
          "y": 116.0,
          "width": 32.0,
          "height": 32.0,
          "rotation": -0.0,
          "visible": true,
          "properties": [
            {
              "name": "image_index",
              "type": "int",
              "value": 2
            }
          ]
        },
        {
          "id": 295,
          "name": "",
          "type": "obj_deserttown_tiles",
          "gid": 66,
          "x": 2912.0,
          "y": 996.0,
          "width": 32.0,
          "height": 32.0,
          "rotation": -0.0,
          "visible": true,
          "properties": [
            {
              "name": "image_index",
              "type": "int",
              "value": 2
            }
          ]
        },
        {
          "id": 296,
          "name": "",
          "type": "obj_deserttown_tiles",
          "gid": 66,
          "x": 2976.0,
          "y": 996.0,
          "width": 32.0,
          "height": 32.0,
          "rotation": -0.0,
          "visible": true,
          "properties": [
            {
              "name": "image_index",
              "type": "int",
              "value": 2
            }
          ]
        },
        {
          "id": 297,
          "name": "",
          "type": "obj_deserttown_tiles",
          "gid": 66,
          "x": 2944.0,
          "y": 996.0,
          "width": 32.0,
          "height": 32.0,
          "rotation": -0.0,
          "visible": true,
          "properties": [
            {
              "name": "image_index",
              "type": "int",
              "value": 2
            }
          ]
        },
        {
          "id": 298,
          "name": "",
          "type": "obj_deserttown_tiles",
          "gid": 66,
          "x": 3008.0,
          "y": 996.0,
          "width": 32.0,
          "height": 32.0,
          "rotation": -0.0,
          "visible": true,
          "properties": [
            {
              "name": "image_index",
              "type": "int",
              "value": 2
            }
          ]
        },
        {
          "id": 299,
          "name": "",
          "type": "obj_deserttown_tiles",
          "gid": 66,
          "x": 3040.0,
          "y": 996.0,
          "width": 32.0,
          "height": 32.0,
          "rotation": -0.0,
          "visible": true,
          "properties": [
            {
              "name": "image_index",
              "type": "int",
              "value": 2
            }
          ]
        },
        {
          "id": 300,
          "name": "",
          "type": "obj_deserttown_tiles",
          "gid": 66,
          "x": 3072.0,
          "y": 996.0,
          "width": 32.0,
          "height": 32.0,
          "rotation": -0.0,
          "visible": true,
          "properties": [
            {
              "name": "image_index",
              "type": "int",
              "value": 2
            }
          ]
        },
        {
          "id": 301,
          "name": "",
          "type": "obj_deserttown_tiles",
          "gid": 66,
          "x": 3168.0,
          "y": 996.0,
          "width": 32.0,
          "height": 32.0,
          "rotation": -0.0,
          "visible": true,
          "properties": [
            {
              "name": "image_index",
              "type": "int",
              "value": 2
            }
          ]
        },
        {
          "id": 302,
          "name": "",
          "type": "obj_deserttown_tiles",
          "gid": 66,
          "x": 3200.0,
          "y": 996.0,
          "width": 32.0,
          "height": 32.0,
          "rotation": -0.0,
          "visible": true,
          "properties": [
            {
              "name": "image_index",
              "type": "int",
              "value": 2
            }
          ]
        },
        {
          "id": 303,
          "name": "",
          "type": "obj_deserttown_tiles",
          "gid": 66,
          "x": 3232.0,
          "y": 996.0,
          "width": 32.0,
          "height": 32.0,
          "rotation": -0.0,
          "visible": true,
          "properties": [
            {
              "name": "image_index",
              "type": "int",
              "value": 2
            }
          ]
        },
        {
          "id": 304,
          "name": "",
          "type": "obj_deserttown_tiles",
          "gid": 66,
          "x": 3264.0,
          "y": 996.0,
          "width": 32.0,
          "height": 32.0,
          "rotation": -0.0,
          "visible": true,
          "properties": [
            {
              "name": "image_index",
              "type": "int",
              "value": 2
            }
          ]
        },
        {
          "id": 318,
          "name": "",
          "type": "obj_deserttown_misc",
          "gid": 65,
          "x": 1582.0,
          "y": 572.0,
          "width": 48.0,
          "height": 36.0,
          "rotation": -0.0,
          "visible": true
        },
        {
          "id": 319,
          "name": "",
          "type": "obj_deserttown_misc",
          "gid": 65,
          "x": 1542.0,
          "y": 572.0,
          "width": 48.0,
          "height": 36.0,
          "rotation": -0.0,
          "visible": true,
          "properties": [
            {
              "name": "image_index",
              "type": "int",
              "value": 1
            }
          ]
        },
        {
          "id": 320,
          "name": "",
          "type": "obj_deserttown_misc",
          "gid": 65,
          "x": 2691.0,
          "y": 412.0,
          "width": 48.0,
          "height": 36.0,
          "rotation": -0.0,
          "visible": true
        },
        {
          "id": 321,
          "name": "",
          "type": "obj_deserttown_misc",
          "gid": 65,
          "x": 2653.0,
          "y": 412.0,
          "width": 48.0,
          "height": 36.0,
          "rotation": -0.0,
          "visible": true,
          "properties": [
            {
              "name": "image_index",
              "type": "int",
              "value": 1
            }
          ]
        },
        {
          "id": 322,
          "name": "",
          "type": "obj_deserttown_misc",
          "gid": 65,
          "x": 2738.0,
          "y": 413.0,
          "width": 48.0,
          "height": 36.0,
          "rotation": -0.0,
          "visible": true,
          "properties": [
            {
              "name": "image_index",
              "type": "int",
              "value": 3
            }
          ]
        },
        {
          "id": 340,
          "name": "",
          "type": "obj_deserttown_tiles",
          "gid": 66,
          "x": 2656.0,
          "y": 1040.0,
          "width": 32.0,
          "height": 32.0,
          "rotation": -0.0,
          "visible": true
        },
        {
          "id": 341,
          "name": "",
          "type": "obj_deserttown_tiles",
          "gid": 66,
          "x": 2624.0,
          "y": 1024.0,
          "width": 32.0,
          "height": 32.0,
          "rotation": -0.0,
          "visible": true
        }
      ],
      "properties": [
        {
          "name": "depth",
          "type": "int",
          "value": -100
        }
      ]
    },
    {
      "type": "objectgroup",
      "id": 12,
      "name": "LevelArt deserttown_tiles3",
      "draworder": "index",
      "opacity": 1.0,
      "visible": true,
      "x": 0,
      "y": 0,
      "objects": [
        {
          "id": 349,
          "name": "",
          "type": "",
          "gid": 10215,
          "x": 0.0,
          "y": 0.0,
          "width": 1648.0,
          "height": 1360.0,
          "rotation": -0.0,
          "visible": true,
          "properties": [
            {
              "name": "animation_speed",
              "type": "float",
              "value": 0.0
            }
          ]
        },
        {
          "id": 350,
          "name": "",
          "type": "",
          "gid": 10215,
          "x": 1648.0,
          "y": 0.0,
          "width": 1648.0,
          "height": 1360.0,
          "rotation": -0.0,
          "visible": true,
          "properties": [
            {
              "name": "animation_speed",
              "type": "float",
              "value": 0.0
            },
            {
              "name": "frame",
              "type": "float",
              "value": 1.0
            }
          ]
        }
      ],
      "properties": [
        {
          "name": "depth",
          "type": "int",
          "value": -300
        },
        {
          "name": "asset_layer",
          "type": "bool",
          "value": true
        }
      ]
    },
    {
      "type": "imagelayer",
      "id": 9,
      "name": "TilesBalls",
      "image": "../Textures/Zones/DesertTown/deserttown_fog.png",
      "imagewidth": 2046,
      "imageheight": 1322,
      "repeatx": true,
      "repeaty": true,
      "offsetx": 0.0,
      "offsety": 0.0,
      "opacity": 1.0,
      "visible": true,
      "tintcolor": "#9ccccccc",
      "x": 0,
      "y": 0,
      "properties": [
        {
          "name": "depth",
          "type": "int",
          "value": -400
        },
        {
          "name": "hspeed",
          "type": "float",
          "value": 2.0
        }
      ]
    },
    {
      "type": "objectgroup",
      "id": 11,
      "name": "LevelArt deserttown_tiles2",
      "draworder": "index",
      "opacity": 1.0,
      "visible": true,
      "x": 0,
      "y": 0,
      "objects": [
        {
          "id": 347,
          "name": "",
          "type": "",
          "gid": 10214,
          "x": 0.0,
          "y": 0.0,
          "width": 1648.0,
          "height": 1360.0,
          "rotation": -0.0,
          "visible": true,
          "properties": [
            {
              "name": "animation_speed",
              "type": "float",
              "value": 0.0
            }
          ]
        },
        {
          "id": 348,
          "name": "",
          "type": "",
          "gid": 10214,
          "x": 1648.0,
          "y": 0.0,
          "width": 1648.0,
          "height": 1360.0,
          "rotation": -0.0,
          "visible": true,
          "properties": [
            {
              "name": "animation_speed",
              "type": "float",
              "value": 0.0
            },
            {
              "name": "frame",
              "type": "float",
              "value": 1.0
            }
          ]
        }
      ],
      "properties": [
        {
          "name": "depth",
          "type": "int",
          "value": -400
        },
        {
          "name": "asset_layer",
          "type": "bool",
          "value": true
        }
      ]
    }
  ]
}