{
  "type": "map",
  "version": "1.10",
  "orientation": "orthogonal",
  "renderorder": "right-down",
  "infinite": false,
  "width": 368,
  "height": 342,
  "tilewidth": 8,
  "tileheight": 8,
  "nextlayerid": 4,
  "nextobjectid": 141,
  "properties": [
    {
      "name": "persistent",
      "type": "bool",
      "value": false
    },
    {
      "name": "views_enabled",
      "type": "bool",
      "value": false
    },
    {
      "name": "clear_view_background",
      "type": "bool",
      "value": false
    },
    {
      "name": "view_visible",
      "type": "bool",
      "value": false
    },
    {
      "name": "view_x",
      "type": "int",
      "value": 0
    },
    {
      "name": "view_y",
      "type": "int",
      "value": 0
    },
    {
      "name": "view_width",
      "type": "int",
      "value": 1366
    },
    {
      "name": "view_height",
      "type": "int",
      "value": 768
    },
    {
      "name": "port_x",
      "type": "int",
      "value": 0
    },
    {
      "name": "port_y",
      "type": "int",
      "value": 0
    },
    {
      "name": "port_width",
      "type": "int",
      "value": 1366
    },
    {
      "name": "port_height",
      "type": "int",
      "value": 768
    }
  ],
  "tilesets": [
    {
      "firstgid": 1,
      "source": "Tilesets/objects.tsj"
    },
    {
      "firstgid": 10000,
      "source": "Tilesets/sprites.tsj"
    }
  ],
  "layers": [
    {
      "type": "imagelayer",
      "id": 1,
      "name": "Colour",
      "image": "../Textures/Zones/Fart Zone/fartzone.png",
      "imagewidth": 128,
      "imageheight": 128,
      "repeatx": true,
      "repeaty": true,
      "offsetx": 0.0,
      "offsety": 0.0,
      "opacity": 1.0,
      "visible": true,
      "tintcolor": "#ff333333",
      "x": 0,
      "y": 0,
      "properties": [
        {
          "name": "depth",
          "type": "int",
          "value": 200
        }
      ]
    },
    {
      "type": "objectgroup",
      "id": 2,
      "name": "Assets_1",
      "draworder": "index",
      "opacity": 1.0,
      "visible": true,
      "x": 0,
      "y": 0,
      "objects": [
        {
          "id": 138,
          "name": "",
          "type": "",
          "gid": 10419,
          "x": 2816.0,
          "y": 1800.0,
          "width": 128.0,
          "height": 128.0,
          "rotation": -0.0,
          "visible": true
        },
        {
          "id": 139,
          "name": "",
          "type": "",
          "gid": 10419,
          "x": 2688.0,
          "y": 1800.0,
          "width": 128.0,
          "height": 128.0,
          "rotation": -0.0,
          "visible": true
        },
        {
          "id": 140,
          "name": "",
          "type": "",
          "gid": 10419,
          "x": 2560.0,
          "y": 1800.0,
          "width": 128.0,
          "height": 128.0,
          "rotation": -0.0,
          "visible": true
        }
      ],
      "properties": [
        {
          "name": "depth",
          "type": "int",
          "value": 100
        },
        {
          "name": "asset_layer",
          "type": "bool",
          "value": true
        }
      ]
    },
    {
      "type": "objectgroup",
      "id": 3,
      "name": "Instances",
      "draworder": "index",
      "opacity": 1.0,
      "visible": true,
      "x": 0,
      "y": 0,
      "objects": [
        {
          "id": 1,
          "name": "",
          "type": "obj_ringspawn",
          "gid": 251,
          "x": 2159.0,
          "y": 2536.0,
          "width": 32.0,
          "height": 32.0,
          "rotation": -0.0,
          "visible": true
        },
        {
          "id": 2,
          "name": "",
          "type": "obj_spawnpoint",
          "gid": 259,
          "x": 175.0,
          "y": 2448.0,
          "width": 32.0,
          "height": 32.0,
          "rotation": -0.0,
          "visible": true
        },
        {
          "id": 3,
          "name": "",
          "type": "obj_exespawn",
          "gid": 85,
          "x": 855.0,
          "y": 2448.0,
          "width": 32.0,
          "height": 32.0,
          "rotation": -0.0,
          "visible": true
        },
        {
          "id": 4,
          "name": "",
          "type": "obj_fart_tile",
          "gid": 94,
          "x": 0.0,
          "y": 2480.0,
          "width": 128.0,
          "height": 128.0,
          "rotation": -0.0,
          "visible": true
        },
        {
          "id": 5,
          "name": "",
          "type": "obj_fart_tile",
          "gid": 94,
          "x": 128.0,
          "y": 2480.0,
          "width": 128.0,
          "height": 128.0,
          "rotation": -0.0,
          "visible": true
        },
        {
          "id": 6,
          "name": "",
          "type": "obj_fart_tile",
          "gid": 94,
          "x": 256.0,
          "y": 2480.0,
          "width": 128.0,
          "height": 128.0,
          "rotation": -0.0,
          "visible": true
        },
        {
          "id": 7,
          "name": "",
          "type": "obj_fart_tile",
          "gid": 94,
          "x": 384.0,
          "y": 2480.0,
          "width": 128.0,
          "height": 128.0,
          "rotation": -0.0,
          "visible": true
        },
        {
          "id": 8,
          "name": "",
          "type": "obj_fart_tile",
          "gid": 94,
          "x": 0.0,
          "y": 2608.0,
          "width": 128.0,
          "height": 128.0,
          "rotation": -0.0,
          "visible": true
        },
        {
          "id": 9,
          "name": "",
          "type": "obj_fart_tile",
          "gid": 94,
          "x": 128.0,
          "y": 2608.0,
          "width": 128.0,
          "height": 128.0,
          "rotation": -0.0,
          "visible": true
        },
        {
          "id": 10,
          "name": "",
          "type": "obj_fart_tile",
          "gid": 94,
          "x": 256.0,
          "y": 2608.0,
          "width": 128.0,
          "height": 128.0,
          "rotation": -0.0,
          "visible": true
        },
        {
          "id": 11,
          "name": "",
          "type": "obj_fart_tile",
          "gid": 94,
          "x": 384.0,
          "y": 2608.0,
          "width": 128.0,
          "height": 128.0,
          "rotation": -0.0,
          "visible": true
        },
        {
          "id": 12,
          "name": "",
          "type": "obj_fart_tile",
          "gid": 94,
          "x": 512.0,
          "y": 2480.0,
          "width": 128.0,
          "height": 128.0,
          "rotation": -0.0,
          "visible": true
        },
        {
          "id": 13,
          "name": "",
          "type": "obj_fart_tile",
          "gid": 94,
          "x": 640.0,
          "y": 2480.0,
          "width": 128.0,
          "height": 128.0,
          "rotation": -0.0,
          "visible": true
        },
        {
          "id": 14,
          "name": "",
          "type": "obj_fart_tile",
          "gid": 94,
          "x": 768.0,
          "y": 2480.0,
          "width": 128.0,
          "height": 128.0,
          "rotation": -0.0,
          "visible": true
        },
        {
          "id": 15,
          "name": "",
          "type": "obj_fart_tile",
          "gid": 94,
          "x": 896.0,
          "y": 2480.0,
          "width": 128.0,
          "height": 128.0,
          "rotation": -0.0,
          "visible": true
        },
        {
          "id": 16,
          "name": "",
          "type": "obj_fart_tile",
          "gid": 94,
          "x": 512.0,
          "y": 2608.0,
          "width": 128.0,
          "height": 128.0,
          "rotation": -0.0,
          "visible": true
        },
        {
          "id": 17,
          "name": "",
          "type": "obj_fart_tile",
          "gid": 94,
          "x": 640.0,
          "y": 2608.0,
          "width": 128.0,
          "height": 128.0,
          "rotation": -0.0,
          "visible": true
        },
        {
          "id": 18,
          "name": "",
          "type": "obj_fart_tile",
          "gid": 94,
          "x": 768.0,
          "y": 2608.0,
          "width": 128.0,
          "height": 128.0,
          "rotation": -0.0,
          "visible": true
        },
        {
          "id": 19,
          "name": "",
          "type": "obj_fart_tile",
          "gid": 94,
          "x": 896.0,
          "y": 2608.0,
          "width": 128.0,
          "height": 128.0,
          "rotation": -0.0,
          "visible": true
        },
        {
          "id": 20,
          "name": "",
          "type": "obj_fart_tile",
          "gid": 94,
          "x": 1024.0,
          "y": 2480.0,
          "width": 128.0,
          "height": 128.0,
          "rotation": -0.0,
          "visible": true
        },
        {
          "id": 21,
          "name": "",
          "type": "obj_fart_tile",
          "gid": 94,
          "x": 1152.0,
          "y": 2480.0,
          "width": 128.0,
          "height": 128.0,
          "rotation": -0.0,
          "visible": true
        },
        {
          "id": 22,
          "name": "",
          "type": "obj_fart_tile",
          "gid": 94,
          "x": 1024.0,
          "y": 2608.0,
          "width": 128.0,
          "height": 128.0,
          "rotation": -0.0,
          "visible": true
        },
        {
          "id": 23,
          "name": "",
          "type": "obj_fart_tile",
          "gid": 94,
          "x": 1152.0,
          "y": 2608.0,
          "width": 128.0,
          "height": 128.0,
          "rotation": -0.0,
          "visible": true
        },
        {
          "id": 24,
          "name": "",
          "type": "obj_fart_tile",
          "gid": 94,
          "x": 1280.0,
          "y": 2608.0,
          "width": 128.0,
          "height": 128.0,
          "rotation": -0.0,
          "visible": true
        },
        {
          "id": 25,
          "name": "",
          "type": "obj_fart_tile",
          "gid": 94,
          "x": 1408.0,
          "y": 2608.0,
          "width": 128.0,
          "height": 128.0,
          "rotation": -0.0,
          "visible": true
        },
        {
          "id": 26,
          "name": "",
          "type": "obj_fart_tile",
          "gid": 94,
          "x": 1536.0,
          "y": 2608.0,
          "width": 128.0,
          "height": 128.0,
          "rotation": -0.0,
          "visible": true
        },
        {
          "id": 27,
          "name": "",
          "type": "obj_fart_tile",
          "gid": 94,
          "x": 1664.0,
          "y": 2608.0,
          "width": 128.0,
          "height": 128.0,
          "rotation": -0.0,
          "visible": true
        },
        {
          "id": 28,
          "name": "",
          "type": "obj_fart_tile",
          "gid": 94,
          "x": 1792.0,
          "y": 2608.0,
          "width": 128.0,
          "height": 128.0,
          "rotation": -0.0,
          "visible": true
        },
        {
          "id": 29,
          "name": "",
          "type": "obj_fart_tile",
          "gid": 94,
          "x": 1920.0,
          "y": 2608.0,
          "width": 128.0,
          "height": 128.0,
          "rotation": -0.0,
          "visible": true
        },
        {
          "id": 30,
          "name": "",
          "type": "obj_fart_tile",
          "gid": 94,
          "x": 2048.0,
          "y": 2608.0,
          "width": 128.0,
          "height": 128.0,
          "rotation": -0.0,
          "visible": true
        },
        {
          "id": 31,
          "name": "",
          "type": "obj_fart_tile",
          "gid": 94,
          "x": 2176.0,
          "y": 2608.0,
          "width": 128.0,
          "height": 128.0,
          "rotation": -0.0,
          "visible": true
        },
        {
          "id": 32,
          "name": "",
          "type": "obj_fart_tile",
          "gid": 94,
          "x": 2304.0,
          "y": 2608.0,
          "width": 128.0,
          "height": 128.0,
          "rotation": -0.0,
          "visible": true
        },
        {
          "id": 33,
          "name": "",
          "type": "obj_fart_tile",
          "gid": 94,
          "x": 2432.0,
          "y": 2608.0,
          "width": 128.0,
          "height": 128.0,
          "rotation": -0.0,
          "visible": true
        },
        {
          "id": 34,
          "name": "",
          "type": "obj_fart_tile",
          "gid": 94,
          "x": 2560.0,
          "y": 2608.0,
          "width": 128.0,
          "height": 128.0,
          "rotation": -0.0,
          "visible": true
        },
        {
          "id": 35,
          "name": "",
          "type": "obj_fart_tile",
          "gid": 94,
          "x": 2688.0,
          "y": 2608.0,
          "width": 128.0,
          "height": 128.0,
          "rotation": -0.0,
          "visible": true
        },
        {
          "id": 36,
          "name": "",
          "type": "obj_fart_tile",
          "gid": 94,
          "x": 2816.0,
          "y": 2608.0,
          "width": 128.0,
          "height": 128.0,
          "rotation": -0.0,
          "visible": true
        },
        {
          "id": 37,
          "name": "",
          "type": "obj_fart_tile",
          "gid": 94,
          "x": 384.0,
          "y": 2128.0,
          "width": 128.0,
          "height": 128.0,
          "rotation": -0.0,
          "visible": true
        },
        {
          "id": 38,
          "name": "",
          "type": "obj_fart_tile",
          "gid": 94,
          "x": 512.0,
          "y": 2128.0,
          "width": 128.0,
          "height": 128.0,
          "rotation": -0.0,
          "visible": true
        },
        {
          "id": 39,
          "name": "",
          "type": "obj_fart_tile",
          "gid": 94,
          "x": 640.0,
          "y": 2128.0,
          "width": 128.0,
          "height": 128.0,
          "rotation": -0.0,
          "visible": true
        },
        {
          "id": 40,
          "name": "",
          "type": "obj_fart_tile",
          "gid": 94,
          "x": 896.0,
          "y": 2128.0,
          "width": 128.0,
          "height": 128.0,
          "rotation": -0.0,
          "visible": true
        },
        {
          "id": 41,
          "name": "",
          "type": "obj_fart_tile",
          "gid": 94,
          "x": 1152.0,
          "y": 2128.0,
          "width": 128.0,
          "height": 128.0,
          "rotation": -0.0,
          "visible": true
        },
        {
          "id": 42,
          "name": "",
          "type": "obj_fart_tile",
          "gid": 94,
          "x": 1280.0,
          "y": 2128.0,
          "width": 128.0,
          "height": 128.0,
          "rotation": -0.0,
          "visible": true
        },
        {
          "id": 43,
          "name": "",
          "type": "obj_fart_tile",
          "gid": 94,
          "x": 1408.0,
          "y": 2128.0,
          "width": 128.0,
          "height": 128.0,
          "rotation": -0.0,
          "visible": true
        },
        {
          "id": 44,
          "name": "",
          "type": "obj_fart_tile",
          "gid": 94,
          "x": 1536.0,
          "y": 2128.0,
          "width": 128.0,
          "height": 128.0,
          "rotation": -0.0,
          "visible": true
        },
        {
          "id": 45,
          "name": "",
          "type": "obj_fart_tile",
          "gid": 94,
          "x": 1664.0,
          "y": 2128.0,
          "width": 128.0,
          "height": 128.0,
          "rotation": -0.0,
          "visible": true
        },
        {
          "id": 46,
          "name": "",
          "type": "obj_fart_tile",
          "gid": 94,
          "x": 1792.0,
          "y": 2128.0,
          "width": 128.0,
          "height": 128.0,
          "rotation": -0.0,
          "visible": true
        },
        {
          "id": 47,
          "name": "",
          "type": "obj_fart_tile",
          "gid": 94,
          "x": 1920.0,
          "y": 2128.0,
          "width": 128.0,
          "height": 128.0,
          "rotation": -0.0,
          "visible": true
        },
        {
          "id": 48,
          "name": "",
          "type": "obj_fart_tile",
          "gid": 94,
          "x": 2048.0,
          "y": 2128.0,
          "width": 128.0,
          "height": 128.0,
          "rotation": -0.0,
          "visible": true
        },
        {
          "id": 49,
          "name": "",
          "type": "obj_fart_tile",
          "gid": 94,
          "x": 2176.0,
          "y": 2128.0,
          "width": 128.0,
          "height": 128.0,
          "rotation": -0.0,
          "visible": true
        },
        {
          "id": 50,
          "name": "",
          "type": "obj_fart_tile",
          "gid": 94,
          "x": 2304.0,
          "y": 2128.0,
          "width": 128.0,
          "height": 128.0,
          "rotation": -0.0,
          "visible": true
        },
        {
          "id": 51,
          "name": "",
          "type": "obj_fart_tile",
          "gid": 94,
          "x": 2432.0,
          "y": 2128.0,
          "width": 128.0,
          "height": 128.0,
          "rotation": -0.0,
          "visible": true
        },
        {
          "id": 52,
          "name": "",
          "type": "obj_fart_tile",
          "gid": 94,
          "x": 2560.0,
          "y": 2128.0,
          "width": 128.0,
          "height": 128.0,
          "rotation": -0.0,
          "visible": true
        },
        {
          "id": 53,
          "name": "",
          "type": "obj_fart_tile",
          "gid": 94,
          "x": 2688.0,
          "y": 2128.0,
          "width": 128.0,
          "height": 128.0,
          "rotation": -0.0,
          "visible": true
        },
        {
          "id": 54,
          "name": "",
          "type": "obj_fart_tile",
          "gid": 94,
          "x": 2816.0,
          "y": 2128.0,
          "width": 128.0,
          "height": 128.0,
          "rotation": -0.0,
          "visible": true
        },
        {
          "id": 55,
          "name": "",
          "type": "obj_fart_tile",
          "gid": 94,
          "x": 1152.0,
          "y": 2256.0,
          "width": 128.0,
          "height": 128.0,
          "rotation": -0.0,
          "visible": true
        },
        {
          "id": 56,
          "name": "",
          "type": "obj_bspring_up",
          "gid": 34,
          "x": 1280.0,
          "y": 2576.0,
          "width": 32.0,
          "height": 32.0,
          "rotation": -0.0,
          "visible": true
        },
        {
          "id": 57,
          "name": "",
          "type": "obj_yspring_up",
          "gid": 299,
          "x": 1032.0,
          "y": 2448.0,
          "width": 32.0,
          "height": 32.0,
          "rotation": -0.0,
          "visible": true
        },
        {
          "id": 58,
          "name": "",
          "type": "obj_spike",
          "gid": 260,
          "x": 592.0,
          "y": 2096.0,
          "width": 32.0,
          "height": 32.0,
          "rotation": -0.0,
          "visible": true
        },
        {
          "id": 59,
          "name": "",
          "type": "obj_spike",
          "gid": 260,
          "x": 624.0,
          "y": 2096.0,
          "width": 32.0,
          "height": 32.0,
          "rotation": -0.0,
          "visible": true
        },
        {
          "id": 60,
          "name": "",
          "type": "obj_spike",
          "gid": 260,
          "x": 656.0,
          "y": 2096.0,
          "width": 32.0,
          "height": 32.0,
          "rotation": -0.0,
          "visible": true
        },
        {
          "id": 61,
          "name": "",
          "type": "obj_spike",
          "gid": 260,
          "x": 688.0,
          "y": 2096.0,
          "width": 32.0,
          "height": 32.0,
          "rotation": -0.0,
          "visible": true
        },
        {
          "id": 62,
          "name": "",
          "type": "obj_angleanuller",
          "gid": 20,
          "x": 600.0,
          "y": 2072.0,
          "width": 112.0,
          "height": 32.0,
          "rotation": -0.0,
          "visible": true
        },
        {
          "id": 63,
          "name": "",
          "type": "obj_angleanuller_eggsafe",
          "gid": 21,
          "x": 592.0,
          "y": 2095.9658,
          "width": 128.0,
          "height": 32.0,
          "rotation": 359.91843531,
          "visible": true
        },
        {
          "id": 64,
          "name": "",
          "type": "obj_movingspike",
          "gid": 195,
          "x": 724.0,
          "y": 2100.0,
          "width": 30.0,
          "height": 28.0,
          "rotation": -0.0,
          "visible": true
        },
        {
          "id": 65,
          "name": "",
          "type": "obj_movingspike",
          "gid": 195,
          "x": 754.0,
          "y": 2100.0,
          "width": 30.0,
          "height": 28.0,
          "rotation": -0.0,
          "visible": true
        },
        {
          "id": 66,
          "name": "",
          "type": "obj_movingspike",
          "gid": 195,
          "x": 784.0,
          "y": 2100.0,
          "width": 30.0,
          "height": 28.0,
          "rotation": -0.0,
          "visible": true
        },
        {
          "id": 67,
          "name": "",
          "type": "obj_movingspike",
          "gid": 195,
          "x": 814.0,
          "y": 2100.0,
          "width": 30.0,
          "height": 28.0,
          "rotation": -0.0,
          "visible": true
        },
        {
          "id": 68,
          "name": "",
          "type": "obj_fart_tile",
          "gid": 94,
          "x": 768.0,
          "y": 2128.0,
          "width": 128.0,
          "height": 128.0,
          "rotation": -0.0,
          "visible": true
        },
        {
          "id": 69,
          "name": "",
          "type": "obj_fart_tile",
          "gid": 94,
          "x": 256.0,
          "y": 2128.0,
          "width": 128.0,
          "height": 128.0,
          "rotation": -0.0,
          "visible": true
        },
        {
          "id": 70,
          "name": "",
          "type": "obj_fart_tile",
          "gid": 94,
          "x": 128.0,
          "y": 2128.0,
          "width": 128.0,
          "height": 128.0,
          "rotation": -0.0,
          "visible": true
        },
        {
          "id": 71,
          "name": "",
          "type": "obj_spring_up",
          "gid": 265,
          "x": 80.0,
          "y": 2448.0,
          "width": 32.0,
          "height": 32.0,
          "rotation": -0.0,
          "visible": true
        },
        {
          "id": 72,
          "name": "",
          "type": "obj_bspring_right",
          "gid": 33,
          "x": 1024.0,
          "y": 2164.0,
          "width": 44.0,
          "height": 44.0,
          "rotation": -0.0,
          "visible": true
        },
        {
          "id": 73,
          "name": "",
          "type": "obj_jack_in_the_box",
          "gid": 118,
          "x": 1184.0,
          "y": 2064.0,
          "width": 64.0,
          "height": 64.0,
          "rotation": -0.0,
          "visible": true
        },
        {
          "id": 74,
          "name": "",
          "type": "obj_deserttown_hide",
          "gid": 62,
          "x": 1272.0,
          "y": 2048.0,
          "width": 49.0,
          "height": 80.0,
          "rotation": -0.0,
          "visible": true,
          "properties": [
            {
              "name": "image_speed",
              "type": "float",
              "value": 0.0
            }
          ]
        },
        {
          "id": 75,
          "name": "",
          "type": "obj_deserttown_hide",
          "gid": 62,
          "x": 1328.0,
          "y": 2048.0,
          "width": 49.0,
          "height": 80.0,
          "rotation": -0.0,
          "visible": true,
          "properties": [
            {
              "name": "image_index",
              "type": "int",
              "value": 1
            },
            {
              "name": "image_speed",
              "type": "float",
              "value": 0.0
            }
          ]
        },
        {
          "id": 76,
          "name": "",
          "type": "obj_deserttown_hide2",
          "gid": 63,
          "x": 1400.0,
          "y": 2048.0,
          "width": 49.0,
          "height": 80.0,
          "rotation": -0.0,
          "visible": true
        },
        {
          "id": 77,
          "name": "",
          "type": "obj_hd_hide",
          "gid": 111,
          "x": 1488.0,
          "y": 2064.0,
          "width": 64.0,
          "height": 64.0,
          "rotation": -0.0,
          "visible": true,
          "properties": [
            {
              "name": "image_speed",
              "type": "float",
              "value": 0.0
            }
          ]
        },
        {
          "id": 78,
          "name": "",
          "type": "obj_hd_hide",
          "gid": 111,
          "x": 1584.0,
          "y": 2064.0,
          "width": 64.0,
          "height": 64.0,
          "rotation": -0.0,
          "visible": true,
          "properties": [
            {
              "name": "image_index",
              "type": "int",
              "value": 3
            },
            {
              "name": "image_speed",
              "type": "float",
              "value": 0.0
            }
          ]
        },
        {
          "id": 79,
          "name": "",
          "type": "obj_limpcity_hideeye",
          "gid": 131,
          "x": 1672.0,
          "y": 2081.0,
          "width": 57.0,
          "height": 47.0,
          "rotation": -0.0,
          "visible": true
        },
        {
          "id": 80,
          "name": "",
          "type": "obj_aiz_bush",
          "gid": 10,
          "x": 1752.0,
          "y": 2080.0,
          "width": 68.0,
          "height": 51.0,
          "rotation": -0.0,
          "visible": true
        },
        {
          "id": 81,
          "name": "",
          "type": "obj_aiz_palm",
          "gid": 11,
          "x": 1832.0,
          "y": 1974.0,
          "width": 104.0,
          "height": 154.0,
          "rotation": -0.0,
          "visible": true
        },
        {
          "id": 82,
          "name": "",
          "type": "obj_eggstatue",
          "gid": 74,
          "x": 1955.0,
          "y": 2058.0,
          "width": 58.0,
          "height": 70.0,
          "rotation": -0.0,
          "visible": true
        },
        {
          "id": 83,
          "name": "",
          "type": "obj_darktower_ball",
          "gid": 50,
          "x": 312.0,
          "y": 1984.0,
          "width": 48.0,
          "height": 48.0,
          "rotation": -0.0,
          "visible": true
        },
        {
          "id": 84,
          "name": "",
          "type": "obj_darktower_ball",
          "gid": 50,
          "x": 424.0,
          "y": 1984.0,
          "width": 48.0,
          "height": 48.0,
          "rotation": -0.0,
          "visible": true,
          "properties": [
            {
              "name": "dir",
              "type": "float",
              "value": -1.0
            }
          ]
        },
        {
          "id": 85,
          "name": "",
          "type": "obj_hd_spring",
          "gid": 112,
          "x": 2864.0,
          "y": 2096.0,
          "width": 32.0,
          "height": 33.0,
          "rotation": -0.0,
          "visible": true
        },
        {
          "id": 86,
          "name": "",
          "type": "obj_platform_jumptrough",
          "gid": 221,
          "x": 2560.0002,
          "y": 1800.0,
          "width": 384.0,
          "height": 32.0,
          "rotation": -0.0,
          "visible": true
        },
        {
          "id": 87,
          "name": "",
          "type": "obj_fart_mermer",
          "gid": 92,
          "x": 2664.0,
          "y": 1776.0,
          "width": 20.0,
          "height": 19.0,
          "rotation": -0.0,
          "visible": true
        },
        {
          "id": 88,
          "name": "",
          "type": "obj_fart_mermer",
          "gid": 92,
          "x": 2680.0,
          "y": 1752.0,
          "width": 20.0,
          "height": 19.0,
          "rotation": -0.0,
          "visible": true
        },
        {
          "id": 89,
          "name": "",
          "type": "obj_fart_mermer",
          "gid": 92,
          "x": 2700.0,
          "y": 1728.0,
          "width": 20.0,
          "height": 19.0,
          "rotation": -0.0,
          "visible": true
        },
        {
          "id": 90,
          "name": "",
          "type": "obj_fart_mermer",
          "gid": 92,
          "x": 2720.0,
          "y": 1752.0,
          "width": 20.0,
          "height": 19.0,
          "rotation": -0.0,
          "visible": true
        },
        {
          "id": 91,
          "name": "",
          "type": "obj_fart_mermer",
          "gid": 92,
          "x": 2736.0,
          "y": 1776.0,
          "width": 20.0,
          "height": 19.0,
          "rotation": -0.0,
          "visible": true
        },
        {
          "id": 92,
          "name": "",
          "type": "obj_fart_mermer",
          "gid": 92,
          "x": 2712.0,
          "y": 1776.0,
          "width": 20.0,
          "height": 19.0,
          "rotation": -0.0,
          "visible": true
        },
        {
          "id": 93,
          "name": "",
          "type": "obj_fart_mermer",
          "gid": 92,
          "x": 2688.0,
          "y": 1776.0,
          "width": 20.0,
          "height": 19.0,
          "rotation": -0.0,
          "visible": true
        },
        {
          "id": 94,
          "name": "",
          "type": "obj_fart_mermer",
          "gid": 92,
          "x": 2700.0,
          "y": 1752.0,
          "width": 20.0,
          "height": 19.0,
          "rotation": -0.0,
          "visible": true
        },
        {
          "id": 95,
          "name": "",
          "type": "obj_fart_mermer",
          "gid": 92,
          "x": 2664.0,
          "y": 1704.0,
          "width": 20.0,
          "height": 19.0,
          "rotation": -0.0,
          "visible": true
        },
        {
          "id": 96,
          "name": "",
          "type": "obj_fart_mermer",
          "gid": 92,
          "x": 2680.0,
          "y": 1680.0,
          "width": 20.0,
          "height": 19.0,
          "rotation": -0.0,
          "visible": true
        },
        {
          "id": 97,
          "name": "",
          "type": "obj_fart_mermer",
          "gid": 92,
          "x": 2700.0,
          "y": 1656.0,
          "width": 20.0,
          "height": 19.0,
          "rotation": -0.0,
          "visible": true
        },
        {
          "id": 98,
          "name": "",
          "type": "obj_fart_mermer",
          "gid": 92,
          "x": 2720.0,
          "y": 1680.0,
          "width": 20.0,
          "height": 19.0,
          "rotation": -0.0,
          "visible": true
        },
        {
          "id": 99,
          "name": "",
          "type": "obj_fart_mermer",
          "gid": 92,
          "x": 2736.0,
          "y": 1704.0,
          "width": 20.0,
          "height": 19.0,
          "rotation": -0.0,
          "visible": true
        },
        {
          "id": 100,
          "name": "",
          "type": "obj_fart_mermer",
          "gid": 92,
          "x": 2712.0,
          "y": 1704.0,
          "width": 20.0,
          "height": 19.0,
          "rotation": -0.0,
          "visible": true
        },
        {
          "id": 101,
          "name": "",
          "type": "obj_fart_mermer",
          "gid": 92,
          "x": 2688.0,
          "y": 1704.0,
          "width": 20.0,
          "height": 19.0,
          "rotation": -0.0,
          "visible": true
        },
        {
          "id": 102,
          "name": "",
          "type": "obj_fart_mermer",
          "gid": 92,
          "x": 2700.0,
          "y": 1680.0,
          "width": 20.0,
          "height": 19.0,
          "rotation": -0.0,
          "visible": true
        },
        {
          "id": 103,
          "name": "",
          "type": "obj_fart_mermer",
          "gid": 92,
          "x": 2664.0,
          "y": 1632.0,
          "width": 20.0,
          "height": 19.0,
          "rotation": -0.0,
          "visible": true
        },
        {
          "id": 104,
          "name": "",
          "type": "obj_fart_mermer",
          "gid": 92,
          "x": 2680.0,
          "y": 1608.0,
          "width": 20.0,
          "height": 19.0,
          "rotation": -0.0,
          "visible": true
        },
        {
          "id": 105,
          "name": "",
          "type": "obj_fart_mermer",
          "gid": 92,
          "x": 2700.0,
          "y": 1584.0,
          "width": 20.0,
          "height": 19.0,
          "rotation": -0.0,
          "visible": true
        },
        {
          "id": 106,
          "name": "",
          "type": "obj_fart_mermer",
          "gid": 92,
          "x": 2720.0,
          "y": 1608.0,
          "width": 20.0,
          "height": 19.0,
          "rotation": -0.0,
          "visible": true
        },
        {
          "id": 107,
          "name": "",
          "type": "obj_fart_mermer",
          "gid": 92,
          "x": 2736.0,
          "y": 1632.0,
          "width": 20.0,
          "height": 19.0,
          "rotation": -0.0,
          "visible": true
        },
        {
          "id": 108,
          "name": "",
          "type": "obj_fart_mermer",
          "gid": 92,
          "x": 2712.0,
          "y": 1632.0,
          "width": 20.0,
          "height": 19.0,
          "rotation": -0.0,
          "visible": true
        },
        {
          "id": 109,
          "name": "",
          "type": "obj_fart_mermer",
          "gid": 92,
          "x": 2688.0,
          "y": 1632.0,
          "width": 20.0,
          "height": 19.0,
          "rotation": -0.0,
          "visible": true
        },
        {
          "id": 110,
          "name": "",
          "type": "obj_fart_mermer",
          "gid": 92,
          "x": 2700.0,
          "y": 1608.0,
          "width": 20.0,
          "height": 19.0,
          "rotation": -0.0,
          "visible": true
        },
        {
          "id": 111,
          "name": "",
          "type": "obj_ring_spawner",
          "gid": 249,
          "x": 2702.0,
          "y": 1565.0,
          "width": 16.0,
          "height": 16.0,
          "rotation": -0.0,
          "visible": true
        },
        {
          "id": 112,
          "name": "",
          "type": "obj_ring_spawner",
          "gid": 249,
          "x": 2720.0,
          "y": 1584.0,
          "width": 16.0,
          "height": 16.0,
          "rotation": -0.0,
          "visible": true
        },
        {
          "id": 113,
          "name": "",
          "type": "obj_ring_spawner",
          "gid": 249,
          "x": 2683.0,
          "y": 1584.0,
          "width": 16.0,
          "height": 16.0,
          "rotation": -0.0,
          "visible": true
        },
        {
          "id": 114,
          "name": "",
          "type": "obj_ring_spawner",
          "gid": 249,
          "x": 312.0,
          "y": 2448.0,
          "width": 16.0,
          "height": 16.0,
          "rotation": -0.0,
          "visible": true
        },
        {
          "id": 115,
          "name": "",
          "type": "obj_ring_spawner",
          "gid": 249,
          "x": 336.0,
          "y": 2448.0,
          "width": 16.0,
          "height": 16.0,
          "rotation": -0.0,
          "visible": true
        },
        {
          "id": 116,
          "name": "",
          "type": "obj_ring_spawner",
          "gid": 249,
          "x": 360.0,
          "y": 2448.0,
          "width": 16.0,
          "height": 16.0,
          "rotation": -0.0,
          "visible": true
        },
        {
          "id": 117,
          "name": "",
          "type": "obj_ring_spawner",
          "gid": 249,
          "x": 384.0,
          "y": 2448.0,
          "width": 16.0,
          "height": 16.0,
          "rotation": -0.0,
          "visible": true
        },
        {
          "id": 118,
          "name": "",
          "type": "obj_ring_spawner",
          "gid": 249,
          "x": 408.0,
          "y": 2448.0,
          "width": 16.0,
          "height": 16.0,
          "rotation": -0.0,
          "visible": true
        },
        {
          "id": 119,
          "name": "",
          "type": "obj_ring_spawner",
          "gid": 249,
          "x": 432.0,
          "y": 2448.0,
          "width": 16.0,
          "height": 16.0,
          "rotation": -0.0,
          "visible": true
        },
        {
          "id": 120,
          "name": "",
          "type": "obj_ring_spawner",
          "gid": 249,
          "x": 456.0,
          "y": 2448.0,
          "width": 16.0,
          "height": 16.0,
          "rotation": -0.0,
          "visible": true
        },
        {
          "id": 121,
          "name": "",
          "type": "obj_ring_spawner",
          "gid": 249,
          "x": 480.0,
          "y": 2448.0,
          "width": 16.0,
          "height": 16.0,
          "rotation": -0.0,
          "visible": true
        },
        {
          "id": 122,
          "name": "",
          "type": "obj_ring_spawner",
          "gid": 249,
          "x": 504.0,
          "y": 2448.0,
          "width": 16.0,
          "height": 16.0,
          "rotation": -0.0,
          "visible": true
        },
        {
          "id": 123,
          "name": "",
          "type": "obj_ring_spawner",
          "gid": 249,
          "x": 528.0,
          "y": 2448.0,
          "width": 16.0,
          "height": 16.0,
          "rotation": -0.0,
          "visible": true
        },
        {
          "id": 124,
          "name": "",
          "type": "obj_ring_spawner",
          "gid": 249,
          "x": 552.0,
          "y": 2448.0,
          "width": 16.0,
          "height": 16.0,
          "rotation": -0.0,
          "visible": true
        },
        {
          "id": 125,
          "name": "",
          "type": "obj_ring_spawner",
          "gid": 249,
          "x": 576.0,
          "y": 2448.0,
          "width": 16.0,
          "height": 16.0,
          "rotation": -0.0,
          "visible": true
        },
        {
          "id": 126,
          "name": "",
          "type": "obj_fart_dummy",
          "gid": 91,
          "x": 1598.0,
          "y": 2577.0,
          "width": 29.0,
          "height": 31.0,
          "rotation": -0.0,
          "visible": true
        },
        {
          "id": 127,
          "name": "",
          "type": "obj_blackring_spawner",
          "gid": 30,
          "x": 2080.0,
          "y": 2080.0,
          "width": 30.0,
          "height": 30.0,
          "rotation": -0.0,
          "visible": true
        },
        {
          "id": 128,
          "name": "",
          "type": "obj_blackring_spawner",
          "gid": 30,
          "x": 2120.0,
          "y": 2080.0,
          "width": 30.0,
          "height": 30.0,
          "rotation": -0.0,
          "visible": true
        },
        {
          "id": 129,
          "name": "",
          "type": "obj_blackring_spawner",
          "gid": 30,
          "x": 2160.0,
          "y": 2080.0,
          "width": 30.0,
          "height": 30.0,
          "rotation": -0.0,
          "visible": true
        },
        {
          "id": 130,
          "name": "",
          "type": "obj_soundemitter",
          "gid": 258,
          "x": 767.0,
          "y": 2096.0,
          "width": 32.0,
          "height": 32.0,
          "rotation": -0.0,
          "visible": true,
          "properties": [
            {
              "name": "stype",
              "type": "float",
              "value": 0.0
            },
            {
              "name": "stype",
              "type": "int",
              "value": 0
            }
          ]
        },
        {
          "id": 131,
          "name": "",
          "type": "obj_deathtp",
          "gid": 58,
          "x": 720.0,
          "y": 2120.0,
          "width": 120.0,
          "height": 8.0,
          "rotation": -0.0,
          "visible": true
        },
        {
          "id": 132,
          "name": "",
          "type": "obj_deathtp_point",
          "gid": 59,
          "x": 880.0,
          "y": 2096.0,
          "width": 32.0,
          "height": 32.0,
          "rotation": -0.0,
          "visible": true
        },
        {
          "id": 133,
          "name": "",
          "type": "obj_deathtp",
          "gid": 58,
          "x": 592.0,
          "y": 2089.0,
          "width": 128.0,
          "height": 8.0,
          "rotation": -0.0,
          "visible": true
        },
        {
          "id": 134,
          "name": "",
          "type": "obj_deathtp_point",
          "gid": 59,
          "x": 504.0,
          "y": 2096.0,
          "width": 32.0,
          "height": 32.0,
          "rotation": -0.0,
          "visible": true
        },
        {
          "id": 135,
          "name": "",
          "type": "obj_fart_controller",
          "gid": 90,
          "x": 0.0,
          "y": -8.0,
          "width": 16.0,
          "height": 16.0,
          "rotation": -0.0,
          "visible": true
        },
        {
          "id": 136,
          "name": "",
          "type": "obj_solid_block2",
          "gid": 256,
          "x": -56.0,
          "y": 0.0,
          "width": 56.0,
          "height": 2736.0,
          "rotation": -0.0,
          "visible": true
        },
        {
          "id": 137,
          "name": "",
          "type": "obj_solid_block2",
          "gid": 256,
          "x": 2944.0,
          "y": 0.0,
          "width": 72.0,
          "height": 2736.0,
          "rotation": -0.0,
          "visible": true
        }
      ],
      "properties": [
        {
          "name": "depth",
          "type": "int",
          "value": 0
        }
      ]
    }
  ]
}