{
  "type": "map",
  "version": "1.10",
  "orientation": "orthogonal",
  "renderorder": "right-down",
  "infinite": false,
  "width": 2048,
  "height": 256,
  "tilewidth": 4,
  "tileheight": 4,
  "nextlayerid": 13,
  "nextobjectid": 225,
  "properties": [
    {
      "name": "persistent",
      "type": "bool",
      "value": false
    },
    {
      "name": "views_enabled",
      "type": "bool",
      "value": true
    },
    {
      "name": "clear_view_background",
      "type": "bool",
      "value": false
    },
    {
      "name": "view_visible",
      "type": "bool",
      "value": true
    },
    {
      "name": "view_x",
      "type": "int",
      "value": 0
    },
    {
      "name": "view_y",
      "type": "int",
      "value": 0
    },
    {
      "name": "view_width",
      "type": "int",
      "value": 480
    },
    {
      "name": "view_height",
      "type": "int",
      "value": 270
    },
    {
      "name": "port_x",
      "type": "int",
      "value": 0
    },
    {
      "name": "port_y",
      "type": "int",
      "value": 0
    },
    {
      "name": "port_width",
      "type": "int",
      "value": 480
    },
    {
      "name": "port_height",
      "type": "int",
      "value": 270
    }
  ],
  "tilesets": [
    {
      "firstgid": 1,
      "source": "Tilesets/objects.tsj"
    },
    {
      "firstgid": 10000,
      "source": "Tilesets/sprites.tsj"
    }
  ],
  "layers": [
    {
      "type": "imagelayer",
      "id": 1,
      "name": "Background",
      "image": "../Textures/Zones/GreenHill/greenhill6.png",
      "imagewidth": 512,
      "imageheight": 270,
      "repeatx": true,
      "repeaty": false,
      "offsetx": 0.0,
      "offsety": 0.0,
      "parallaxx": 0.0,
      "parallaxy": 0.0,
      "opacity": 1.0,
      "visible": true,
      "x": 0,
      "y": 0,
      "properties": [
        {
          "name": "depth",
          "type": "int",
          "value": 800
        },
        {
          "name": "hspeed",
          "type": "float",
          "value": -1.0
        }
      ]
    },
    {
      "type": "imagelayer",
      "id": 2,
      "name": "Background2",
      "image": "../Textures/Zones/GreenHill/greenhill3.apng",
      "imagewidth": 1024,
      "imageheight": 270,
      "repeatx": true,
      "repeaty": false,
      "offsetx": 0.0,
      "offsety": 14.0,
      "parallaxx": 0.4,
      "parallaxy": 0.0,
      "opacity": 1.0,
      "visible": true,
      "x": 0,
      "y": 0,
      "properties": [
        {
          "name": "depth",
          "type": "int",
          "value": 700
        }
      ]
    },
    {
      "type": "imagelayer",
      "id": 3,
      "name": "Background3",
      "image": "../Textures/Zones/GreenHill/greenhill4.apng",
      "imagewidth": 1024,
      "imageheight": 270,
      "repeatx": true,
      "repeaty": false,
      "offsetx": 0.0,
      "offsety": 14.0,
      "parallaxx": 0.3,
      "parallaxy": 0.0,
      "opacity": 1.0,
      "visible": true,
      "x": 0,
      "y": 0,
      "properties": [
        {
          "name": "depth",
          "type": "int",
          "value": 600
        }
      ]
    },
    {
      "type": "imagelayer",
      "id": 4,
      "name": "Background4",
      "image": "../Textures/Zones/GreenHill/greenhill5.apng",
      "imagewidth": 1024,
      "imageheight": 270,
      "repeatx": true,
      "repeaty": false,
      "offsetx": 0.0,
      "offsety": 14.0,
      "parallaxx": 0.2,
      "parallaxy": 0.0,
      "opacity": 1.0,
      "visible": true,
      "x": 0,
      "y": 0,
      "properties": [
        {
          "name": "depth",
          "type": "int",
          "value": 500
        }
      ]
    },
    {
      "type": "imagelayer",
      "id": 5,
      "name": "Background5",
      "image": "../Textures/Zones/GreenHill/greenhill2.png",
      "imagewidth": 512,
      "imageheight": 270,
      "repeatx": true,
      "repeaty": false,
      "offsetx": 0.0,
      "offsety": 0.0,
      "parallaxx": 0.5,
      "parallaxy": 0.0,
      "opacity": 1.0,
      "visible": true,
      "x": 0,
      "y": 0,
      "properties": [
        {
          "name": "depth",
          "type": "int",
          "value": 400
        }
      ]
    },
    {
      "type": "imagelayer",
      "id": 6,
      "name": "Background6",
      "image": "../Textures/Zones/GreenHill/greenhill.apng",
      "imagewidth": 1792,
      "imageheight": 270,
      "repeatx": true,
      "repeaty": false,
      "offsetx": 0.0,
      "offsety": 0.0,
      "parallaxx": 0.1,
      "parallaxy": 0.0,
      "opacity": 1.0,
      "visible": true,
      "x": 0,
      "y": 0,
      "properties": [
        {
          "name": "depth",
          "type": "int",
          "value": 300
        }
      ]
    },
    {
      "type": "objectgroup",
      "id": 7,
      "name": "Assets_2",
      "draworder": "index",
      "opacity": 1.0,
      "visible": true,
      "x": 0,
      "y": 0,
      "objects": [
        {
          "id": 196,
          "name": "",
          "type": "",
          "gid": 10423,
          "x": 3920.0,
          "y": 513.0,
          "width": 71.0,
          "height": 156.0,
          "rotation": -0.0,
          "visible": true
        },
        {
          "id": 197,
          "name": "",
          "type": "",
          "gid": 10423,
          "x": 3408.0,
          "y": 265.0,
          "width": 71.0,
          "height": 156.0,
          "rotation": -0.0,
          "visible": true
        },
        {
          "id": 198,
          "name": "",
          "type": "",
          "gid": 10423,
          "x": 2384.0,
          "y": 513.0,
          "width": 71.0,
          "height": 156.0,
          "rotation": -0.0,
          "visible": true
        },
        {
          "id": 199,
          "name": "",
          "type": "",
          "gid": 10423,
          "x": 1872.0,
          "y": 513.0,
          "width": 71.0,
          "height": 156.0,
          "rotation": -0.0,
          "visible": true
        },
        {
          "id": 200,
          "name": "",
          "type": "",
          "gid": 10423,
          "x": 1376.0,
          "y": 313.0,
          "width": 71.0,
          "height": 156.0,
          "rotation": -0.0,
          "visible": true
        },
        {
          "id": 201,
          "name": "",
          "type": "",
          "gid": 10423,
          "x": 1296.0,
          "y": 305.0,
          "width": 71.0,
          "height": 156.0,
          "rotation": -0.0,
          "visible": true
        },
        {
          "id": 202,
          "name": "",
          "type": "",
          "gid": 10423,
          "x": 1067.0,
          "y": 391.0,
          "width": 71.0,
          "height": 156.0,
          "rotation": -0.0,
          "visible": true
        },
        {
          "id": 203,
          "name": "",
          "type": "",
          "gid": 10423,
          "x": 5952.0,
          "y": 241.0,
          "width": 71.0,
          "height": 156.0,
          "rotation": -0.0,
          "visible": true
        },
        {
          "id": 204,
          "name": "",
          "type": "",
          "gid": 10423,
          "x": 7504.0,
          "y": 529.0,
          "width": 71.0,
          "height": 156.0,
          "rotation": -0.0,
          "visible": true
        },
        {
          "id": 205,
          "name": "",
          "type": "",
          "gid": 10423,
          "x": 7088.0,
          "y": -15.0,
          "width": 71.0,
          "height": 156.0,
          "rotation": -0.0,
          "visible": true
        },
        {
          "id": 206,
          "name": "",
          "type": "",
          "gid": 10423,
          "x": 7264.0,
          "y": -23.0,
          "width": 71.0,
          "height": 156.0,
          "rotation": -0.0,
          "visible": true
        },
        {
          "id": 207,
          "name": "",
          "type": "",
          "gid": 10423,
          "x": 7760.0,
          "y": 241.0,
          "width": 71.0,
          "height": 156.0,
          "rotation": -0.0,
          "visible": true
        },
        {
          "id": 208,
          "name": "",
          "type": "",
          "gid": 10423,
          "x": 8016.0,
          "y": 257.0,
          "width": 71.0,
          "height": 156.0,
          "rotation": -0.0,
          "visible": true
        },
        {
          "id": 209,
          "name": "",
          "type": "",
          "gid": 10423,
          "x": 4928.0,
          "y": 489.0,
          "width": 71.0,
          "height": 156.0,
          "rotation": -0.0,
          "visible": true
        },
        {
          "id": 210,
          "name": "",
          "type": "",
          "gid": 10423,
          "x": 3744.0,
          "y": 233.0,
          "width": 71.0,
          "height": 156.0,
          "rotation": -0.0,
          "visible": true
        }
      ],
      "properties": [
        {
          "name": "depth",
          "type": "int",
          "value": 200
        },
        {
          "name": "asset_layer",
          "type": "bool",
          "value": true
        }
      ]
    },
    {
      "type": "objectgroup",
      "id": 12,
      "name": "LevelArt ghz_tiles",
      "draworder": "index",
      "opacity": 1.0,
      "visible": true,
      "x": 0,
      "y": 0,
      "objects": [
        {
          "id": 221,
          "name": "",
          "type": "",
          "gid": 10430,
          "x": 0.0,
          "y": 0.0,
          "width": 2048.0,
          "height": 1024.0,
          "rotation": -0.0,
          "visible": true,
          "properties": [
            {
              "name": "animation_speed",
              "type": "float",
              "value": 0.0
            }
          ]
        },
        {
          "id": 222,
          "name": "",
          "type": "",
          "gid": 10430,
          "x": 2048.0,
          "y": 0.0,
          "width": 2048.0,
          "height": 1024.0,
          "rotation": -0.0,
          "visible": true,
          "properties": [
            {
              "name": "animation_speed",
              "type": "float",
              "value": 0.0
            },
            {
              "name": "frame",
              "type": "float",
              "value": 1.0
            }
          ]
        },
        {
          "id": 223,
          "name": "",
          "type": "",
          "gid": 10430,
          "x": 4096.0,
          "y": 0.0,
          "width": 2048.0,
          "height": 1024.0,
          "rotation": -0.0,
          "visible": true,
          "properties": [
            {
              "name": "animation_speed",
              "type": "float",
              "value": 0.0
            },
            {
              "name": "frame",
              "type": "float",
              "value": 2.0
            }
          ]
        },
        {
          "id": 224,
          "name": "",
          "type": "",
          "gid": 10430,
          "x": 6144.0,
          "y": 0.0,
          "width": 2048.0,
          "height": 1024.0,
          "rotation": -0.0,
          "visible": true,
          "properties": [
            {
              "name": "animation_speed",
              "type": "float",
              "value": 0.0
            },
            {
              "name": "frame",
              "type": "float",
              "value": 3.0
            }
          ]
        }
      ],
      "properties": [
        {
          "name": "depth",
          "type": "int",
          "value": 100
        },
        {
          "name": "asset_layer",
          "type": "bool",
          "value": true
        }
      ]
    },
    {
      "type": "objectgroup",
      "id": 8,
      "name": "Instances",
      "draworder": "index",
      "opacity": 1.0,
      "visible": true,
      "x": 0,
      "y": 0,
      "objects": [
        {
          "id": 1,
          "name": "",
          "type": "obj_parallax",
          "gid": 211,
          "x": -8.0,
          "y": -24.0,
          "width": 16.0,
          "height": 16.0,
          "rotation": -0.0,
          "visible": true
        },
        {
          "id": 2,
          "name": "",
          "type": "obj_solid_block",
          "gid": 255,
          "x": -4.0,
          "y": 676.0,
          "width": 372.0,
          "height": 172.0,
          "rotation": -0.0,
          "visible": true
        },
        {
          "id": 3,
          "name": "",
          "type": "obj_solid_block",
          "gid": 255,
          "x": 368.0,
          "y": 704.0,
          "width": 128.0,
          "height": 144.0,
          "rotation": -0.0,
          "visible": true
        },
        {
          "id": 4,
          "name": "",
          "type": "obj_solid_block",
          "gid": 255,
          "x": 496.0,
          "y": 644.0,
          "width": 280.0,
          "height": 204.0,
          "rotation": -0.0,
          "visible": true
        },
        {
          "id": 5,
          "name": "",
          "type": "obj_solid_block",
          "gid": 255,
          "x": 776.0,
          "y": 580.0,
          "width": 56.0,
          "height": 268.0,
          "rotation": -0.0,
          "visible": true
        },
        {
          "id": 6,
          "name": "",
          "type": "obj_solid_block",
          "gid": 255,
          "x": 832.0,
          "y": 532.0,
          "width": 452.0,
          "height": 316.0,
          "rotation": -0.0,
          "visible": true
        },
        {
          "id": 7,
          "name": "",
          "type": "obj_platform_jumptrough",
          "gid": 221,
          "x": 512.0,
          "y": 468.0,
          "width": 256.0,
          "height": 12.0,
          "rotation": -0.0,
          "visible": true
        },
        {
          "id": 8,
          "name": "",
          "type": "obj_solid_block",
          "gid": 255,
          "x": 1280.0,
          "y": 456.0,
          "width": 256.0,
          "height": 392.0,
          "rotation": -0.0,
          "visible": true
        },
        {
          "id": 9,
          "name": "",
          "type": "obj_platform_jumptrough",
          "gid": 221,
          "x": 1536.0,
          "y": 456.0,
          "width": 320.0,
          "height": 16.0,
          "rotation": -0.0,
          "visible": true
        },
        {
          "id": 10,
          "name": "",
          "type": "obj_solid_block",
          "gid": 255,
          "x": 1536.0,
          "y": 580.0,
          "width": 68.0,
          "height": 268.0,
          "rotation": -0.0,
          "visible": true
        },
        {
          "id": 11,
          "name": "",
          "type": "obj_solid_block",
          "gid": 255,
          "x": 1604.0,
          "y": 704.0,
          "width": 124.0,
          "height": 144.0,
          "rotation": -0.0,
          "visible": true
        },
        {
          "id": 12,
          "name": "",
          "type": "obj_solid_block",
          "gid": 255,
          "x": 1728.0,
          "y": 644.0,
          "width": 132.0,
          "height": 200.0,
          "rotation": -0.0,
          "visible": true
        },
        {
          "id": 13,
          "name": "",
          "type": "obj_solid_block",
          "gid": 255,
          "x": 2000.0,
          "y": 712.0,
          "width": 72.0,
          "height": 132.0,
          "rotation": -0.0,
          "visible": true
        },
        {
          "id": 14,
          "name": "",
          "type": "obj_solid_block",
          "gid": 255,
          "x": 2216.0,
          "y": 644.0,
          "width": 172.0,
          "height": 200.0,
          "rotation": -0.0,
          "visible": true
        },
        {
          "id": 15,
          "name": "",
          "type": "obj_solid_block",
          "gid": 255,
          "x": 2512.0,
          "y": 708.0,
          "width": 84.0,
          "height": 52.0,
          "rotation": -0.0,
          "visible": true
        },
        {
          "id": 16,
          "name": "",
          "type": "obj_solid_block",
          "gid": 255,
          "x": 2732.0,
          "y": 644.0,
          "width": 180.0000128,
          "height": 200.0,
          "rotation": -0.0,
          "visible": true
        },
        {
          "id": 17,
          "name": "",
          "type": "obj_solid_block",
          "gid": 255,
          "x": 2912.0,
          "y": 612.0,
          "width": 64.0000128,
          "height": 232.0,
          "rotation": -0.0,
          "visible": true
        },
        {
          "id": 18,
          "name": "",
          "type": "obj_solid_block",
          "gid": 255,
          "x": 2976.0,
          "y": 580.0,
          "width": 96.0000128,
          "height": 264.0,
          "rotation": -0.0,
          "visible": true
        },
        {
          "id": 19,
          "name": "",
          "type": "obj_solid_block",
          "gid": 255,
          "x": 3072.0,
          "y": 436.0,
          "width": 264.0,
          "height": 408.0,
          "rotation": -0.0,
          "visible": true
        },
        {
          "id": 20,
          "name": "",
          "type": "obj_platform_jumptrough",
          "gid": 221,
          "x": 3696.0,
          "y": 392.0,
          "width": 208.0,
          "height": 12.0,
          "rotation": -0.0,
          "visible": true
        },
        {
          "id": 21,
          "name": "",
          "type": "obj_solid_block",
          "gid": 255,
          "x": 3544.0,
          "y": 447.0,
          "width": 72.0000128,
          "height": 29.0,
          "rotation": -0.0,
          "visible": true
        },
        {
          "id": 22,
          "name": "",
          "type": "obj_solid_block",
          "gid": 255,
          "x": 3544.0,
          "y": 476.0,
          "width": 40.0,
          "height": 368.0,
          "rotation": -0.0,
          "visible": true
        },
        {
          "id": 23,
          "name": "",
          "type": "obj_solid_block",
          "gid": 255,
          "x": 4052.0,
          "y": 708.0,
          "width": 291.9999744,
          "height": 136.0,
          "rotation": -0.0,
          "visible": true
        },
        {
          "id": 24,
          "name": "",
          "type": "obj_solid_block",
          "gid": 255,
          "x": 4876.0,
          "y": 644.0,
          "width": 116.0,
          "height": 200.0,
          "rotation": -0.0,
          "visible": true
        },
        {
          "id": 25,
          "name": "",
          "type": "obj_solid_block",
          "gid": 255,
          "x": 4992.0,
          "y": 612.0,
          "width": 64.0,
          "height": 232.0,
          "rotation": -0.0,
          "visible": true
        },
        {
          "id": 26,
          "name": "",
          "type": "obj_solid_block",
          "gid": 255,
          "x": 5056.0,
          "y": 580.0,
          "width": 128.0,
          "height": 264.0,
          "rotation": -0.0,
          "visible": true
        },
        {
          "id": 27,
          "name": "",
          "type": "obj_solid_block",
          "gid": 255,
          "x": 5184.0,
          "y": 528.0,
          "width": 40.0,
          "height": 316.0,
          "rotation": -0.0,
          "visible": true
        },
        {
          "id": 28,
          "name": "",
          "type": "obj_solid_block",
          "gid": 255,
          "x": 5632.0,
          "y": 584.0,
          "width": 68.0,
          "height": 260.0,
          "rotation": -0.0,
          "visible": true
        },
        {
          "id": 29,
          "name": "",
          "type": "obj_platform_jumptrough",
          "gid": 221,
          "x": 5408.0,
          "y": 436.0,
          "width": 192.0,
          "height": 20.0,
          "rotation": -0.0,
          "visible": true
        },
        {
          "id": 30,
          "name": "",
          "type": "obj_solid_block",
          "gid": 255,
          "x": 5832.0,
          "y": 648.0,
          "width": 112.0,
          "height": 196.0,
          "rotation": -0.0,
          "visible": true
        },
        {
          "id": 31,
          "name": "",
          "type": "obj_solid_block",
          "gid": 255,
          "x": 6348.0,
          "y": 712.0,
          "width": 404.0,
          "height": 132.0,
          "rotation": -0.0,
          "visible": true
        },
        {
          "id": 32,
          "name": "",
          "type": "obj_solid_block",
          "gid": 255,
          "x": 6752.0,
          "y": 676.0,
          "width": 96.0,
          "height": 168.0,
          "rotation": -0.0,
          "visible": true
        },
        {
          "id": 33,
          "name": "",
          "type": "obj_solid_block",
          "gid": 255,
          "x": 6848.0,
          "y": 648.0,
          "width": 108.0,
          "height": 196.0,
          "rotation": -0.0,
          "visible": true
        },
        {
          "id": 34,
          "name": "",
          "type": "obj_solid_block",
          "gid": 255,
          "x": 7632.0,
          "y": 710.0,
          "width": 148.0,
          "height": 134.0,
          "rotation": -0.0,
          "visible": true
        },
        {
          "id": 35,
          "name": "",
          "type": "obj_solid_block",
          "gid": 255,
          "x": 7776.0,
          "y": 676.0,
          "width": 95.99999232,
          "height": 168.0,
          "rotation": -0.0,
          "visible": true
        },
        {
          "id": 36,
          "name": "",
          "type": "obj_solid_block",
          "gid": 255,
          "x": 7872.0,
          "y": 644.0,
          "width": 64.0,
          "height": 200.0,
          "rotation": -0.0,
          "visible": true
        },
        {
          "id": 37,
          "name": "",
          "type": "obj_solid_block",
          "gid": 255,
          "x": 7936.0,
          "y": 580.0,
          "width": 64.0,
          "height": 264.0,
          "rotation": -0.0,
          "visible": true
        },
        {
          "id": 38,
          "name": "",
          "type": "obj_platform_jumptrough",
          "gid": 221,
          "x": 6184.0,
          "y": 276.0,
          "width": 280.0,
          "height": 16.0,
          "rotation": -0.0,
          "visible": true
        },
        {
          "id": 39,
          "name": "",
          "type": "obj_platform_jumptrough",
          "gid": 221,
          "x": 5824.0,
          "y": 388.0,
          "width": 192.0,
          "height": 16.0,
          "rotation": -0.0,
          "visible": true
        },
        {
          "id": 40,
          "name": "",
          "type": "obj_solid_block",
          "gid": 255,
          "x": 3920.0,
          "y": 648.0,
          "width": 176.0000128,
          "height": 128.0,
          "rotation": 25.0,
          "visible": true
        },
        {
          "id": 41,
          "name": "",
          "type": "obj_solid_block",
          "gid": 255,
          "x": 2388.0,
          "y": 644.0,
          "width": 176.0000128,
          "height": 128.0,
          "rotation": 25.0,
          "visible": true
        },
        {
          "id": 42,
          "name": "",
          "type": "obj_solid_block",
          "gid": 255,
          "x": 2596.0,
          "y": 708.0,
          "width": 152.0000128,
          "height": 128.0,
          "rotation": 335.0,
          "visible": true
        },
        {
          "id": 43,
          "name": "",
          "type": "obj_solid_block",
          "gid": 255,
          "x": 2072.0,
          "y": 712.0,
          "width": 159.0000128,
          "height": 128.0,
          "rotation": 335.0,
          "visible": true
        },
        {
          "id": 44,
          "name": "",
          "type": "obj_solid_block",
          "gid": 255,
          "x": 1860.0,
          "y": 644.0,
          "width": 159.0000128,
          "height": 128.0,
          "rotation": 25.0,
          "visible": true
        },
        {
          "id": 45,
          "name": "",
          "type": "obj_platform_jumptrough",
          "gid": 221,
          "x": 2240.0,
          "y": 532.0,
          "width": 128.0,
          "height": 16.0,
          "rotation": -0.0,
          "visible": true
        },
        {
          "id": 46,
          "name": "",
          "type": "obj_bspring_up",
          "gid": 34,
          "x": 1536.0,
          "y": 548.0,
          "width": 32.0,
          "height": 32.0,
          "rotation": -0.0,
          "visible": true
        },
        {
          "id": 47,
          "name": "",
          "type": "obj_yspring_up",
          "gid": 299,
          "x": 3040.0,
          "y": 548.0,
          "width": 32.0,
          "height": 32.0,
          "rotation": -0.0,
          "visible": true
        },
        {
          "id": 48,
          "name": "",
          "type": "obj_yspring_up",
          "gid": 299,
          "x": 3824.0,
          "y": 616.0,
          "width": 32.0,
          "height": 32.0,
          "rotation": -0.0,
          "visible": true
        },
        {
          "id": 49,
          "name": "",
          "type": "obj_ghz_slope",
          "gid": 99,
          "x": 3616.0,
          "y": 383.0,
          "width": 80.0,
          "height": 83.0,
          "rotation": -0.0,
          "visible": true
        },
        {
          "id": 50,
          "name": "",
          "type": "obj_ghz_slope2",
          "gid": 100,
          "x": 3388.0,
          "y": 373.0,
          "width": 194.0,
          "height": 117.0,
          "rotation": -0.0,
          "visible": true
        },
        {
          "id": 51,
          "name": "",
          "type": "obj_angleallower",
          "gid": 19,
          "x": 3691.0,
          "y": 368.0,
          "width": 24.0,
          "height": 24.0,
          "rotation": -0.0,
          "visible": true
        },
        {
          "id": 52,
          "name": "",
          "type": "obj_ghz_slope2",
          "gid": 100,
          "x": 5700.0,
          "y": 567.0,
          "width": 194.0,
          "height": 117.0,
          "rotation": -0.0,
          "visible": true
        },
        {
          "id": 53,
          "name": "",
          "type": "obj_bspring_left",
          "gid": 32,
          "x": 7636.0,
          "y": 388.0,
          "width": 44.0,
          "height": 44.0,
          "rotation": -0.0,
          "visible": true
        },
        {
          "id": 54,
          "name": "",
          "type": "obj_solid_block",
          "gid": 255,
          "x": 5384.0,
          "y": 497.0,
          "width": 39.0,
          "height": 39.0,
          "rotation": -0.0,
          "visible": true
        },
        {
          "id": 55,
          "name": "",
          "type": "obj_solid_block",
          "gid": 255,
          "x": 6973.0,
          "y": 245.0,
          "width": 39.0,
          "height": 35.0,
          "rotation": -0.0,
          "visible": true
        },
        {
          "id": 56,
          "name": "",
          "type": "obj_solid_block",
          "gid": 255,
          "x": 2220.0,
          "y": 614.0,
          "width": 39.0,
          "height": 35.0,
          "rotation": -0.0,
          "visible": true
        },
        {
          "id": 57,
          "name": "",
          "type": "obj_ghz_slope2",
          "gid": 2147483748,
          "x": 582.0,
          "y": 564.0,
          "width": 194.0,
          "height": 117.0,
          "rotation": -0.0,
          "visible": true
        },
        {
          "id": 58,
          "name": "",
          "type": "obj_ghz_slope2",
          "gid": 100,
          "x": 7472.0,
          "y": 628.0,
          "width": 194.0,
          "height": 117.0,
          "rotation": -0.0,
          "visible": true
        },
        {
          "id": 59,
          "name": "",
          "type": "obj_platform_jumptrough",
          "gid": 221,
          "x": 8180.0,
          "y": 449.0,
          "width": 40.00000384,
          "height": 12.0,
          "rotation": -0.0,
          "visible": true
        },
        {
          "id": 60,
          "name": "",
          "type": "obj_spawnpoint",
          "gid": 259,
          "x": 135.0,
          "y": 616.0,
          "width": 32.0,
          "height": 32.0,
          "rotation": -0.0,
          "visible": true
        },
        {
          "id": 61,
          "name": "",
          "type": "obj_ring_spawner",
          "gid": 249,
          "x": 108.0,
          "y": 612.0,
          "width": 16.0,
          "height": 16.0,
          "rotation": -0.0,
          "visible": true
        },
        {
          "id": 62,
          "name": "",
          "type": "obj_exespawn",
          "gid": 85,
          "x": 2287.0,
          "y": 500.0,
          "width": 32.0,
          "height": 32.0,
          "rotation": -0.0,
          "visible": true
        },
        {
          "id": 90,
          "name": "",
          "type": "obj_ghz_slope3",
          "gid": 101,
          "x": 0.0,
          "y": 644.0,
          "width": 134.0,
          "height": 55.0,
          "rotation": -0.0,
          "visible": true
        },
        {
          "id": 91,
          "name": "",
          "type": "obj_ghz_slope3",
          "gid": 101,
          "x": 132.0,
          "y": 644.0,
          "width": 137.9999938,
          "height": 55.0,
          "rotation": -0.0,
          "visible": true
        },
        {
          "id": 92,
          "name": "",
          "type": "obj_ghz_slope3",
          "gid": 101,
          "x": 268.0,
          "y": 644.0,
          "width": 99.9999924,
          "height": 55.0,
          "rotation": -0.0,
          "visible": true
        },
        {
          "id": 93,
          "name": "",
          "type": "obj_ghz_slope4",
          "gid": 102,
          "x": 2808.0,
          "y": 386.0,
          "width": 134.0,
          "height": 55.0,
          "rotation": -0.0,
          "visible": true
        },
        {
          "id": 94,
          "name": "",
          "type": "obj_ghz_slope4",
          "gid": 102,
          "x": 2940.0,
          "y": 386.0,
          "width": 134.0,
          "height": 55.0,
          "rotation": -0.0,
          "visible": true
        },
        {
          "id": 95,
          "name": "",
          "type": "obj_platform_jumptrough",
          "gid": 221,
          "x": 2752.0,
          "y": 386.0,
          "width": 56.0,
          "height": 11.0,
          "rotation": -0.0,
          "visible": true
        },
        {
          "id": 96,
          "name": "",
          "type": "obj_ghz_slope3",
          "gid": 101,
          "x": 3072.0,
          "y": 388.0,
          "width": 134.0,
          "height": 55.0,
          "rotation": -0.0,
          "visible": true
        },
        {
          "id": 97,
          "name": "",
          "type": "obj_ghz_slope3",
          "gid": 101,
          "x": 3204.0,
          "y": 388.0,
          "width": 134.0,
          "height": 55.0,
          "rotation": -0.0,
          "visible": true
        },
        {
          "id": 98,
          "name": "",
          "type": "obj_solid_block",
          "gid": 255,
          "x": 3336.0,
          "y": 390.0,
          "width": 52.0,
          "height": 98.0,
          "rotation": -0.0,
          "visible": true
        },
        {
          "id": 99,
          "name": "",
          "type": "obj_solid_block",
          "gid": 255,
          "x": 3766.0,
          "y": 648.0,
          "width": 154.0,
          "height": 196.0,
          "rotation": -0.0,
          "visible": true
        },
        {
          "id": 100,
          "name": "",
          "type": "obj_ghz_slope3",
          "gid": 101,
          "x": 4608.0,
          "y": 642.0,
          "width": 134.0,
          "height": 55.0,
          "rotation": -0.0,
          "visible": true
        },
        {
          "id": 101,
          "name": "",
          "type": "obj_ghz_slope3",
          "gid": 101,
          "x": 4742.0,
          "y": 643.0,
          "width": 134.0,
          "height": 55.0,
          "rotation": -0.0,
          "visible": true
        },
        {
          "id": 102,
          "name": "",
          "type": "obj_ghz_slope3",
          "gid": 101,
          "x": 7212.0,
          "y": 648.0,
          "width": 134.0,
          "height": 55.0,
          "rotation": -0.0,
          "visible": true
        },
        {
          "id": 103,
          "name": "",
          "type": "obj_ghz_slope3",
          "gid": 101,
          "x": 6956.0,
          "y": 647.0,
          "width": 134.0,
          "height": 55.0,
          "rotation": -0.0,
          "visible": true
        },
        {
          "id": 104,
          "name": "",
          "type": "obj_solid_block",
          "gid": 255,
          "x": 7090.0,
          "y": 648.0,
          "width": 122.0,
          "height": 197.0,
          "rotation": -0.0,
          "visible": true
        },
        {
          "id": 105,
          "name": "",
          "type": "obj_solid_block",
          "gid": 255,
          "x": 7346.0,
          "y": 648.0,
          "width": 125.99999232,
          "height": 197.0,
          "rotation": -0.0,
          "visible": true
        },
        {
          "id": 106,
          "name": "",
          "type": "obj_ghz_slope4",
          "gid": 102,
          "x": 7808.0,
          "y": 388.0,
          "width": 134.0,
          "height": 55.0,
          "rotation": -0.0,
          "visible": true
        },
        {
          "id": 107,
          "name": "",
          "type": "obj_ghz_slope4",
          "gid": 102,
          "x": 7680.0,
          "y": 388.0,
          "width": 134.0,
          "height": 55.0,
          "rotation": -0.0,
          "visible": true
        },
        {
          "id": 108,
          "name": "",
          "type": "obj_platform_jumptrough",
          "gid": 221,
          "x": 7942.0,
          "y": 389.0,
          "width": 46.0,
          "height": 11.0,
          "rotation": -0.0,
          "visible": true
        },
        {
          "id": 109,
          "name": "",
          "type": "obj_ghz_slope5",
          "gid": 103,
          "x": 7988.0,
          "y": 370.0,
          "width": 194.0,
          "height": 117.0,
          "rotation": -0.0,
          "visible": true
        },
        {
          "id": 110,
          "name": "",
          "type": "obj_ghz_slope3",
          "gid": 101,
          "x": 8012.0,
          "y": 536.0,
          "width": 134.0,
          "height": 55.0,
          "rotation": -0.0,
          "visible": true
        },
        {
          "id": 111,
          "name": "",
          "type": "obj_solid_block",
          "gid": 255,
          "x": 8144.0,
          "y": 536.0,
          "width": 48.0,
          "height": 308.0,
          "rotation": -0.0,
          "visible": true
        },
        {
          "id": 112,
          "name": "",
          "type": "obj_solid_block",
          "gid": 255,
          "x": 8000.0,
          "y": 536.0,
          "width": 12.0,
          "height": 308.0,
          "rotation": -0.0,
          "visible": true
        },
        {
          "id": 113,
          "name": "",
          "type": "obj_ghz_slope3",
          "gid": 101,
          "x": 6216.0,
          "y": 712.0,
          "width": 134.0,
          "height": 55.0,
          "rotation": -0.0,
          "visible": true
        },
        {
          "id": 114,
          "name": "",
          "type": "obj_solid_block",
          "gid": 255,
          "x": 6144.0,
          "y": 712.0,
          "width": 72.0,
          "height": 132.0,
          "rotation": -0.0,
          "visible": true
        },
        {
          "id": 115,
          "name": "",
          "type": "obj_ghz_slope3",
          "gid": 101,
          "x": 5934.0,
          "y": 648.0,
          "width": 134.0,
          "height": 55.0,
          "rotation": -0.0,
          "visible": true
        },
        {
          "id": 116,
          "name": "",
          "type": "obj_solid_block",
          "gid": 255,
          "x": 6068.0,
          "y": 648.0,
          "width": 76.0,
          "height": 196.0,
          "rotation": -0.0,
          "visible": true
        },
        {
          "id": 117,
          "name": "",
          "type": "obj_ghz_slope3",
          "gid": 101,
          "x": 3632.0,
          "y": 648.0,
          "width": 134.0,
          "height": 55.0,
          "rotation": -0.0,
          "visible": true
        },
        {
          "id": 118,
          "name": "",
          "type": "obj_solid_block",
          "gid": 255,
          "x": 3584.0,
          "y": 648.0,
          "width": 48.0,
          "height": 196.0,
          "rotation": -0.0,
          "visible": true
        },
        {
          "id": 119,
          "name": "",
          "type": "obj_ghz_slope3",
          "gid": 101,
          "x": 4344.0,
          "y": 708.0,
          "width": 134.0,
          "height": 55.0,
          "rotation": -0.0,
          "visible": true
        },
        {
          "id": 120,
          "name": "",
          "type": "obj_solid_block",
          "gid": 255,
          "x": 4476.0,
          "y": 708.0,
          "width": 131.9999744,
          "height": 136.0,
          "rotation": -0.0,
          "visible": true
        },
        {
          "id": 121,
          "name": "",
          "type": "obj_solid_block",
          "gid": 255,
          "x": 4608.0,
          "y": 696.0,
          "width": 15.99996928,
          "height": 24.0,
          "rotation": -0.0,
          "visible": true
        },
        {
          "id": 122,
          "name": "",
          "type": "obj_ghz_slope3",
          "gid": 101,
          "x": 5422.0,
          "y": 536.0,
          "width": 146.0000082,
          "height": 55.0,
          "rotation": -0.0,
          "visible": true
        },
        {
          "id": 123,
          "name": "",
          "type": "obj_ghz_slope3",
          "gid": 101,
          "x": 5224.0,
          "y": 528.0,
          "width": 86.0000007,
          "height": 55.0,
          "rotation": -0.0,
          "visible": true
        },
        {
          "id": 124,
          "name": "",
          "type": "obj_ghz_slope3",
          "gid": 101,
          "x": 5308.0,
          "y": 528.0,
          "width": 113.9999908,
          "height": 55.0,
          "rotation": -0.0,
          "visible": true
        },
        {
          "id": 125,
          "name": "",
          "type": "obj_solid_block",
          "gid": 255,
          "x": 5568.0,
          "y": 536.0,
          "width": 64.0,
          "height": 308.0,
          "rotation": -0.0,
          "visible": true
        },
        {
          "id": 126,
          "name": "",
          "type": "obj_ghz_slope4",
          "gid": 102,
          "x": 7292.0,
          "y": 132.0,
          "width": 141.9999876,
          "height": 55.0,
          "rotation": -0.0,
          "visible": true
        },
        {
          "id": 127,
          "name": "",
          "type": "obj_ghz_slope4",
          "gid": 102,
          "x": 7160.0,
          "y": 132.0,
          "width": 134.0,
          "height": 55.0,
          "rotation": -0.0,
          "visible": true
        },
        {
          "id": 128,
          "name": "",
          "type": "obj_ghz_slope4",
          "gid": 102,
          "x": 7048.0,
          "y": 132.0,
          "width": 134.0,
          "height": 55.0,
          "rotation": -0.0,
          "visible": true
        },
        {
          "id": 129,
          "name": "",
          "type": "obj_ghz_slope4",
          "gid": 102,
          "x": 6912.0,
          "y": 132.0,
          "width": 137.9999938,
          "height": 55.0,
          "rotation": -0.0,
          "visible": true
        },
        {
          "id": 130,
          "name": "",
          "type": "obj_ghz_slope3",
          "gid": 101,
          "x": 7232.0,
          "y": 276.0,
          "width": 169.9999978,
          "height": 55.0,
          "rotation": -0.0,
          "visible": true
        },
        {
          "id": 131,
          "name": "",
          "type": "obj_solid_block",
          "gid": 255,
          "x": 7402.0,
          "y": 276.0,
          "width": 22.0,
          "height": 55.0,
          "rotation": -0.0,
          "visible": true
        },
        {
          "id": 132,
          "name": "",
          "type": "obj_solid_block",
          "gid": 255,
          "x": 7040.0,
          "y": 328.0,
          "width": 192.0,
          "height": 16.0,
          "rotation": -0.0,
          "visible": true
        },
        {
          "id": 133,
          "name": "",
          "type": "obj_solid_block",
          "gid": 255,
          "x": 6656.0,
          "y": 276.0,
          "width": 388.0,
          "height": 52.0,
          "rotation": -0.0,
          "visible": true
        },
        {
          "id": 134,
          "name": "",
          "type": "obj_solid_block",
          "gid": 255,
          "x": 6144.0,
          "y": 276.0,
          "width": 40.0,
          "height": 64.0,
          "rotation": -0.0,
          "visible": true
        },
        {
          "id": 135,
          "name": "",
          "type": "obj_solid_block",
          "gid": 255,
          "x": 6080.0,
          "y": 340.0,
          "width": 36.0,
          "height": 32.0,
          "rotation": -0.0,
          "visible": true
        },
        {
          "id": 136,
          "name": "",
          "type": "obj_solid_block",
          "gid": 255,
          "x": 6016.0,
          "y": 372.0,
          "width": 36.0,
          "height": 32.0,
          "rotation": -0.0,
          "visible": true
        },
        {
          "id": 137,
          "name": "",
          "type": "obj_angleanuller_eggsafe",
          "gid": 21,
          "x": 6908.0,
          "y": 72.0,
          "width": 580.0,
          "height": 272.0,
          "rotation": -0.0,
          "visible": true
        },
        {
          "id": 138,
          "name": "",
          "type": "obj_angleanuller_eggsafe",
          "gid": 21,
          "x": 6848.0,
          "y": 488.0,
          "width": 580.0,
          "height": 272.0,
          "rotation": -0.0,
          "visible": true
        },
        {
          "id": 139,
          "name": "",
          "type": "obj_angleanuller_eggsafe",
          "gid": 21,
          "x": 5192.0,
          "y": 332.0,
          "width": 434.000032,
          "height": 272.0,
          "rotation": -0.0,
          "visible": true
        },
        {
          "id": 140,
          "name": "",
          "type": "obj_angleanuller_eggsafe",
          "gid": 21,
          "x": 4324.0,
          "y": 508.0,
          "width": 574.0,
          "height": 272.0,
          "rotation": -0.0,
          "visible": true
        },
        {
          "id": 141,
          "name": "",
          "type": "obj_angleanuller_eggsafe",
          "gid": 21,
          "x": 3548.0,
          "y": 556.0,
          "width": 258.0,
          "height": 172.0,
          "rotation": -0.0,
          "visible": true
        },
        {
          "id": 142,
          "name": "",
          "type": "obj_angleanuller_eggsafe",
          "gid": 21,
          "x": 2748.0,
          "y": 288.0,
          "width": 598.0,
          "height": 172.0,
          "rotation": -0.0,
          "visible": true
        },
        {
          "id": 143,
          "name": "",
          "type": "obj_angleanuller_eggsafe",
          "gid": 21,
          "x": -20.0,
          "y": 356.0,
          "width": 498.000032,
          "height": 484.0,
          "rotation": -0.0,
          "visible": true
        },
        {
          "id": 144,
          "name": "",
          "type": "obj_angleanuller_eggsafe",
          "gid": 21,
          "x": 7624.0,
          "y": 304.0,
          "width": 612.0,
          "height": 508.0,
          "rotation": -0.0,
          "visible": true
        },
        {
          "id": 145,
          "name": "",
          "type": "obj_angleanuller_eggsafe",
          "gid": 21,
          "x": 5924.0,
          "y": 540.0,
          "width": 496.0,
          "height": 292.0,
          "rotation": -0.0,
          "visible": true
        },
        {
          "id": 146,
          "name": "",
          "type": "obj_ring_spawner",
          "gid": 249,
          "x": 136.0,
          "y": 612.0,
          "width": 16.0,
          "height": 16.0,
          "rotation": -0.0,
          "visible": true
        },
        {
          "id": 147,
          "name": "",
          "type": "obj_ring_spawner",
          "gid": 249,
          "x": 164.0,
          "y": 612.0,
          "width": 16.0,
          "height": 16.0,
          "rotation": -0.0,
          "visible": true
        },
        {
          "id": 148,
          "name": "",
          "type": "obj_ring_spawner",
          "gid": 249,
          "x": 584.0,
          "y": 432.0,
          "width": 16.0,
          "height": 16.0,
          "rotation": -0.0,
          "visible": true
        },
        {
          "id": 149,
          "name": "",
          "type": "obj_ring_spawner",
          "gid": 249,
          "x": 612.0,
          "y": 432.0,
          "width": 16.0,
          "height": 16.0,
          "rotation": -0.0,
          "visible": true
        },
        {
          "id": 150,
          "name": "",
          "type": "obj_ring_spawner",
          "gid": 249,
          "x": 640.0,
          "y": 432.0,
          "width": 16.0,
          "height": 16.0,
          "rotation": -0.0,
          "visible": true
        },
        {
          "id": 151,
          "name": "",
          "type": "obj_ring_spawner",
          "gid": 249,
          "x": 1784.0,
          "y": 612.0,
          "width": 16.0,
          "height": 16.0,
          "rotation": -0.0,
          "visible": true
        },
        {
          "id": 152,
          "name": "",
          "type": "obj_ring_spawner",
          "gid": 249,
          "x": 1808.0,
          "y": 612.0,
          "width": 16.0,
          "height": 16.0,
          "rotation": -0.0,
          "visible": true
        },
        {
          "id": 153,
          "name": "",
          "type": "obj_ring_spawner",
          "gid": 249,
          "x": 1832.0,
          "y": 612.0,
          "width": 16.0,
          "height": 16.0,
          "rotation": -0.0,
          "visible": true
        },
        {
          "id": 154,
          "name": "",
          "type": "obj_ring_spawner",
          "gid": 249,
          "x": 2296.0,
          "y": 504.0,
          "width": 16.0,
          "height": 16.0,
          "rotation": -0.0,
          "visible": true
        },
        {
          "id": 155,
          "name": "",
          "type": "obj_ring_spawner",
          "gid": 249,
          "x": 2760.0,
          "y": 356.0,
          "width": 16.0,
          "height": 16.0,
          "rotation": -0.0,
          "visible": true
        },
        {
          "id": 156,
          "name": "",
          "type": "obj_ring_spawner",
          "gid": 249,
          "x": 2784.0,
          "y": 356.0,
          "width": 16.0,
          "height": 16.0,
          "rotation": -0.0,
          "visible": true
        },
        {
          "id": 157,
          "name": "",
          "type": "obj_ring_spawner",
          "gid": 249,
          "x": 2808.0,
          "y": 356.0,
          "width": 16.0,
          "height": 16.0,
          "rotation": -0.0,
          "visible": true
        },
        {
          "id": 158,
          "name": "",
          "type": "obj_ring_spawner",
          "gid": 249,
          "x": 3592.0,
          "y": 572.0,
          "width": 16.0,
          "height": 16.0,
          "rotation": -0.0,
          "visible": true
        },
        {
          "id": 159,
          "name": "",
          "type": "obj_ring_spawner",
          "gid": 249,
          "x": 3592.0,
          "y": 596.0,
          "width": 16.0,
          "height": 16.0,
          "rotation": -0.0,
          "visible": true
        },
        {
          "id": 160,
          "name": "",
          "type": "obj_ring_spawner",
          "gid": 249,
          "x": 3592.0,
          "y": 620.0,
          "width": 16.0,
          "height": 16.0,
          "rotation": -0.0,
          "visible": true
        },
        {
          "id": 161,
          "name": "",
          "type": "obj_ring_spawner",
          "gid": 249,
          "x": 5456.0,
          "y": 512.0,
          "width": 16.0,
          "height": 16.0,
          "rotation": -0.0,
          "visible": true
        },
        {
          "id": 162,
          "name": "",
          "type": "obj_ring_spawner",
          "gid": 249,
          "x": 5484.0,
          "y": 512.0,
          "width": 16.0,
          "height": 16.0,
          "rotation": -0.0,
          "visible": true
        },
        {
          "id": 163,
          "name": "",
          "type": "obj_ring_spawner",
          "gid": 249,
          "x": 5512.0,
          "y": 512.0,
          "width": 16.0,
          "height": 16.0,
          "rotation": -0.0,
          "visible": true
        },
        {
          "id": 164,
          "name": "",
          "type": "obj_ring_spawner",
          "gid": 249,
          "x": 7064.0,
          "y": 616.0,
          "width": 16.0,
          "height": 16.0,
          "rotation": -0.0,
          "visible": true
        },
        {
          "id": 165,
          "name": "",
          "type": "obj_ring_spawner",
          "gid": 249,
          "x": 7100.0,
          "y": 616.0,
          "width": 16.0,
          "height": 16.0,
          "rotation": -0.0,
          "visible": true
        },
        {
          "id": 166,
          "name": "",
          "type": "obj_ring_spawner",
          "gid": 249,
          "x": 7136.0,
          "y": 616.0,
          "width": 16.0,
          "height": 16.0,
          "rotation": -0.0,
          "visible": true
        },
        {
          "id": 167,
          "name": "",
          "type": "obj_ring_spawner",
          "gid": 249,
          "x": 7124.0,
          "y": 296.0,
          "width": 16.0,
          "height": 16.0,
          "rotation": -0.0,
          "visible": true
        },
        {
          "id": 168,
          "name": "",
          "type": "obj_ring_spawner",
          "gid": 249,
          "x": 8100.0,
          "y": 512.0,
          "width": 16.0,
          "height": 16.0,
          "rotation": -0.0,
          "visible": true
        },
        {
          "id": 169,
          "name": "",
          "type": "obj_ring_spawner",
          "gid": 249,
          "x": 8068.0,
          "y": 512.0,
          "width": 16.0,
          "height": 16.0,
          "rotation": -0.0,
          "visible": true
        },
        {
          "id": 170,
          "name": "",
          "type": "obj_ring_spawner",
          "gid": 249,
          "x": 8036.0,
          "y": 512.0,
          "width": 16.0,
          "height": 16.0,
          "rotation": -0.0,
          "visible": true
        },
        {
          "id": 171,
          "name": "",
          "type": "obj_bspring_up",
          "gid": 34,
          "x": 6977.0,
          "y": 213.0,
          "width": 32.0,
          "height": 32.0,
          "rotation": -0.0,
          "visible": true
        },
        {
          "id": 172,
          "name": "",
          "type": "obj_ringspawn",
          "gid": 251,
          "x": 7259.0,
          "y": 60.0,
          "width": 32.0,
          "height": 32.0,
          "rotation": -0.0,
          "visible": true
        },
        {
          "id": 173,
          "name": "",
          "type": "obj_ringspawn",
          "gid": 251,
          "x": 7943.0,
          "y": 492.0,
          "width": 32.0,
          "height": 32.0,
          "rotation": -0.0,
          "visible": true
        },
        {
          "id": 174,
          "name": "",
          "type": "obj_ringspawn",
          "gid": 251,
          "x": 3651.0,
          "y": 592.0,
          "width": 32.0,
          "height": 32.0,
          "rotation": -0.0,
          "visible": true
        },
        {
          "id": 175,
          "name": "",
          "type": "obj_ringspawn",
          "gid": 251,
          "x": 1627.0,
          "y": 644.0,
          "width": 32.0,
          "height": 32.0,
          "rotation": -0.0,
          "visible": true
        },
        {
          "id": 176,
          "name": "",
          "type": "obj_spawnpoint",
          "gid": 259,
          "x": 1007.0,
          "y": 500.0,
          "width": 32.0,
          "height": 32.0,
          "rotation": -0.0,
          "visible": true
        },
        {
          "id": 177,
          "name": "",
          "type": "obj_spawnpoint",
          "gid": 259,
          "x": 3747.0,
          "y": 360.0,
          "width": 32.0,
          "height": 32.0,
          "rotation": -0.0,
          "visible": true
        },
        {
          "id": 178,
          "name": "",
          "type": "obj_exespawn",
          "gid": 85,
          "x": 5099.0,
          "y": 548.0,
          "width": 32.0,
          "height": 32.0,
          "rotation": -0.0,
          "visible": true
        },
        {
          "id": 179,
          "name": "",
          "type": "obj_exespawn",
          "gid": 85,
          "x": 4519.0,
          "y": 676.0,
          "width": 32.0,
          "height": 32.0,
          "rotation": -0.0,
          "visible": true
        },
        {
          "id": 180,
          "name": "",
          "type": "obj_spawnpoint",
          "gid": 259,
          "x": 6355.0,
          "y": 244.0,
          "width": 32.0,
          "height": 32.0,
          "rotation": -0.0,
          "visible": true
        },
        {
          "id": 181,
          "name": "",
          "type": "obj_spawnpoint",
          "gid": 259,
          "x": 6727.0,
          "y": 244.0,
          "width": 32.0,
          "height": 32.0,
          "rotation": -0.0,
          "visible": true
        },
        {
          "id": 182,
          "name": "",
          "type": "obj_exespawn",
          "gid": 85,
          "x": 6543.0,
          "y": 680.0,
          "width": 32.0,
          "height": 32.0,
          "rotation": -0.0,
          "visible": true
        },
        {
          "id": 183,
          "name": "",
          "type": "obj_exespawn",
          "gid": 85,
          "x": 7947.0,
          "y": 356.0,
          "width": 32.0,
          "height": 32.0,
          "rotation": -0.0,
          "visible": true
        },
        {
          "id": 184,
          "name": "",
          "type": "obj_spawnpoint",
          "gid": 259,
          "x": 7399.0,
          "y": 616.0,
          "width": 32.0,
          "height": 32.0,
          "rotation": -0.0,
          "visible": true
        },
        {
          "id": 185,
          "name": "",
          "type": "obj_angleanuller_eggsafe",
          "gid": 21,
          "x": 2204.0,
          "y": 592.0,
          "width": 76.0,
          "height": 68.0,
          "rotation": -0.0,
          "visible": true
        },
        {
          "id": 186,
          "name": "",
          "type": "obj_solid_block",
          "gid": 255,
          "x": 6080.0,
          "y": 324.0,
          "width": 64.0,
          "height": 16.0,
          "rotation": -0.0,
          "visible": true
        },
        {
          "id": 187,
          "name": "",
          "type": "obj_solid_block",
          "gid": 255,
          "x": 6016.0,
          "y": 356.0,
          "width": 64.0,
          "height": 16.0,
          "rotation": -0.0,
          "visible": true
        },
        {
          "id": 188,
          "name": "",
          "type": "obj_solid_block",
          "gid": 255,
          "x": 7384.0,
          "y": 0.0,
          "width": 104.0,
          "height": 144.0,
          "rotation": -0.0,
          "visible": true
        },
        {
          "id": 189,
          "name": "",
          "type": "obj_solid_block",
          "gid": 255,
          "x": 0.4621582,
          "y": -20.0,
          "width": 8192.0,
          "height": 20.0,
          "rotation": -0.0,
          "visible": true
        },
        {
          "id": 190,
          "name": "",
          "type": "obj_ghz_water",
          "gid": 104,
          "x": 0.3017499999996289,
          "y": 692.0,
          "width": 8323.0,
          "height": 152.0,
          "rotation": -0.0,
          "visible": true
        },
        {
          "id": 191,
          "name": "",
          "type": "obj_solid_block",
          "gid": 255,
          "x": 3336.0,
          "y": 488.0,
          "width": 208.0,
          "height": 356.0,
          "rotation": -0.0,
          "visible": true
        },
        {
          "id": 192,
          "name": "",
          "type": "obj_solid_block",
          "gid": 255,
          "x": 3632.0,
          "y": 660.0,
          "width": 134.0,
          "height": 184.0,
          "rotation": -0.0,
          "visible": true
        },
        {
          "id": 193,
          "name": "",
          "type": "obj_solid_block",
          "gid": 255,
          "x": 4344.0,
          "y": 716.0,
          "width": 131.9999744,
          "height": 128.0,
          "rotation": -0.0,
          "visible": true
        },
        {
          "id": 194,
          "name": "",
          "type": "obj_solid_block2",
          "gid": 256,
          "x": -36.0,
          "y": -20.0,
          "width": 36.0,
          "height": 868.0,
          "rotation": -0.0,
          "visible": true
        },
        {
          "id": 195,
          "name": "",
          "type": "obj_solid_block2",
          "gid": 256,
          "x": 8192.0,
          "y": -20.0,
          "width": 32.0,
          "height": 864.0,
          "rotation": -0.0,
          "visible": true
        }
      ],
      "properties": [
        {
          "name": "depth",
          "type": "int",
          "value": 0
        }
      ]
    },
    {
      "type": "objectgroup",
      "id": 9,
      "name": "Assets_1",
      "draworder": "index",
      "opacity": 1.0,
      "visible": true,
      "x": 0,
      "y": 0,
      "objects": [
        {
          "id": 211,
          "name": "",
          "type": "",
          "gid": 10432,
          "x": 6464.0,
          "y": 320.0,
          "width": 192.0,
          "height": 32.0,
          "rotation": -0.0,
          "visible": true
        },
        {
          "id": 212,
          "name": "",
          "type": "",
          "gid": 10433,
          "x": 6465.0,
          "y": 352.0,
          "width": 191.0,
          "height": 128.0,
          "rotation": -0.0,
          "visible": true
        },
        {
          "id": 213,
          "name": "",
          "type": "",
          "gid": 10433,
          "x": 6465.0,
          "y": 480.0,
          "width": 191.0,
          "height": 128.0,
          "rotation": -0.0,
          "visible": true
        },
        {
          "id": 214,
          "name": "",
          "type": "",
          "gid": 10433,
          "x": 6465.0,
          "y": 575.0,
          "width": 191.0,
          "height": 128.0,
          "rotation": -0.0,
          "visible": true
        },
        {
          "id": 215,
          "name": "",
          "type": "",
          "gid": 10433,
          "x": 6465.0,
          "y": 703.0,
          "width": 191.0,
          "height": 128.0,
          "rotation": -0.0,
          "visible": true
        },
        {
          "id": 216,
          "name": "",
          "type": "",
          "gid": 10433,
          "x": 6465.0,
          "y": 831.0,
          "width": 191.0,
          "height": 128.0,
          "rotation": -0.0,
          "visible": true
        }
      ],
      "properties": [
        {
          "name": "depth",
          "type": "int",
          "value": -5
        },
        {
          "name": "asset_layer",
          "type": "bool",
          "value": true
        }
      ]
    },
    {
      "type": "objectgroup",
      "id": 11,
      "name": "LevelArt ghz_tiles2",
      "draworder": "index",
      "opacity": 1.0,
      "visible": true,
      "x": 0,
      "y": 0,
      "objects": [
        {
          "id": 217,
          "name": "",
          "type": "",
          "gid": 10431,
          "x": 0.0,
          "y": 0.0,
          "width": 2048.0,
          "height": 1024.0,
          "rotation": -0.0,
          "visible": true,
          "properties": [
            {
              "name": "animation_speed",
              "type": "float",
              "value": 0.0
            }
          ]
        },
        {
          "id": 218,
          "name": "",
          "type": "",
          "gid": 10431,
          "x": 2048.0,
          "y": 0.0,
          "width": 2048.0,
          "height": 1024.0,
          "rotation": -0.0,
          "visible": true,
          "properties": [
            {
              "name": "animation_speed",
              "type": "float",
              "value": 0.0
            },
            {
              "name": "frame",
              "type": "float",
              "value": 1.0
            }
          ]
        },
        {
          "id": 219,
          "name": "",
          "type": "",
          "gid": 10431,
          "x": 4096.0,
          "y": 0.0,
          "width": 2048.0,
          "height": 1024.0,
          "rotation": -0.0,
          "visible": true,
          "properties": [
            {
              "name": "animation_speed",
              "type": "float",
              "value": 0.0
            },
            {
              "name": "frame",
              "type": "float",
              "value": 2.0
            }
          ]
        },
        {
          "id": 220,
          "name": "",
          "type": "",
          "gid": 10431,
          "x": 6144.0,
          "y": 0.0,
          "width": 2048.0,
          "height": 1024.0,
          "rotation": -0.0,
          "visible": true,
          "properties": [
            {
              "name": "animation_speed",
              "type": "float",
              "value": 0.0
            },
            {
              "name": "frame",
              "type": "float",
              "value": 3.0
            }
          ]
        }
      ],
      "properties": [
        {
          "name": "depth",
          "type": "int",
          "value": -10
        },
        {
          "name": "asset_layer",
          "type": "bool",
          "value": true
        }
      ]
    },
    {
      "type": "objectgroup",
      "id": 10,
      "name": "Instances_1",
      "draworder": "index",
      "opacity": 1.0,
      "visible": true,
      "x": 0,
      "y": 0,
      "objects": [
        {
          "id": 63,
          "name": "",
          "type": "obj_ghz_wave",
          "gid": 105,
          "x": 0.0,
          "y": 684.0,
          "width": 320.0,
          "height": 17.0,
          "rotation": -0.0,
          "visible": true
        },
        {
          "id": 64,
          "name": "",
          "type": "obj_ghz_wave",
          "gid": 105,
          "x": 320.0,
          "y": 684.0,
          "width": 320.0,
          "height": 17.0,
          "rotation": -0.0,
          "visible": true
        },
        {
          "id": 65,
          "name": "",
          "type": "obj_ghz_wave",
          "gid": 105,
          "x": 960.0,
          "y": 684.0,
          "width": 320.0,
          "height": 17.0,
          "rotation": -0.0,
          "visible": true
        },
        {
          "id": 66,
          "name": "",
          "type": "obj_ghz_wave",
          "gid": 105,
          "x": 640.0,
          "y": 684.0,
          "width": 320.0,
          "height": 17.0,
          "rotation": -0.0,
          "visible": true
        },
        {
          "id": 67,
          "name": "",
          "type": "obj_ghz_wave",
          "gid": 105,
          "x": 2239.0,
          "y": 684.0,
          "width": 320.0,
          "height": 17.0,
          "rotation": -0.0,
          "visible": true
        },
        {
          "id": 68,
          "name": "",
          "type": "obj_ghz_wave",
          "gid": 105,
          "x": 1919.0,
          "y": 684.0,
          "width": 320.0,
          "height": 17.0,
          "rotation": -0.0,
          "visible": true
        },
        {
          "id": 69,
          "name": "",
          "type": "obj_ghz_wave",
          "gid": 105,
          "x": 1599.0,
          "y": 684.0,
          "width": 320.0,
          "height": 17.0,
          "rotation": -0.0,
          "visible": true
        },
        {
          "id": 70,
          "name": "",
          "type": "obj_ghz_wave",
          "gid": 105,
          "x": 1279.0,
          "y": 684.0,
          "width": 320.0,
          "height": 17.0,
          "rotation": -0.0,
          "visible": true
        },
        {
          "id": 71,
          "name": "",
          "type": "obj_ghz_wave",
          "gid": 105,
          "x": 4798.0,
          "y": 684.0,
          "width": 320.0,
          "height": 17.0,
          "rotation": -0.0,
          "visible": true
        },
        {
          "id": 72,
          "name": "",
          "type": "obj_ghz_wave",
          "gid": 105,
          "x": 4478.0,
          "y": 684.0,
          "width": 320.0,
          "height": 17.0,
          "rotation": -0.0,
          "visible": true
        },
        {
          "id": 73,
          "name": "",
          "type": "obj_ghz_wave",
          "gid": 105,
          "x": 4158.0,
          "y": 684.0,
          "width": 320.0,
          "height": 17.0,
          "rotation": -0.0,
          "visible": true
        },
        {
          "id": 74,
          "name": "",
          "type": "obj_ghz_wave",
          "gid": 105,
          "x": 3838.0,
          "y": 684.0,
          "width": 320.0,
          "height": 17.0,
          "rotation": -0.0,
          "visible": true
        },
        {
          "id": 75,
          "name": "",
          "type": "obj_ghz_wave",
          "gid": 105,
          "x": 3519.0,
          "y": 684.0,
          "width": 320.0,
          "height": 17.0,
          "rotation": -0.0,
          "visible": true
        },
        {
          "id": 76,
          "name": "",
          "type": "obj_ghz_wave",
          "gid": 105,
          "x": 3199.0,
          "y": 684.0,
          "width": 320.0,
          "height": 17.0,
          "rotation": -0.0,
          "visible": true
        },
        {
          "id": 77,
          "name": "",
          "type": "obj_ghz_wave",
          "gid": 105,
          "x": 2879.0,
          "y": 684.0,
          "width": 320.0,
          "height": 17.0,
          "rotation": -0.0,
          "visible": true
        },
        {
          "id": 78,
          "name": "",
          "type": "obj_ghz_wave",
          "gid": 105,
          "x": 2559.0,
          "y": 684.0,
          "width": 320.0,
          "height": 17.0,
          "rotation": -0.0,
          "visible": true
        },
        {
          "id": 79,
          "name": "",
          "type": "obj_ghz_wave",
          "gid": 105,
          "x": 7356.0,
          "y": 684.0,
          "width": 320.0,
          "height": 17.0,
          "rotation": -0.0,
          "visible": true
        },
        {
          "id": 80,
          "name": "",
          "type": "obj_ghz_wave",
          "gid": 105,
          "x": 7036.0,
          "y": 684.0,
          "width": 320.0,
          "height": 17.0,
          "rotation": -0.0,
          "visible": true
        },
        {
          "id": 81,
          "name": "",
          "type": "obj_ghz_wave",
          "gid": 105,
          "x": 6716.0,
          "y": 684.0,
          "width": 320.0,
          "height": 17.0,
          "rotation": -0.0,
          "visible": true
        },
        {
          "id": 82,
          "name": "",
          "type": "obj_ghz_wave",
          "gid": 105,
          "x": 6396.0,
          "y": 684.0,
          "width": 320.0,
          "height": 17.0,
          "rotation": -0.0,
          "visible": true
        },
        {
          "id": 83,
          "name": "",
          "type": "obj_ghz_wave",
          "gid": 105,
          "x": 6077.0,
          "y": 684.0,
          "width": 320.0,
          "height": 17.0,
          "rotation": -0.0,
          "visible": true
        },
        {
          "id": 84,
          "name": "",
          "type": "obj_ghz_wave",
          "gid": 105,
          "x": 5757.0,
          "y": 684.0,
          "width": 320.0,
          "height": 17.0,
          "rotation": -0.0,
          "visible": true
        },
        {
          "id": 85,
          "name": "",
          "type": "obj_ghz_wave",
          "gid": 105,
          "x": 5437.0,
          "y": 684.0,
          "width": 320.0,
          "height": 17.0,
          "rotation": -0.0,
          "visible": true
        },
        {
          "id": 86,
          "name": "",
          "type": "obj_ghz_wave",
          "gid": 105,
          "x": 5117.0,
          "y": 684.0,
          "width": 320.0,
          "height": 17.0,
          "rotation": -0.0,
          "visible": true
        },
        {
          "id": 87,
          "name": "",
          "type": "obj_ghz_wave",
          "gid": 105,
          "x": 7676.0,
          "y": 684.0,
          "width": 320.0,
          "height": 17.0,
          "rotation": -0.0,
          "visible": true
        },
        {
          "id": 88,
          "name": "",
          "type": "obj_ghz_wave",
          "gid": 105,
          "x": 7996.0,
          "y": 684.0,
          "width": 320.0,
          "height": 17.0,
          "rotation": -0.0,
          "visible": true
        },
        {
          "id": 89,
          "name": "",
          "type": "obj_ghz_controller",
          "gid": 97,
          "x": 8.0,
          "y": -24.0,
          "width": 16.0,
          "height": 16.0,
          "rotation": -0.0,
          "visible": true
        }
      ],
      "properties": [
        {
          "name": "depth",
          "type": "int",
          "value": -25
        }
      ]
    }
  ]
}