{
  "type": "map",
  "version": "1.10",
  "orientation": "orthogonal",
  "renderorder": "right-down",
  "infinite": false,
  "width": 576,
  "height": 208,
  "tilewidth": 8,
  "tileheight": 8,
  "nextlayerid": 6,
  "nextobjectid": 141,
  "properties": [
    {
      "name": "persistent",
      "type": "bool",
      "value": false
    },
    {
      "name": "views_enabled",
      "type": "bool",
      "value": true
    },
    {
      "name": "clear_view_background",
      "type": "bool",
      "value": false
    },
    {
      "name": "view_visible",
      "type": "bool",
      "value": true
    },
    {
      "name": "view_x",
      "type": "int",
      "value": 0
    },
    {
      "name": "view_y",
      "type": "int",
      "value": 0
    },
    {
      "name": "view_width",
      "type": "int",
      "value": 480
    },
    {
      "name": "view_height",
      "type": "int",
      "value": 270
    },
    {
      "name": "port_x",
      "type": "int",
      "value": 0
    },
    {
      "name": "port_y",
      "type": "int",
      "value": 0
    },
    {
      "name": "port_width",
      "type": "int",
      "value": 480
    },
    {
      "name": "port_height",
      "type": "int",
      "value": 270
    }
  ],
  "tilesets": [
    {
      "firstgid": 1,
      "source": "Tilesets/objects.tsj"
    },
    {
      "firstgid": 10000,
      "source": "Tilesets/sprites.tsj"
    }
  ],
  "layers": [
    {
      "type": "imagelayer",
      "id": 1,
      "name": "Background_1",
      "image": "",
      "imagewidth": 0,
      "imageheight": 0,
      "repeatx": true,
      "repeaty": false,
      "offsetx": 0.0,
      "offsety": 0.0,
      "opacity": 1.0,
      "visible": true,
      "tintcolor": "#ff000000",
      "x": 0,
      "y": 0,
      "properties": [
        {
          "name": "depth",
          "type": "int",
          "value": 300
        }
      ]
    },
    {
      "type": "imagelayer",
      "id": 2,
      "name": "Background",
      "image": "../Textures/Zones/HideAndSeek2/hn2.png",
      "imagewidth": 512,
      "imageheight": 320,
      "repeatx": true,
      "repeaty": false,
      "offsetx": 0.0,
      "offsety": 0.0,
      "parallaxx": 0.7,
      "parallaxy": 0.0,
      "opacity": 1.0,
      "visible": true,
      "x": 0,
      "y": 0,
      "properties": [
        {
          "name": "depth",
          "type": "int",
          "value": 200
        }
      ]
    },
    {
      "type": "imagelayer",
      "id": 3,
      "name": "Background2",
      "image": "../Textures/Zones/HideAndSeek2/hn22.png",
      "imagewidth": 512,
      "imageheight": 280,
      "repeatx": true,
      "repeaty": false,
      "offsetx": 0.0,
      "offsety": 0.0,
      "parallaxx": 0.8,
      "parallaxy": 0.0,
      "opacity": 1.0,
      "visible": true,
      "x": 0,
      "y": 0,
      "properties": [
        {
          "name": "depth",
          "type": "int",
          "value": 100
        }
      ]
    },
    {
      "type": "objectgroup",
      "id": 5,
      "name": "LevelArt hs2_tiles",
      "draworder": "index",
      "opacity": 1.0,
      "visible": true,
      "x": 0,
      "y": 0,
      "objects": [
        {
          "id": 137,
          "name": "",
          "type": "",
          "gid": 10479,
          "x": 0.0,
          "y": 0.0,
          "width": 1152.0,
          "height": 1664.0,
          "rotation": -0.0,
          "visible": true,
          "properties": [
            {
              "name": "animation_speed",
              "type": "float",
              "value": 0.0
            }
          ]
        },
        {
          "id": 138,
          "name": "",
          "type": "",
          "gid": 10479,
          "x": 1152.0,
          "y": 0.0,
          "width": 1152.0,
          "height": 1664.0,
          "rotation": -0.0,
          "visible": true,
          "properties": [
            {
              "name": "animation_speed",
              "type": "float",
              "value": 0.0
            },
            {
              "name": "frame",
              "type": "float",
              "value": 1.0
            }
          ]
        },
        {
          "id": 139,
          "name": "",
          "type": "",
          "gid": 10479,
          "x": 2304.0,
          "y": 0.0,
          "width": 1152.0,
          "height": 1664.0,
          "rotation": -0.0,
          "visible": true,
          "properties": [
            {
              "name": "animation_speed",
              "type": "float",
              "value": 0.0
            },
            {
              "name": "frame",
              "type": "float",
              "value": 2.0
            }
          ]
        },
        {
          "id": 140,
          "name": "",
          "type": "",
          "gid": 10479,
          "x": 3456.0,
          "y": 0.0,
          "width": 1152.0,
          "height": 1664.0,
          "rotation": -0.0,
          "visible": true,
          "properties": [
            {
              "name": "animation_speed",
              "type": "float",
              "value": 0.0
            },
            {
              "name": "frame",
              "type": "float",
              "value": 3.0
            }
          ]
        }
      ],
      "properties": [
        {
          "name": "depth",
          "type": "int",
          "value": 90
        },
        {
          "name": "asset_layer",
          "type": "bool",
          "value": true
        }
      ]
    },
    {
      "type": "objectgroup",
      "id": 4,
      "name": "Instances",
      "draworder": "index",
      "opacity": 1.0,
      "visible": true,
      "x": 0,
      "y": 0,
      "objects": [
        {
          "id": 1,
          "name": "",
          "type": "obj_parallax",
          "gid": 211,
          "x": 0.0,
          "y": -16.0,
          "width": 16.0,
          "height": 16.0,
          "rotation": -0.0,
          "visible": true
        },
        {
          "id": 2,
          "name": "",
          "type": "obj_solid_block",
          "gid": 255,
          "x": 0.0,
          "y": 0.0,
          "width": 320.0000256,
          "height": 832.0,
          "rotation": -0.0,
          "visible": true
        },
        {
          "id": 3,
          "name": "",
          "type": "obj_solid_block",
          "gid": 255,
          "x": 320.99994,
          "y": 0.000030596588,
          "width": 1152.0,
          "height": 192.0,
          "rotation": -0.0,
          "visible": true
        },
        {
          "id": 4,
          "name": "",
          "type": "obj_solid_block",
          "gid": 255,
          "x": 1472.0,
          "y": 0.0,
          "width": 1665.0,
          "height": 448.0,
          "rotation": -0.0,
          "visible": true
        },
        {
          "id": 5,
          "name": "",
          "type": "obj_solid_block",
          "gid": 255,
          "x": 3136.0,
          "y": 0.0,
          "width": 1473.0,
          "height": 192.0,
          "rotation": -0.0,
          "visible": true
        },
        {
          "id": 6,
          "name": "",
          "type": "obj_solid_block",
          "gid": 255,
          "x": 896.00104,
          "y": 704.0,
          "width": 1088.0,
          "height": 384.0000256,
          "rotation": -0.0,
          "visible": true
        },
        {
          "id": 7,
          "name": "",
          "type": "obj_solid_block",
          "gid": 255,
          "x": 192.00003,
          "y": 960.0663,
          "width": 641.0,
          "height": 256.0,
          "rotation": -0.0,
          "visible": true
        },
        {
          "id": 8,
          "name": "",
          "type": "obj_solid_block",
          "gid": 255,
          "x": 768.0,
          "y": 832.0,
          "width": 128.0,
          "height": 256.0,
          "rotation": -0.0,
          "visible": true
        },
        {
          "id": 9,
          "name": "",
          "type": "obj_solid_block",
          "gid": 255,
          "x": 959.99994,
          "y": 1216.0,
          "width": 513.0,
          "height": 256.0,
          "rotation": -0.0,
          "visible": true
        },
        {
          "id": 10,
          "name": "",
          "type": "obj_solid_block",
          "gid": 255,
          "x": 0.0,
          "y": 1344.0,
          "width": 320.0,
          "height": 320.0,
          "rotation": -0.0,
          "visible": true
        },
        {
          "id": 11,
          "name": "",
          "type": "obj_solid_block",
          "gid": 255,
          "x": 320.0,
          "y": 1408.0,
          "width": 128.0,
          "height": 256.0,
          "rotation": -0.0,
          "visible": true
        },
        {
          "id": 12,
          "name": "",
          "type": "obj_solid_block",
          "gid": 255,
          "x": 448.8846,
          "y": 1472.0,
          "width": 2943.999488,
          "height": 192.0,
          "rotation": -0.0,
          "visible": true
        },
        {
          "id": 13,
          "name": "",
          "type": "obj_solid_block",
          "gid": 255,
          "x": 3008.0,
          "y": 1088.0,
          "width": 384.0,
          "height": 384.0,
          "rotation": -0.0,
          "visible": true
        },
        {
          "id": 14,
          "name": "",
          "type": "obj_solid_block",
          "gid": 255,
          "x": 3392.0,
          "y": 1344.0,
          "width": 447.0,
          "height": 320.0,
          "rotation": -0.0,
          "visible": true
        },
        {
          "id": 15,
          "name": "",
          "type": "obj_solid_block",
          "gid": 255,
          "x": 2688.0,
          "y": 1344.8607,
          "width": 320.0,
          "height": 128.0,
          "rotation": -0.0,
          "visible": true
        },
        {
          "id": 16,
          "name": "",
          "type": "obj_solid_block",
          "gid": 255,
          "x": 3839.9995,
          "y": 1344.0,
          "width": 769.0,
          "height": 320.0,
          "rotation": -0.0,
          "visible": true
        },
        {
          "id": 17,
          "name": "",
          "type": "obj_solid_block",
          "gid": 255,
          "x": 2368.0,
          "y": 704.0,
          "width": 513.0,
          "height": 384.0,
          "rotation": -0.0,
          "visible": true
        },
        {
          "id": 18,
          "name": "",
          "type": "obj_solid_block",
          "gid": 255,
          "x": 2944.001,
          "y": 576.9337,
          "width": 193.0,
          "height": 383.0,
          "rotation": -0.0,
          "visible": true
        },
        {
          "id": 19,
          "name": "",
          "type": "obj_solid_block",
          "gid": 255,
          "x": 2881.1326,
          "y": 704.99994,
          "width": 63.0,
          "height": 255.0,
          "rotation": -0.0,
          "visible": true
        },
        {
          "id": 20,
          "name": "",
          "type": "obj_solid_block",
          "gid": 255,
          "x": 3776.0,
          "y": 832.0,
          "width": 127.0,
          "height": 256.0,
          "rotation": -0.0,
          "visible": true
        },
        {
          "id": 21,
          "name": "",
          "type": "obj_solid_block",
          "gid": 255,
          "x": 3903.9993,
          "y": 832.0,
          "width": 705.0,
          "height": 256.0,
          "rotation": -0.0,
          "visible": true
        },
        {
          "id": 22,
          "name": "",
          "type": "obj_solid_block",
          "gid": 255,
          "x": 4095.9998,
          "y": 704.0,
          "width": 512.0,
          "height": 128.0,
          "rotation": -0.0,
          "visible": true
        },
        {
          "id": 23,
          "name": "",
          "type": "obj_solid_block",
          "gid": 255,
          "x": 4480.0,
          "y": 576.0,
          "width": 128.0,
          "height": 128.0,
          "rotation": -0.0,
          "visible": true
        },
        {
          "id": 24,
          "name": "",
          "type": "obj_solid_block",
          "gid": 255,
          "x": 832.0,
          "y": 384.0,
          "width": 384.0,
          "height": 192.0,
          "rotation": -0.0,
          "visible": true
        },
        {
          "id": 25,
          "name": "",
          "type": "obj_solid_block",
          "gid": 255,
          "x": 960.0,
          "y": 320.99997,
          "width": 256.0,
          "height": 64.0,
          "rotation": -0.0,
          "visible": true
        },
        {
          "id": 26,
          "name": "",
          "type": "obj_platform_jumptrough",
          "gid": 221,
          "x": 512.0,
          "y": 512.0,
          "width": 320.0,
          "height": 24.0,
          "rotation": -0.0,
          "visible": true
        },
        {
          "id": 27,
          "name": "",
          "type": "obj_platform_jumptrough",
          "gid": 221,
          "x": 320.0,
          "y": 704.0,
          "width": 248.0,
          "height": 24.0,
          "rotation": -0.0,
          "visible": true
        },
        {
          "id": 28,
          "name": "",
          "type": "obj_platform_jumptrough",
          "gid": 221,
          "x": 568.0,
          "y": 768.0,
          "width": 272.0,
          "height": 24.0,
          "rotation": -0.0,
          "visible": true
        },
        {
          "id": 29,
          "name": "",
          "type": "obj_platform_jumptrough",
          "gid": 221,
          "x": 0.0,
          "y": 1024.0,
          "width": 192.0,
          "height": 24.0,
          "rotation": -0.0,
          "visible": true
        },
        {
          "id": 30,
          "name": "",
          "type": "obj_platform_jumptrough",
          "gid": 221,
          "x": 1472.0,
          "y": 1280.0,
          "width": 320.0,
          "height": 24.0,
          "rotation": -0.0,
          "visible": true
        },
        {
          "id": 31,
          "name": "",
          "type": "obj_platform_jumptrough",
          "gid": 221,
          "x": 1984.0,
          "y": 1216.0,
          "width": 384.0,
          "height": 24.0,
          "rotation": -0.0,
          "visible": true
        },
        {
          "id": 32,
          "name": "",
          "type": "obj_platform_jumptrough",
          "gid": 221,
          "x": 3137.0,
          "y": 832.0,
          "width": 319.0,
          "height": 24.0,
          "rotation": -0.0,
          "visible": true
        },
        {
          "id": 33,
          "name": "",
          "type": "obj_platform_jumptrough",
          "gid": 221,
          "x": 3480.0,
          "y": 1024.0,
          "width": 240.0,
          "height": 24.0,
          "rotation": -0.0,
          "visible": true
        },
        {
          "id": 34,
          "name": "",
          "type": "obj_platform_jumptrough",
          "gid": 221,
          "x": 3328.0,
          "y": 496.0,
          "width": 432.0,
          "height": 24.0,
          "rotation": -0.0,
          "visible": true
        },
        {
          "id": 35,
          "name": "",
          "type": "obj_platform_jumptrough",
          "gid": 221,
          "x": 3840.0,
          "y": 512.0,
          "width": 384.0,
          "height": 24.0,
          "rotation": -0.0,
          "visible": true
        },
        {
          "id": 36,
          "name": "",
          "type": "obj_platform_jumptrough",
          "gid": 221,
          "x": 1984.0,
          "y": 704.0,
          "width": 80.0,
          "height": 16.0,
          "rotation": -0.0,
          "visible": true
        },
        {
          "id": 37,
          "name": "",
          "type": "obj_platform_jumptrough",
          "gid": 221,
          "x": 2288.0,
          "y": 704.0,
          "width": 80.0,
          "height": 16.0,
          "rotation": -0.0,
          "visible": true
        },
        {
          "id": 38,
          "name": "",
          "type": "obj_solid_block",
          "gid": 255,
          "x": 3167.0,
          "y": 1024.0,
          "width": 70.0,
          "height": 64.0,
          "rotation": -0.0,
          "visible": true
        },
        {
          "id": 39,
          "name": "",
          "type": "obj_solid_block",
          "gid": 255,
          "x": 4466.0,
          "y": 1280.0,
          "width": 142.0,
          "height": 64.0,
          "rotation": -0.0,
          "visible": true
        },
        {
          "id": 40,
          "name": "",
          "type": "obj_jack_in_the_box",
          "gid": 118,
          "x": 4224.0,
          "y": 1280.0,
          "width": 64.0,
          "height": 64.0,
          "rotation": -0.0,
          "visible": true
        },
        {
          "id": 41,
          "name": "",
          "type": "obj_jack_in_the_box",
          "gid": 118,
          "x": 3291.0,
          "y": 768.0,
          "width": 64.0,
          "height": 64.0,
          "rotation": -0.0,
          "visible": true
        },
        {
          "id": 42,
          "name": "",
          "type": "obj_jack_in_the_box",
          "gid": 118,
          "x": 640.0,
          "y": 1408.0,
          "width": 64.0,
          "height": 64.0,
          "rotation": -0.0,
          "visible": true
        },
        {
          "id": 43,
          "name": "",
          "type": "obj_jack_in_the_box",
          "gid": 118,
          "x": 320.0,
          "y": 640.0,
          "width": 64.0,
          "height": 64.0,
          "rotation": -0.0,
          "visible": true
        },
        {
          "id": 44,
          "name": "",
          "type": "obj_jack_in_the_box",
          "gid": 118,
          "x": 576.0,
          "y": 448.0,
          "width": 64.0,
          "height": 64.0,
          "rotation": -0.0,
          "visible": true
        },
        {
          "id": 45,
          "name": "",
          "type": "obj_jack_in_the_box",
          "gid": 118,
          "x": 1664.0,
          "y": 640.0,
          "width": 64.0,
          "height": 64.0,
          "rotation": -0.0,
          "visible": true
        },
        {
          "id": 46,
          "name": "",
          "type": "obj_jack_in_the_box",
          "gid": 118,
          "x": 1600.0,
          "y": 640.0,
          "width": 64.0,
          "height": 64.0,
          "rotation": -0.0,
          "visible": true
        },
        {
          "id": 47,
          "name": "",
          "type": "obj_platform_jumptrough",
          "gid": 221,
          "x": 1216.0,
          "y": 320.0,
          "width": 191.9999872,
          "height": 24.0,
          "rotation": -0.0,
          "visible": true
        },
        {
          "id": 48,
          "name": "",
          "type": "obj_solid_block",
          "gid": 255,
          "x": 2704.8403,
          "y": 1371.5696,
          "width": 290.0000256,
          "height": 31.0,
          "rotation": 153.5,
          "visible": true
        },
        {
          "id": 49,
          "name": "",
          "type": "obj_solid_block",
          "gid": 255,
          "x": 696.0,
          "y": 896.0,
          "width": 72.0,
          "height": 64.0,
          "rotation": -0.0,
          "visible": true
        },
        {
          "id": 50,
          "name": "",
          "type": "obj_spike",
          "gid": 260,
          "x": 664.0,
          "y": 928.0,
          "width": 32.0,
          "height": 32.0,
          "rotation": -0.0,
          "visible": true
        },
        {
          "id": 51,
          "name": "",
          "type": "obj_spike",
          "gid": 260,
          "x": 1472.0,
          "y": 1440.0,
          "width": 32.0,
          "height": 32.0,
          "rotation": -0.0,
          "visible": true
        },
        {
          "id": 52,
          "name": "",
          "type": "obj_spike",
          "gid": 260,
          "x": 1504.0,
          "y": 1440.0,
          "width": 32.0,
          "height": 32.0,
          "rotation": -0.0,
          "visible": true
        },
        {
          "id": 53,
          "name": "",
          "type": "obj_spike",
          "gid": 260,
          "x": 1536.0,
          "y": 1440.0,
          "width": 32.0,
          "height": 32.0,
          "rotation": -0.0,
          "visible": true
        },
        {
          "id": 54,
          "name": "",
          "type": "obj_spike",
          "gid": 260,
          "x": 1568.0,
          "y": 1440.0,
          "width": 32.0,
          "height": 32.0,
          "rotation": -0.0,
          "visible": true
        },
        {
          "id": 55,
          "name": "",
          "type": "obj_spike",
          "gid": 260,
          "x": 1600.0,
          "y": 1440.0,
          "width": 32.0,
          "height": 32.0,
          "rotation": -0.0,
          "visible": true
        },
        {
          "id": 56,
          "name": "",
          "type": "obj_spike",
          "gid": 260,
          "x": 3552.0,
          "y": 1312.0,
          "width": 32.0,
          "height": 32.0,
          "rotation": -0.0,
          "visible": true
        },
        {
          "id": 57,
          "name": "",
          "type": "obj_spike",
          "gid": 260,
          "x": 3584.0,
          "y": 1312.0,
          "width": 32.0,
          "height": 32.0,
          "rotation": -0.0,
          "visible": true
        },
        {
          "id": 58,
          "name": "",
          "type": "obj_spike",
          "gid": 260,
          "x": 3616.0,
          "y": 1312.0,
          "width": 32.0,
          "height": 32.0,
          "rotation": -0.0,
          "visible": true
        },
        {
          "id": 59,
          "name": "",
          "type": "obj_ring_spawner",
          "gid": 249,
          "x": 664.0,
          "y": 472.0,
          "width": 16.0,
          "height": 16.0,
          "rotation": -0.0,
          "visible": true
        },
        {
          "id": 60,
          "name": "",
          "type": "obj_ring_spawner",
          "gid": 249,
          "x": 696.0,
          "y": 472.0,
          "width": 16.0,
          "height": 16.0,
          "rotation": -0.0,
          "visible": true
        },
        {
          "id": 61,
          "name": "",
          "type": "obj_ring_spawner",
          "gid": 249,
          "x": 728.0,
          "y": 472.0,
          "width": 16.0,
          "height": 16.0,
          "rotation": -0.0,
          "visible": true
        },
        {
          "id": 62,
          "name": "",
          "type": "obj_ring_spawner",
          "gid": 249,
          "x": 1384.0,
          "y": 288.0,
          "width": 16.0,
          "height": 16.0,
          "rotation": -0.0,
          "visible": true
        },
        {
          "id": 63,
          "name": "",
          "type": "obj_ring_spawner",
          "gid": 249,
          "x": 2040.0,
          "y": 680.0,
          "width": 16.0,
          "height": 16.0,
          "rotation": -0.0,
          "visible": true
        },
        {
          "id": 64,
          "name": "",
          "type": "obj_ring_spawner",
          "gid": 249,
          "x": 2168.0,
          "y": 632.0,
          "width": 16.0,
          "height": 16.0,
          "rotation": -0.0,
          "visible": true
        },
        {
          "id": 65,
          "name": "",
          "type": "obj_ring_spawner",
          "gid": 249,
          "x": 2296.0,
          "y": 680.0,
          "width": 16.0,
          "height": 16.0,
          "rotation": -0.0,
          "visible": true
        },
        {
          "id": 66,
          "name": "",
          "type": "obj_ring_spawner",
          "gid": 249,
          "x": 2112.0,
          "y": 1192.0,
          "width": 16.0,
          "height": 16.0,
          "rotation": -0.0,
          "visible": true
        },
        {
          "id": 67,
          "name": "",
          "type": "obj_ring_spawner",
          "gid": 249,
          "x": 2160.0,
          "y": 1192.0,
          "width": 16.0,
          "height": 16.0,
          "rotation": -0.0,
          "visible": true
        },
        {
          "id": 68,
          "name": "",
          "type": "obj_ring_spawner",
          "gid": 249,
          "x": 2208.0,
          "y": 1192.0,
          "width": 16.0,
          "height": 16.0,
          "rotation": -0.0,
          "visible": true
        },
        {
          "id": 69,
          "name": "",
          "type": "obj_ring_spawner",
          "gid": 249,
          "x": 1184.0,
          "y": 1192.0,
          "width": 16.0,
          "height": 16.0,
          "rotation": -0.0,
          "visible": true
        },
        {
          "id": 70,
          "name": "",
          "type": "obj_ring_spawner",
          "gid": 249,
          "x": 1216.0,
          "y": 1192.0,
          "width": 16.0,
          "height": 16.0,
          "rotation": -0.0,
          "visible": true
        },
        {
          "id": 71,
          "name": "",
          "type": "obj_ring_spawner",
          "gid": 249,
          "x": 1248.0,
          "y": 1192.0,
          "width": 16.0,
          "height": 16.0,
          "rotation": -0.0,
          "visible": true
        },
        {
          "id": 72,
          "name": "",
          "type": "obj_spring_up",
          "gid": 265,
          "x": 80.0,
          "y": 1312.0,
          "width": 32.0,
          "height": 32.0,
          "rotation": -0.0,
          "visible": true
        },
        {
          "id": 73,
          "name": "",
          "type": "obj_ring_spawner",
          "gid": 249,
          "x": 88.0,
          "y": 1296.0,
          "width": 16.0,
          "height": 16.0,
          "rotation": -0.0,
          "visible": true
        },
        {
          "id": 74,
          "name": "",
          "type": "obj_ring_spawner",
          "gid": 249,
          "x": 88.0,
          "y": 1264.0,
          "width": 16.0,
          "height": 16.0,
          "rotation": -0.0,
          "visible": true
        },
        {
          "id": 75,
          "name": "",
          "type": "obj_ring_spawner",
          "gid": 249,
          "x": 88.0,
          "y": 1232.0,
          "width": 16.0,
          "height": 16.0,
          "rotation": -0.0,
          "visible": true
        },
        {
          "id": 76,
          "name": "",
          "type": "obj_bspring_up",
          "gid": 34,
          "x": 448.0,
          "y": 672.0,
          "width": 32.0,
          "height": 32.0,
          "rotation": -0.0,
          "visible": true
        },
        {
          "id": 77,
          "name": "",
          "type": "obj_ringspawn",
          "gid": 251,
          "x": 687.0,
          "y": 656.0,
          "width": 32.0,
          "height": 32.0,
          "rotation": -0.0,
          "visible": true
        },
        {
          "id": 78,
          "name": "",
          "type": "obj_ringspawn",
          "gid": 251,
          "x": 367.0,
          "y": 1336.0,
          "width": 32.0,
          "height": 32.0,
          "rotation": -0.0,
          "visible": true
        },
        {
          "id": 79,
          "name": "",
          "type": "obj_ringspawn",
          "gid": 251,
          "x": 1535.0,
          "y": 1192.0,
          "width": 32.0,
          "height": 32.0,
          "rotation": -0.0,
          "visible": true
        },
        {
          "id": 80,
          "name": "",
          "type": "obj_bspring_up",
          "gid": 34,
          "x": 1688.0,
          "y": 1440.0,
          "width": 32.0,
          "height": 32.0,
          "rotation": -0.0,
          "visible": true
        },
        {
          "id": 81,
          "name": "",
          "type": "obj_spring_right",
          "gid": 264,
          "x": 3237.0,
          "y": 1044.0,
          "width": 44.0,
          "height": 44.0,
          "rotation": -0.0,
          "visible": true
        },
        {
          "id": 82,
          "name": "",
          "type": "obj_ring_spawner",
          "gid": 249,
          "x": 3568.0,
          "y": 992.0,
          "width": 16.0,
          "height": 16.0,
          "rotation": -0.0,
          "visible": true
        },
        {
          "id": 83,
          "name": "",
          "type": "obj_ring_spawner",
          "gid": 249,
          "x": 3240.0,
          "y": 792.0,
          "width": 16.0,
          "height": 16.0,
          "rotation": -0.0,
          "visible": true
        },
        {
          "id": 84,
          "name": "",
          "type": "obj_ring_spawner",
          "gid": 249,
          "x": 3536.0,
          "y": 472.0,
          "width": 16.0,
          "height": 16.0,
          "rotation": -0.0,
          "visible": true
        },
        {
          "id": 85,
          "name": "",
          "type": "obj_ringspawn",
          "gid": 251,
          "x": 3527.0,
          "y": 400.0,
          "width": 32.0,
          "height": 32.0,
          "rotation": -0.0,
          "visible": true
        },
        {
          "id": 86,
          "name": "",
          "type": "obj_ring_spawner",
          "gid": 249,
          "x": 4032.0,
          "y": 488.0,
          "width": 16.0,
          "height": 16.0,
          "rotation": -0.0,
          "visible": true
        },
        {
          "id": 87,
          "name": "",
          "type": "obj_ringspawn",
          "gid": 251,
          "x": 4175.0,
          "y": 1224.0,
          "width": 32.0,
          "height": 32.0,
          "rotation": -0.0,
          "visible": true
        },
        {
          "id": 88,
          "name": "",
          "type": "obj_ring_spawner",
          "gid": 249,
          "x": 4496.0,
          "y": 1256.0,
          "width": 16.0,
          "height": 16.0,
          "rotation": -0.0,
          "visible": true
        },
        {
          "id": 89,
          "name": "",
          "type": "obj_ring_spawner",
          "gid": 249,
          "x": 4536.0,
          "y": 1256.0,
          "width": 16.0,
          "height": 16.0,
          "rotation": -0.0,
          "visible": true
        },
        {
          "id": 90,
          "name": "",
          "type": "obj_ring_spawner",
          "gid": 249,
          "x": 4576.0,
          "y": 1256.0,
          "width": 16.0,
          "height": 16.0,
          "rotation": -0.0,
          "visible": true
        },
        {
          "id": 91,
          "name": "",
          "type": "obj_spawnpoint",
          "gid": 259,
          "x": 1303.0,
          "y": 288.0,
          "width": 32.0,
          "height": 32.0,
          "rotation": -0.0,
          "visible": true
        },
        {
          "id": 92,
          "name": "",
          "type": "obj_exespawn",
          "gid": 85,
          "x": 607.0,
          "y": 736.0,
          "width": 32.0,
          "height": 32.0,
          "rotation": -0.0,
          "visible": true
        },
        {
          "id": 93,
          "name": "",
          "type": "obj_spawnpoint",
          "gid": 259,
          "x": 247.0,
          "y": 1312.0,
          "width": 32.0,
          "height": 32.0,
          "rotation": -0.0,
          "visible": true
        },
        {
          "id": 94,
          "name": "",
          "type": "obj_spawnpoint",
          "gid": 259,
          "x": 1909.0,
          "y": 673.0,
          "width": 32.0,
          "height": 32.0,
          "rotation": -0.0,
          "visible": true
        },
        {
          "id": 95,
          "name": "",
          "type": "obj_exespawn",
          "gid": 85,
          "x": 2151.0,
          "y": 1184.0,
          "width": 32.0,
          "height": 32.0,
          "rotation": -0.0,
          "visible": true
        },
        {
          "id": 96,
          "name": "",
          "type": "obj_spawnpoint",
          "gid": 259,
          "x": 2847.0,
          "y": 1312.0,
          "width": 32.0,
          "height": 32.0,
          "rotation": -0.0,
          "visible": true
        },
        {
          "id": 97,
          "name": "",
          "type": "obj_exespawn",
          "gid": 85,
          "x": 4407.0,
          "y": 1312.0,
          "width": 32.0,
          "height": 32.0,
          "rotation": -0.0,
          "visible": true
        },
        {
          "id": 98,
          "name": "",
          "type": "obj_spawnpoint",
          "gid": 259,
          "x": 4143.0,
          "y": 672.0,
          "width": 32.0,
          "height": 32.0,
          "rotation": -0.0,
          "visible": true
        },
        {
          "id": 99,
          "name": "",
          "type": "obj_exespawn",
          "gid": 85,
          "x": 3599.0,
          "y": 464.0,
          "width": 32.0,
          "height": 32.0,
          "rotation": -0.0,
          "visible": true
        },
        {
          "id": 100,
          "name": "",
          "type": "obj_exespawn",
          "gid": 85,
          "x": 2983.0,
          "y": 544.0,
          "width": 32.0,
          "height": 32.0,
          "rotation": -0.0,
          "visible": true
        },
        {
          "id": 101,
          "name": "",
          "type": "obj_yspring_up",
          "gid": 299,
          "x": 3393.0,
          "y": 1312.0,
          "width": 32.0,
          "height": 32.0,
          "rotation": -0.0,
          "visible": true
        },
        {
          "id": 102,
          "name": "",
          "type": "obj_yspring_up",
          "gid": 299,
          "x": 3136.0,
          "y": 800.0,
          "width": 32.0,
          "height": 32.0,
          "rotation": -0.0,
          "visible": true
        },
        {
          "id": 103,
          "name": "",
          "type": "obj_solid_block",
          "gid": 255,
          "x": 2958.0,
          "y": 604.0,
          "width": 288.0000256,
          "height": 31.0,
          "rotation": 153.5,
          "visible": true
        },
        {
          "id": 104,
          "name": "",
          "type": "obj_solid_block",
          "gid": 255,
          "x": 4111.0,
          "y": 732.0,
          "width": 288.0000256,
          "height": 31.0,
          "rotation": 153.5,
          "visible": true
        },
        {
          "id": 105,
          "name": "",
          "type": "obj_solid_block",
          "gid": 255,
          "x": 4495.0,
          "y": 604.0,
          "width": 288.0000256,
          "height": 31.0,
          "rotation": 153.5,
          "visible": true
        },
        {
          "id": 106,
          "name": "",
          "type": "obj_solid_block",
          "gid": 255,
          "x": 2624.0,
          "y": 1088.0,
          "width": 257.0,
          "height": 128.0,
          "rotation": -0.0,
          "visible": true
        },
        {
          "id": 107,
          "name": "",
          "type": "obj_solid_block",
          "gid": 255,
          "x": 1472.0,
          "y": 448.0,
          "width": 513.0,
          "height": 128.0,
          "rotation": -0.0,
          "visible": true
        },
        {
          "id": 108,
          "name": "",
          "type": "obj_solid_block",
          "gid": 255,
          "x": 576.0,
          "y": 1216.0,
          "width": 257.0,
          "height": 128.0,
          "rotation": -0.0,
          "visible": true
        },
        {
          "id": 109,
          "name": "",
          "type": "obj_jack_in_the_box",
          "gid": 118,
          "x": 3608.0,
          "y": 960.0,
          "width": 64.0,
          "height": 64.0,
          "rotation": -0.0,
          "visible": true
        },
        {
          "id": 110,
          "name": "",
          "type": "obj_jack_in_the_box",
          "gid": 118,
          "x": 4520.0,
          "y": 512.0,
          "width": 64.0,
          "height": 64.0,
          "rotation": -0.0,
          "visible": true
        },
        {
          "id": 111,
          "name": "",
          "type": "obj_jack_in_the_box",
          "gid": 118,
          "x": 1600.0,
          "y": 1216.0,
          "width": 64.0,
          "height": 64.0,
          "rotation": -0.0,
          "visible": true
        },
        {
          "id": 112,
          "name": "",
          "type": "obj_jack_in_the_box",
          "gid": 118,
          "x": 408.0,
          "y": 896.0,
          "width": 64.0,
          "height": 64.0,
          "rotation": -0.0,
          "visible": true
        },
        {
          "id": 113,
          "name": "",
          "type": "obj_yspring_up",
          "gid": 299,
          "x": 2976.0,
          "y": 1312.0,
          "width": 32.0,
          "height": 32.0,
          "rotation": -0.0,
          "visible": true
        },
        {
          "id": 114,
          "name": "",
          "type": "obj_yspring_up",
          "gid": 299,
          "x": 928.0,
          "y": 1440.0,
          "width": 32.0,
          "height": 32.0,
          "rotation": -0.0,
          "visible": true
        },
        {
          "id": 115,
          "name": "",
          "type": "obj_deathtp",
          "gid": 58,
          "x": 1472.0,
          "y": 1432.0,
          "width": 160.0,
          "height": 32.0,
          "rotation": -0.0,
          "visible": true
        },
        {
          "id": 116,
          "name": "",
          "type": "obj_deathtp_point",
          "gid": 59,
          "x": 1760.0,
          "y": 1440.0,
          "width": 32.0,
          "height": 32.0,
          "rotation": -0.0,
          "visible": true
        },
        {
          "id": 117,
          "name": "",
          "type": "obj_deathtp",
          "gid": 58,
          "x": 664.0,
          "y": 920.0,
          "width": 32.0,
          "height": 32.0,
          "rotation": -0.0,
          "visible": true
        },
        {
          "id": 118,
          "name": "",
          "type": "obj_deathtp_point",
          "gid": 59,
          "x": 568.0,
          "y": 928.0,
          "width": 32.0,
          "height": 32.0,
          "rotation": -0.0,
          "visible": true
        },
        {
          "id": 119,
          "name": "",
          "type": "obj_deathtp",
          "gid": 58,
          "x": 3552.0,
          "y": 1296.0,
          "width": 96.0,
          "height": 32.0,
          "rotation": -0.0,
          "visible": true
        },
        {
          "id": 120,
          "name": "",
          "type": "obj_deathtp_point",
          "gid": 59,
          "x": 3704.0,
          "y": 1312.0,
          "width": 32.0,
          "height": 32.0,
          "rotation": -0.0,
          "visible": true
        },
        {
          "id": 121,
          "name": "",
          "type": "obj_deathtp_point",
          "gid": 59,
          "x": 3464.0,
          "y": 1312.0,
          "width": 32.0,
          "height": 32.0,
          "rotation": -0.0,
          "visible": true
        },
        {
          "id": 122,
          "name": "",
          "type": "obj_solid_block",
          "gid": 255,
          "x": 760.0,
          "y": 448.0,
          "width": 72.0,
          "height": 64.0,
          "rotation": -0.0,
          "visible": true
        },
        {
          "id": 123,
          "name": "",
          "type": "obj_solid_block",
          "gid": 255,
          "x": 2816.0,
          "y": 640.0,
          "width": 128.0,
          "height": 64.0,
          "rotation": -0.0,
          "visible": true
        },
        {
          "id": 124,
          "name": "",
          "type": "obj_solid_block",
          "gid": 255,
          "x": 2888.0,
          "y": 608.0,
          "width": 56.0,
          "height": 32.0,
          "rotation": -0.0,
          "visible": true
        },
        {
          "id": 125,
          "name": "",
          "type": "obj_solid_block",
          "gid": 255,
          "x": 2760.0,
          "y": 672.0,
          "width": 56.0,
          "height": 32.0,
          "rotation": -0.0,
          "visible": true
        },
        {
          "id": 126,
          "name": "",
          "type": "obj_solid_block",
          "gid": 255,
          "x": 2504.0,
          "y": 1440.0,
          "width": 56.0,
          "height": 32.0,
          "rotation": -0.0,
          "visible": true
        },
        {
          "id": 127,
          "name": "",
          "type": "obj_solid_block",
          "gid": 255,
          "x": 2560.0,
          "y": 1408.0,
          "width": 128.0,
          "height": 64.0,
          "rotation": -0.0,
          "visible": true
        },
        {
          "id": 128,
          "name": "",
          "type": "obj_solid_block",
          "gid": 255,
          "x": 2632.0,
          "y": 1376.0,
          "width": 56.0,
          "height": 32.0,
          "rotation": -0.0,
          "visible": true
        },
        {
          "id": 129,
          "name": "",
          "type": "obj_solid_block",
          "gid": 255,
          "x": 3912.0,
          "y": 800.0,
          "width": 56.0,
          "height": 32.0,
          "rotation": -0.0,
          "visible": true
        },
        {
          "id": 130,
          "name": "",
          "type": "obj_solid_block",
          "gid": 255,
          "x": 3968.0,
          "y": 768.0,
          "width": 128.0,
          "height": 64.0,
          "rotation": -0.0,
          "visible": true
        },
        {
          "id": 131,
          "name": "",
          "type": "obj_solid_block",
          "gid": 255,
          "x": 4040.0,
          "y": 736.0,
          "width": 56.0,
          "height": 32.0,
          "rotation": -0.0,
          "visible": true
        },
        {
          "id": 132,
          "name": "",
          "type": "obj_solid_block",
          "gid": 255,
          "x": 4296.0,
          "y": 672.0,
          "width": 56.0,
          "height": 32.0,
          "rotation": -0.0,
          "visible": true
        },
        {
          "id": 133,
          "name": "",
          "type": "obj_solid_block",
          "gid": 255,
          "x": 4352.0,
          "y": 640.0,
          "width": 128.0,
          "height": 64.0,
          "rotation": -0.0,
          "visible": true
        },
        {
          "id": 134,
          "name": "",
          "type": "obj_solid_block",
          "gid": 255,
          "x": 4424.0,
          "y": 608.0,
          "width": 56.0,
          "height": 32.0,
          "rotation": -0.0,
          "visible": true
        },
        {
          "id": 135,
          "name": "",
          "type": "obj_solid_block2",
          "gid": 256,
          "x": -72.0,
          "y": 0.0,
          "width": 72.0,
          "height": 1664.0,
          "rotation": -0.0,
          "visible": true
        },
        {
          "id": 136,
          "name": "",
          "type": "obj_solid_block2",
          "gid": 256,
          "x": 4608.0,
          "y": 0.0,
          "width": 48.0,
          "height": 1663.999872,
          "rotation": -0.0,
          "visible": true
        }
      ],
      "properties": [
        {
          "name": "depth",
          "type": "int",
          "value": 0
        }
      ]
    }
  ]
}