{
  "type": "map",
  "version": "1.10",
  "orientation": "orthogonal",
  "renderorder": "right-down",
  "infinite": false,
  "width": 1088,
  "height": 384,
  "tilewidth": 4,
  "tileheight": 4,
  "nextlayerid": 9,
  "nextobjectid": 224,
  "properties": [
    {
      "name": "persistent",
      "type": "bool",
      "value": false
    },
    {
      "name": "views_enabled",
      "type": "bool",
      "value": true
    },
    {
      "name": "clear_view_background",
      "type": "bool",
      "value": false
    },
    {
      "name": "view_visible",
      "type": "bool",
      "value": true
    },
    {
      "name": "view_x",
      "type": "int",
      "value": 0
    },
    {
      "name": "view_y",
      "type": "int",
      "value": 0
    },
    {
      "name": "view_width",
      "type": "int",
      "value": 480
    },
    {
      "name": "view_height",
      "type": "int",
      "value": 270
    },
    {
      "name": "port_x",
      "type": "int",
      "value": 0
    },
    {
      "name": "port_y",
      "type": "int",
      "value": 0
    },
    {
      "name": "port_width",
      "type": "int",
      "value": 480
    },
    {
      "name": "port_height",
      "type": "int",
      "value": 270
    }
  ],
  "tilesets": [
    {
      "firstgid": 1,
      "source": "Tilesets/objects.tsj"
    },
    {
      "firstgid": 10000,
      "source": "Tilesets/sprites.tsj"
    }
  ],
  "layers": [
    {
      "type": "imagelayer",
      "id": 1,
      "name": "Background",
      "image": "../Textures/Zones/KindAndFair/knf.png",
      "imagewidth": 494,
      "imageheight": 270,
      "repeatx": true,
      "repeaty": false,
      "offsetx": 0.0,
      "offsety": 0.0,
      "parallaxx": 0.0,
      "parallaxy": 0.0,
      "opacity": 1.0,
      "visible": true,
      "x": 0,
      "y": 0,
      "properties": [
        {
          "name": "depth",
          "type": "int",
          "value": 600
        }
      ]
    },
    {
      "type": "imagelayer",
      "id": 2,
      "name": "Background2",
      "image": "../Textures/Zones/KindAndFair/knf2.png",
      "imagewidth": 494,
      "imageheight": 270,
      "repeatx": true,
      "repeaty": false,
      "offsetx": 0.0,
      "offsety": 0.0,
      "parallaxx": 0.01,
      "parallaxy": 0.0,
      "opacity": 1.0,
      "visible": true,
      "x": 0,
      "y": 0,
      "properties": [
        {
          "name": "depth",
          "type": "int",
          "value": 500
        }
      ]
    },
    {
      "type": "imagelayer",
      "id": 3,
      "name": "Background3",
      "image": "../Textures/Zones/KindAndFair/knf3.png",
      "imagewidth": 494,
      "imageheight": 270,
      "repeatx": true,
      "repeaty": false,
      "offsetx": 0.0,
      "offsety": 0.0,
      "parallaxx": 0.2,
      "parallaxy": 0.0,
      "opacity": 1.0,
      "visible": true,
      "x": 0,
      "y": 0,
      "properties": [
        {
          "name": "depth",
          "type": "int",
          "value": 400
        }
      ]
    },
    {
      "type": "imagelayer",
      "id": 4,
      "name": "Background4",
      "image": "../Textures/Zones/KindAndFair/knf4.png",
      "imagewidth": 494,
      "imageheight": 270,
      "repeatx": true,
      "repeaty": false,
      "offsetx": 0.0,
      "offsety": 0.0,
      "parallaxx": 0.25,
      "parallaxy": 0.0,
      "opacity": 1.0,
      "visible": true,
      "x": 0,
      "y": 0,
      "properties": [
        {
          "name": "depth",
          "type": "int",
          "value": 300
        }
      ]
    },
    {
      "type": "imagelayer",
      "id": 5,
      "name": "Background5",
      "image": "../Textures/Zones/KindAndFair/knf5.png",
      "imagewidth": 494,
      "imageheight": 270,
      "repeatx": true,
      "repeaty": false,
      "offsetx": 0.0,
      "offsety": 0.0,
      "parallaxx": 0.3,
      "parallaxy": 0.0,
      "opacity": 1.0,
      "visible": true,
      "x": 0,
      "y": 0,
      "properties": [
        {
          "name": "depth",
          "type": "int",
          "value": 200
        }
      ]
    },
    {
      "type": "imagelayer",
      "id": 6,
      "name": "Background6",
      "image": "../Textures/Zones/KindAndFair/knf6.png",
      "imagewidth": 494,
      "imageheight": 270,
      "repeatx": true,
      "repeaty": false,
      "offsetx": 0.0,
      "offsety": 0.0,
      "parallaxx": 0.35,
      "parallaxy": 0.0,
      "opacity": 1.0,
      "visible": true,
      "x": 0,
      "y": 0,
      "properties": [
        {
          "name": "depth",
          "type": "int",
          "value": 100
        }
      ]
    },
    {
      "type": "objectgroup",
      "id": 8,
      "name": "LevelArt kindnfair_tiles",
      "draworder": "index",
      "opacity": 1.0,
      "visible": true,
      "x": 0,
      "y": 0,
      "objects": [
        {
          "id": 220,
          "name": "",
          "type": "",
          "gid": 10486,
          "x": 0.0,
          "y": 0.0,
          "width": 1088.0,
          "height": 1536.0,
          "rotation": -0.0,
          "visible": true,
          "properties": [
            {
              "name": "animation_speed",
              "type": "float",
              "value": 0.0
            }
          ]
        },
        {
          "id": 221,
          "name": "",
          "type": "",
          "gid": 10486,
          "x": 1088.0,
          "y": 0.0,
          "width": 1088.0,
          "height": 1536.0,
          "rotation": -0.0,
          "visible": true,
          "properties": [
            {
              "name": "animation_speed",
              "type": "float",
              "value": 0.0
            },
            {
              "name": "frame",
              "type": "float",
              "value": 1.0
            }
          ]
        },
        {
          "id": 222,
          "name": "",
          "type": "",
          "gid": 10486,
          "x": 2176.0,
          "y": 0.0,
          "width": 1088.0,
          "height": 1536.0,
          "rotation": -0.0,
          "visible": true,
          "properties": [
            {
              "name": "animation_speed",
              "type": "float",
              "value": 0.0
            },
            {
              "name": "frame",
              "type": "float",
              "value": 2.0
            }
          ]
        },
        {
          "id": 223,
          "name": "",
          "type": "",
          "gid": 10486,
          "x": 3264.0,
          "y": 0.0,
          "width": 1088.0,
          "height": 1536.0,
          "rotation": -0.0,
          "visible": true,
          "properties": [
            {
              "name": "animation_speed",
              "type": "float",
              "value": 0.0
            },
            {
              "name": "frame",
              "type": "float",
              "value": 3.0
            }
          ]
        }
      ],
      "properties": [
        {
          "name": "depth",
          "type": "int",
          "value": 92
        },
        {
          "name": "asset_layer",
          "type": "bool",
          "value": true
        }
      ]
    },
    {
      "type": "objectgroup",
      "id": 7,
      "name": "Instances",
      "draworder": "index",
      "opacity": 1.0,
      "visible": true,
      "x": 0,
      "y": 0,
      "objects": [
        {
          "id": 1,
          "name": "",
          "type": "obj_solid_block",
          "gid": 255,
          "x": 384.0,
          "y": 4.0,
          "width": 128.0,
          "height": 828.0,
          "rotation": -0.0,
          "visible": true
        },
        {
          "id": 2,
          "name": "",
          "type": "obj_solid_block",
          "gid": 255,
          "x": 512.0,
          "y": 760.0,
          "width": 128.0,
          "height": 72.0,
          "rotation": -0.0,
          "visible": true
        },
        {
          "id": 3,
          "name": "",
          "type": "obj_solid_block",
          "gid": 255,
          "x": 768.0,
          "y": 832.0,
          "width": 128.0,
          "height": 200.0,
          "rotation": -0.0,
          "visible": true
        },
        {
          "id": 4,
          "name": "",
          "type": "obj_solid_block",
          "gid": 255,
          "x": 480.0,
          "y": 952.0,
          "width": 288.0,
          "height": 80.0,
          "rotation": -0.0,
          "visible": true
        },
        {
          "id": 5,
          "name": "",
          "type": "obj_solid_block",
          "gid": 255,
          "x": 0.0,
          "y": 1024.0,
          "width": 320.0,
          "height": 516.0,
          "rotation": -0.0,
          "visible": true
        },
        {
          "id": 6,
          "name": "",
          "type": "obj_solid_block",
          "gid": 255,
          "x": 320.0,
          "y": 1088.0,
          "width": 64.0,
          "height": 452.0,
          "rotation": -0.0,
          "visible": true
        },
        {
          "id": 7,
          "name": "",
          "type": "obj_solid_block",
          "gid": 255,
          "x": 384.0,
          "y": 1152.0,
          "width": 384.0000256,
          "height": 388.0,
          "rotation": -0.0,
          "visible": true
        },
        {
          "id": 8,
          "name": "",
          "type": "obj_solid_block",
          "gid": 255,
          "x": 768.0,
          "y": 1280.0,
          "width": 321.0,
          "height": 128.0,
          "rotation": -0.0,
          "visible": true
        },
        {
          "id": 9,
          "name": "",
          "type": "obj_solid_block",
          "gid": 255,
          "x": 1471.0,
          "y": 1280.0,
          "width": 129.0,
          "height": 128.0,
          "rotation": -0.0,
          "visible": true
        },
        {
          "id": 10,
          "name": "",
          "type": "obj_solid_block",
          "gid": 255,
          "x": 1600.0,
          "y": 1344.0,
          "width": 64.0,
          "height": 64.0,
          "rotation": -0.0,
          "visible": true
        },
        {
          "id": 11,
          "name": "",
          "type": "obj_solid_block",
          "gid": 255,
          "x": 768.0,
          "y": 1408.0,
          "width": 1536.0,
          "height": 132.0,
          "rotation": -0.0,
          "visible": true
        },
        {
          "id": 12,
          "name": "",
          "type": "obj_solid_block",
          "gid": 255,
          "x": 2304.0,
          "y": 1344.0,
          "width": 64.0,
          "height": 196.0,
          "rotation": -0.0,
          "visible": true
        },
        {
          "id": 13,
          "name": "",
          "type": "obj_solid_block",
          "gid": 255,
          "x": 2368.0,
          "y": 1408.0,
          "width": 832.0,
          "height": 132.0,
          "rotation": -0.0,
          "visible": true
        },
        {
          "id": 14,
          "name": "",
          "type": "obj_solid_block",
          "gid": 255,
          "x": 3200.0,
          "y": 1264.0,
          "width": 384.0,
          "height": 276.0,
          "rotation": -0.0,
          "visible": true
        },
        {
          "id": 15,
          "name": "",
          "type": "obj_solid_block",
          "gid": 255,
          "x": 2304.0,
          "y": 1088.0,
          "width": 256.0,
          "height": 192.0,
          "rotation": -0.0,
          "visible": true
        },
        {
          "id": 16,
          "name": "",
          "type": "obj_solid_block",
          "gid": 255,
          "x": 2559.9375,
          "y": 1088.0,
          "width": 192.0,
          "height": 192.0,
          "rotation": 359.94404709,
          "visible": true
        },
        {
          "id": 17,
          "name": "",
          "type": "obj_solid_block",
          "gid": 255,
          "x": 2948.0,
          "y": 960.0,
          "width": 252.0,
          "height": 128.0,
          "rotation": -0.0,
          "visible": true
        },
        {
          "id": 18,
          "name": "",
          "type": "obj_solid_block",
          "gid": 255,
          "x": 3200.0,
          "y": 640.0,
          "width": 896.0,
          "height": 448.0,
          "rotation": -0.0,
          "visible": true
        },
        {
          "id": 19,
          "name": "",
          "type": "obj_solid_block",
          "gid": 255,
          "x": 4224.0,
          "y": 0.0,
          "width": 128.0,
          "height": 1540.0,
          "rotation": -0.0,
          "visible": true
        },
        {
          "id": 20,
          "name": "",
          "type": "obj_solid_block",
          "gid": 255,
          "x": 896.0,
          "y": 960.0,
          "width": 480.0,
          "height": 72.0,
          "rotation": -0.0,
          "visible": true
        },
        {
          "id": 21,
          "name": "",
          "type": "obj_solid_block",
          "gid": 255,
          "x": 1152.0,
          "y": 520.0,
          "width": 384.0,
          "height": 296.0,
          "rotation": -0.0,
          "visible": true
        },
        {
          "id": 22,
          "name": "",
          "type": "obj_solid_block",
          "gid": 255,
          "x": 1536.0,
          "y": 688.0,
          "width": 384.0,
          "height": 128.0,
          "rotation": -0.0,
          "visible": true
        },
        {
          "id": 23,
          "name": "",
          "type": "obj_solid_block",
          "gid": 255,
          "x": 1920.0,
          "y": 560.0,
          "width": 384.0,
          "height": 256.0,
          "rotation": -0.0,
          "visible": true
        },
        {
          "id": 24,
          "name": "",
          "type": "obj_solid_block",
          "gid": 255,
          "x": 2304.0,
          "y": 560.0,
          "width": 128.0,
          "height": 200.0,
          "rotation": -0.0,
          "visible": true
        },
        {
          "id": 25,
          "name": "",
          "type": "obj_solid_block",
          "gid": 255,
          "x": 2432.0,
          "y": 560.0,
          "width": 512.0,
          "height": 128.0,
          "rotation": -0.0,
          "visible": true
        },
        {
          "id": 26,
          "name": "",
          "type": "obj_solid_block",
          "gid": 255,
          "x": 768.00006,
          "y": 1152.0,
          "width": 304.0,
          "height": 128.0,
          "rotation": 26.49025,
          "visible": true
        },
        {
          "id": 27,
          "name": "",
          "type": "obj_solid_block",
          "gid": 255,
          "x": 1978.0,
          "y": 674.0,
          "width": 292.0,
          "height": 128.0,
          "rotation": 153.5,
          "visible": true
        },
        {
          "id": 28,
          "name": "",
          "type": "obj_solid_block",
          "gid": 255,
          "x": 2464.0,
          "y": 1088.0,
          "width": 287.0,
          "height": 128.0,
          "rotation": 333.50975,
          "visible": true
        },
        {
          "id": 29,
          "name": "",
          "type": "obj_kaf_slope1",
          "gid": 119,
          "x": 896.0,
          "y": 832.0,
          "width": 178.0,
          "height": 128.0,
          "rotation": -0.0,
          "visible": true
        },
        {
          "id": 30,
          "name": "",
          "type": "obj_solid_block",
          "gid": 255,
          "x": 1968.0,
          "y": 1152.0,
          "width": 160.0,
          "height": 136.0,
          "rotation": -0.0,
          "visible": true
        },
        {
          "id": 31,
          "name": "",
          "type": "obj_solid_block",
          "gid": 255,
          "x": 1776.0,
          "y": 1216.0,
          "width": 192.0,
          "height": 72.0,
          "rotation": -0.0,
          "visible": true
        },
        {
          "id": 32,
          "name": "",
          "type": "obj_kaf_slope2",
          "gid": 120,
          "x": 2720.0,
          "y": 960.0,
          "width": 128.0,
          "height": 128.0,
          "rotation": -0.0,
          "visible": true
        },
        {
          "id": 33,
          "name": "",
          "type": "obj_kaf_slope2",
          "gid": 2147483768,
          "x": 2848.0,
          "y": 960.0,
          "width": 128.0,
          "height": 128.0,
          "rotation": -0.0,
          "visible": true
        },
        {
          "id": 34,
          "name": "",
          "type": "obj_ringspawn",
          "gid": 251,
          "x": 3567.0,
          "y": 540.0,
          "width": 32.0,
          "height": 32.0,
          "rotation": -0.0,
          "visible": true
        },
        {
          "id": 35,
          "name": "",
          "type": "obj_ringspawn",
          "gid": 251,
          "x": 2567.0,
          "y": 1332.0,
          "width": 32.0,
          "height": 32.0,
          "rotation": -0.0,
          "visible": true
        },
        {
          "id": 36,
          "name": "",
          "type": "obj_ringspawn",
          "gid": 251,
          "x": 1875.0,
          "y": 1332.0,
          "width": 32.0,
          "height": 32.0,
          "rotation": -0.0,
          "visible": true
        },
        {
          "id": 37,
          "name": "",
          "type": "obj_ringspawn",
          "gid": 251,
          "x": 683.0,
          "y": 1080.0,
          "width": 32.0,
          "height": 32.0,
          "rotation": -0.0,
          "visible": true
        },
        {
          "id": 38,
          "name": "",
          "type": "obj_ringspawn",
          "gid": 251,
          "x": 535.0,
          "y": 868.0,
          "width": 32.0,
          "height": 32.0,
          "rotation": -0.0,
          "visible": true
        },
        {
          "id": 39,
          "name": "",
          "type": "obj_spring_right",
          "gid": 264,
          "x": 512.0,
          "y": 716.0,
          "width": 44.0,
          "height": 44.0,
          "rotation": -0.0,
          "visible": true
        },
        {
          "id": 40,
          "name": "",
          "type": "obj_spring_left",
          "gid": 262,
          "x": 1924.0,
          "y": 1172.0,
          "width": 44.0,
          "height": 44.0,
          "rotation": -0.0,
          "visible": true
        },
        {
          "id": 41,
          "name": "",
          "type": "obj_spring_up",
          "gid": 265,
          "x": 3072.0,
          "y": 928.0,
          "width": 32.0,
          "height": 32.0,
          "rotation": -0.0,
          "visible": true
        },
        {
          "id": 42,
          "name": "",
          "type": "obj_damage",
          "gid": 49,
          "x": 1536.0,
          "y": 536.0,
          "width": 32.0,
          "height": 152.0,
          "rotation": -0.0,
          "visible": true
        },
        {
          "id": 43,
          "name": "",
          "type": "obj_solid_block",
          "gid": 255,
          "x": 1536.0,
          "y": 528.0,
          "width": 31.99999616,
          "height": 8.0,
          "rotation": -0.0,
          "visible": true
        },
        {
          "id": 44,
          "name": "",
          "type": "obj_damage",
          "gid": 49,
          "x": 384.0,
          "y": 1096.0,
          "width": 32.0,
          "height": 56.0,
          "rotation": -0.0,
          "visible": true
        },
        {
          "id": 45,
          "name": "",
          "type": "obj_solid_block",
          "gid": 255,
          "x": 384.0,
          "y": 1088.0,
          "width": 31.99999616,
          "height": 8.0,
          "rotation": -0.0,
          "visible": true
        },
        {
          "id": 46,
          "name": "",
          "type": "obj_damage",
          "gid": 49,
          "x": 2272.0,
          "y": 1352.0,
          "width": 32.0,
          "height": 56.0,
          "rotation": -0.0,
          "visible": true
        },
        {
          "id": 47,
          "name": "",
          "type": "obj_damage",
          "gid": 49,
          "x": 2272.0,
          "y": 1096.0,
          "width": 32.0,
          "height": 176.0,
          "rotation": -0.0,
          "visible": true
        },
        {
          "id": 48,
          "name": "",
          "type": "obj_solid_block",
          "gid": 255,
          "x": 2272.0,
          "y": 1088.0,
          "width": 32.0,
          "height": 8.0,
          "rotation": -0.0,
          "visible": true
        },
        {
          "id": 49,
          "name": "",
          "type": "obj_solid_block",
          "gid": 255,
          "x": 2272.0,
          "y": 1344.0,
          "width": 32.0,
          "height": 8.0,
          "rotation": -0.0,
          "visible": true
        },
        {
          "id": 50,
          "name": "",
          "type": "obj_damage",
          "gid": 49,
          "x": 3168.0,
          "y": 648.0,
          "width": 32.0,
          "height": 312.000032,
          "rotation": -0.0,
          "visible": true
        },
        {
          "id": 51,
          "name": "",
          "type": "obj_solid_block",
          "gid": 255,
          "x": 3168.0,
          "y": 640.0,
          "width": 32.0,
          "height": 8.0,
          "rotation": -0.0,
          "visible": true
        },
        {
          "id": 52,
          "name": "",
          "type": "obj_damage",
          "gid": 49,
          "x": 4192.0,
          "y": 0.0,
          "width": 32.0,
          "height": 1286.0,
          "rotation": -0.0,
          "visible": true
        },
        {
          "id": 53,
          "name": "",
          "type": "obj_solid_block",
          "gid": 255,
          "x": 4196.0,
          "y": 0.0,
          "width": 28.0,
          "height": 1286.0,
          "rotation": -0.0,
          "visible": true
        },
        {
          "id": 54,
          "name": "",
          "type": "obj_exespawn",
          "gid": 85,
          "x": 67.0,
          "y": 992.0,
          "width": 32.0,
          "height": 32.0,
          "rotation": -0.0,
          "visible": true
        },
        {
          "id": 55,
          "name": "",
          "type": "obj_exespawn",
          "gid": 85,
          "x": 819.0,
          "y": 800.0,
          "width": 32.0,
          "height": 32.0,
          "rotation": -0.0,
          "visible": true
        },
        {
          "id": 56,
          "name": "",
          "type": "obj_exespawn",
          "gid": 85,
          "x": 3335.0,
          "y": 608.0,
          "width": 32.0,
          "height": 32.0,
          "rotation": -0.0,
          "visible": true
        },
        {
          "id": 57,
          "name": "",
          "type": "obj_spawnpoint",
          "gid": 259,
          "x": 2355.0,
          "y": 524.0,
          "width": 32.0,
          "height": 32.0,
          "rotation": -0.0,
          "visible": true
        },
        {
          "id": 58,
          "name": "",
          "type": "obj_spawnpoint",
          "gid": 259,
          "x": 2035.0,
          "y": 1120.0,
          "width": 32.0,
          "height": 32.0,
          "rotation": -0.0,
          "visible": true
        },
        {
          "id": 59,
          "name": "",
          "type": "obj_spawnpoint",
          "gid": 259,
          "x": 1691.0,
          "y": 1376.0,
          "width": 32.0,
          "height": 32.0,
          "rotation": -0.0,
          "visible": true
        },
        {
          "id": 60,
          "name": "",
          "type": "obj_spawnpoint",
          "gid": 259,
          "x": 1319.0,
          "y": 488.0,
          "width": 32.0,
          "height": 32.0,
          "rotation": -0.0,
          "visible": true
        },
        {
          "id": 61,
          "name": "",
          "type": "obj_exespawn",
          "gid": 85,
          "x": 1063.0,
          "y": 1248.0,
          "width": 32.0,
          "height": 32.0,
          "rotation": -0.0,
          "visible": true
        },
        {
          "id": 62,
          "name": "",
          "type": "obj_ring_spawner",
          "gid": 249,
          "x": 1080.0,
          "y": 940.0,
          "width": 16.0,
          "height": 16.0,
          "rotation": -0.0,
          "visible": true
        },
        {
          "id": 63,
          "name": "",
          "type": "obj_ring_spawner",
          "gid": 249,
          "x": 1104.0,
          "y": 940.0,
          "width": 16.0,
          "height": 16.0,
          "rotation": -0.0,
          "visible": true
        },
        {
          "id": 64,
          "name": "",
          "type": "obj_ring_spawner",
          "gid": 249,
          "x": 1128.0,
          "y": 940.0,
          "width": 16.0,
          "height": 16.0,
          "rotation": -0.0,
          "visible": true
        },
        {
          "id": 65,
          "name": "",
          "type": "obj_ring_spawner",
          "gid": 249,
          "x": 680.0,
          "y": 924.0,
          "width": 16.0,
          "height": 16.0,
          "rotation": -0.0,
          "visible": true
        },
        {
          "id": 66,
          "name": "",
          "type": "obj_ring_spawner",
          "gid": 249,
          "x": 704.0,
          "y": 924.0,
          "width": 16.0,
          "height": 16.0,
          "rotation": -0.0,
          "visible": true
        },
        {
          "id": 67,
          "name": "",
          "type": "obj_ring_spawner",
          "gid": 249,
          "x": 728.0,
          "y": 924.0,
          "width": 16.0,
          "height": 16.0,
          "rotation": -0.0,
          "visible": true
        },
        {
          "id": 68,
          "name": "",
          "type": "obj_ring_spawner",
          "gid": 249,
          "x": 2502.0,
          "y": 537.0,
          "width": 16.0,
          "height": 16.0,
          "rotation": -0.0,
          "visible": true
        },
        {
          "id": 69,
          "name": "",
          "type": "obj_ring_spawner",
          "gid": 249,
          "x": 2526.0,
          "y": 537.0,
          "width": 16.0,
          "height": 16.0,
          "rotation": -0.0,
          "visible": true
        },
        {
          "id": 70,
          "name": "",
          "type": "obj_ring_spawner",
          "gid": 249,
          "x": 2550.0,
          "y": 537.0,
          "width": 16.0,
          "height": 16.0,
          "rotation": -0.0,
          "visible": true
        },
        {
          "id": 71,
          "name": "",
          "type": "obj_ring_spawner",
          "gid": 249,
          "x": 1108.0,
          "y": 1276.0,
          "width": 16.0,
          "height": 16.0,
          "rotation": 0.9466738,
          "visible": true
        },
        {
          "id": 72,
          "name": "",
          "type": "obj_ring_spawner",
          "gid": 249,
          "x": 1272.0,
          "y": 1388.0,
          "width": 16.0,
          "height": 16.0,
          "rotation": -0.0,
          "visible": true
        },
        {
          "id": 73,
          "name": "",
          "type": "obj_ring_spawner",
          "gid": 249,
          "x": 1436.0,
          "y": 1276.0,
          "width": 16.0,
          "height": 16.0,
          "rotation": -0.0,
          "visible": true
        },
        {
          "id": 74,
          "name": "",
          "type": "obj_ring_spawner",
          "gid": 249,
          "x": 2768.0,
          "y": 956.0,
          "width": 16.0,
          "height": 16.0,
          "rotation": -0.0,
          "visible": true
        },
        {
          "id": 75,
          "name": "",
          "type": "obj_ring_spawner",
          "gid": 249,
          "x": 2916.0,
          "y": 952.0,
          "width": 16.0,
          "height": 16.0,
          "rotation": -0.0,
          "visible": true
        },
        {
          "id": 76,
          "name": "",
          "type": "obj_ring_spawner",
          "gid": 249,
          "x": 1500.0,
          "y": 496.0,
          "width": 16.0,
          "height": 16.0,
          "rotation": -0.0,
          "visible": true
        },
        {
          "id": 77,
          "name": "",
          "type": "obj_ring_spawner",
          "gid": 249,
          "x": 1172.0,
          "y": 496.0,
          "width": 16.0,
          "height": 16.0,
          "rotation": -0.0,
          "visible": true
        },
        {
          "id": 78,
          "name": "",
          "type": "obj_ring_spawner",
          "gid": 249,
          "x": 280.0,
          "y": 1000.0,
          "width": 16.0,
          "height": 16.0,
          "rotation": -0.0,
          "visible": true
        },
        {
          "id": 79,
          "name": "",
          "type": "obj_ring_spawner",
          "gid": 249,
          "x": 544.0,
          "y": 1064.0,
          "width": 16.0,
          "height": 16.0,
          "rotation": -0.0,
          "visible": true
        },
        {
          "id": 80,
          "name": "",
          "type": "obj_ring_spawner",
          "gid": 249,
          "x": 1928.0,
          "y": 1328.0,
          "width": 16.0,
          "height": 16.0,
          "rotation": -0.0,
          "visible": true
        },
        {
          "id": 81,
          "name": "",
          "type": "obj_ring_spawner",
          "gid": 249,
          "x": 2024.0,
          "y": 1328.0,
          "width": 16.0,
          "height": 16.0,
          "rotation": -0.0,
          "visible": true
        },
        {
          "id": 82,
          "name": "",
          "type": "obj_ring_spawner",
          "gid": 249,
          "x": 1832.0,
          "y": 1328.0,
          "width": 16.0,
          "height": 16.0,
          "rotation": -0.0,
          "visible": true
        },
        {
          "id": 83,
          "name": "",
          "type": "obj_ring_spawner",
          "gid": 249,
          "x": 2632.0,
          "y": 1376.0,
          "width": 16.0,
          "height": 16.0,
          "rotation": -0.0,
          "visible": true
        },
        {
          "id": 84,
          "name": "",
          "type": "obj_ring_spawner",
          "gid": 249,
          "x": 2536.0,
          "y": 1376.0,
          "width": 16.0,
          "height": 16.0,
          "rotation": -0.0,
          "visible": true
        },
        {
          "id": 85,
          "name": "",
          "type": "obj_parallax",
          "gid": 211,
          "x": 0.0,
          "y": -16.0,
          "width": 16.0,
          "height": 16.0,
          "rotation": -0.0,
          "visible": true
        },
        {
          "id": 86,
          "name": "",
          "type": "obj_solid_block",
          "gid": 255,
          "x": 384.0,
          "y": 1096.0,
          "width": 30.99999616,
          "height": 56.0,
          "rotation": -0.0,
          "visible": true
        },
        {
          "id": 87,
          "name": "",
          "type": "obj_solid_block",
          "gid": 255,
          "x": 2273.0,
          "y": 1352.0,
          "width": 30.99999872,
          "height": 56.0,
          "rotation": -0.0,
          "visible": true
        },
        {
          "id": 88,
          "name": "",
          "type": "obj_solid_block",
          "gid": 255,
          "x": 1536.0,
          "y": 536.0,
          "width": 30.99999872,
          "height": 152.0,
          "rotation": -0.0,
          "visible": true
        },
        {
          "id": 89,
          "name": "",
          "type": "obj_solid_block",
          "gid": 255,
          "x": 3169.0,
          "y": 648.0,
          "width": 30.99999872,
          "height": 311.9999744,
          "rotation": -0.0,
          "visible": true
        },
        {
          "id": 90,
          "name": "",
          "type": "obj_solid_block",
          "gid": 255,
          "x": 2273.0,
          "y": 1096.0,
          "width": 30.99999872,
          "height": 176.0,
          "rotation": -0.0,
          "visible": true
        },
        {
          "id": 91,
          "name": "",
          "type": "obj_spike_r",
          "gid": 261,
          "x": 4192.0,
          "y": 674.0,
          "width": 32.0,
          "height": 32.0,
          "rotation": -0.0,
          "visible": true
        },
        {
          "id": 92,
          "name": "",
          "type": "obj_spike_r",
          "gid": 261,
          "x": 4192.0,
          "y": 610.0,
          "width": 32.0,
          "height": 32.0,
          "rotation": -0.0,
          "visible": true
        },
        {
          "id": 93,
          "name": "",
          "type": "obj_spike_r",
          "gid": 261,
          "x": 4192.0,
          "y": 578.0,
          "width": 32.0,
          "height": 32.0,
          "rotation": -0.0,
          "visible": true
        },
        {
          "id": 94,
          "name": "",
          "type": "obj_spike_r",
          "gid": 261,
          "x": 4192.0,
          "y": 546.0,
          "width": 32.0,
          "height": 32.0,
          "rotation": -0.0,
          "visible": true
        },
        {
          "id": 95,
          "name": "",
          "type": "obj_spike_r",
          "gid": 261,
          "x": 4192.0,
          "y": 514.0,
          "width": 32.0,
          "height": 32.0,
          "rotation": -0.0,
          "visible": true
        },
        {
          "id": 96,
          "name": "",
          "type": "obj_spike_r",
          "gid": 261,
          "x": 4192.0,
          "y": 482.0,
          "width": 32.0,
          "height": 32.0,
          "rotation": -0.0,
          "visible": true
        },
        {
          "id": 97,
          "name": "",
          "type": "obj_spike_r",
          "gid": 261,
          "x": 4192.0,
          "y": 450.0,
          "width": 32.0,
          "height": 32.0,
          "rotation": -0.0,
          "visible": true
        },
        {
          "id": 98,
          "name": "",
          "type": "obj_spike_r",
          "gid": 261,
          "x": 4192.0,
          "y": 422.0,
          "width": 32.0,
          "height": 32.0,
          "rotation": -0.0,
          "visible": true
        },
        {
          "id": 99,
          "name": "",
          "type": "obj_spike_r",
          "gid": 261,
          "x": 4192.0,
          "y": 390.0,
          "width": 32.0,
          "height": 32.0,
          "rotation": -0.0,
          "visible": true
        },
        {
          "id": 100,
          "name": "",
          "type": "obj_spike_r",
          "gid": 261,
          "x": 4192.0,
          "y": 358.0,
          "width": 32.0,
          "height": 32.0,
          "rotation": -0.0,
          "visible": true
        },
        {
          "id": 101,
          "name": "",
          "type": "obj_spike_r",
          "gid": 261,
          "x": 4192.0,
          "y": 326.0,
          "width": 32.0,
          "height": 32.0,
          "rotation": -0.0,
          "visible": true
        },
        {
          "id": 102,
          "name": "",
          "type": "obj_spike_r",
          "gid": 261,
          "x": 4192.0,
          "y": 294.0,
          "width": 32.0,
          "height": 32.0,
          "rotation": -0.0,
          "visible": true
        },
        {
          "id": 103,
          "name": "",
          "type": "obj_spike_r",
          "gid": 261,
          "x": 4192.0,
          "y": 262.0,
          "width": 32.0,
          "height": 32.0,
          "rotation": -0.0,
          "visible": true
        },
        {
          "id": 104,
          "name": "",
          "type": "obj_spike_r",
          "gid": 261,
          "x": 4192.0,
          "y": 230.0,
          "width": 32.0,
          "height": 32.0,
          "rotation": -0.0,
          "visible": true
        },
        {
          "id": 105,
          "name": "",
          "type": "obj_spike_r",
          "gid": 261,
          "x": 4192.0,
          "y": 198.0,
          "width": 32.0,
          "height": 32.0,
          "rotation": -0.0,
          "visible": true
        },
        {
          "id": 106,
          "name": "",
          "type": "obj_spike_r",
          "gid": 261,
          "x": 4192.0,
          "y": 166.0,
          "width": 32.0,
          "height": 32.0,
          "rotation": -0.0,
          "visible": true
        },
        {
          "id": 107,
          "name": "",
          "type": "obj_spike_r",
          "gid": 261,
          "x": 4192.0,
          "y": 134.0,
          "width": 32.0,
          "height": 32.0,
          "rotation": -0.0,
          "visible": true
        },
        {
          "id": 108,
          "name": "",
          "type": "obj_spike_r",
          "gid": 261,
          "x": 4192.0,
          "y": 102.0,
          "width": 32.0,
          "height": 32.0,
          "rotation": -0.0,
          "visible": true
        },
        {
          "id": 109,
          "name": "",
          "type": "obj_spike_r",
          "gid": 261,
          "x": 4192.0,
          "y": 70.0,
          "width": 32.0,
          "height": 32.0,
          "rotation": -0.0,
          "visible": true
        },
        {
          "id": 110,
          "name": "",
          "type": "obj_spike_r",
          "gid": 261,
          "x": 4192.0,
          "y": 38.0,
          "width": 32.0,
          "height": 32.0,
          "rotation": -0.0,
          "visible": true
        },
        {
          "id": 111,
          "name": "",
          "type": "obj_spike_r",
          "gid": 261,
          "x": 4192.0,
          "y": 6.0,
          "width": 32.0,
          "height": 32.0,
          "rotation": -0.0,
          "visible": true
        },
        {
          "id": 112,
          "name": "",
          "type": "obj_spike_r",
          "gid": 261,
          "x": 3168.0,
          "y": 640.0,
          "width": 32.0,
          "height": 32.0,
          "rotation": -0.0,
          "visible": true
        },
        {
          "id": 113,
          "name": "",
          "type": "obj_spike_r",
          "gid": 261,
          "x": 3168.0,
          "y": 672.0,
          "width": 32.0,
          "height": 32.0,
          "rotation": -0.0,
          "visible": true
        },
        {
          "id": 114,
          "name": "",
          "type": "obj_spike_r",
          "gid": 261,
          "x": 3168.0,
          "y": 704.0,
          "width": 32.0,
          "height": 32.0,
          "rotation": -0.0,
          "visible": true
        },
        {
          "id": 115,
          "name": "",
          "type": "obj_spike_r",
          "gid": 261,
          "x": 3168.0,
          "y": 736.0,
          "width": 32.0,
          "height": 32.0,
          "rotation": -0.0,
          "visible": true
        },
        {
          "id": 116,
          "name": "",
          "type": "obj_spike_r",
          "gid": 261,
          "x": 3168.0,
          "y": 768.0,
          "width": 32.0,
          "height": 32.0,
          "rotation": -0.0,
          "visible": true
        },
        {
          "id": 117,
          "name": "",
          "type": "obj_spike_r",
          "gid": 261,
          "x": 3168.0,
          "y": 800.0,
          "width": 32.0,
          "height": 32.0,
          "rotation": -0.0,
          "visible": true
        },
        {
          "id": 118,
          "name": "",
          "type": "obj_spike_r",
          "gid": 261,
          "x": 3168.0,
          "y": 832.0,
          "width": 32.0,
          "height": 32.0,
          "rotation": -0.0,
          "visible": true
        },
        {
          "id": 119,
          "name": "",
          "type": "obj_spike_r",
          "gid": 261,
          "x": 3168.0,
          "y": 864.0,
          "width": 32.0,
          "height": 32.0,
          "rotation": -0.0,
          "visible": true
        },
        {
          "id": 120,
          "name": "",
          "type": "obj_spike_r",
          "gid": 261,
          "x": 3168.0,
          "y": 896.0,
          "width": 32.0,
          "height": 32.0,
          "rotation": -0.0,
          "visible": true
        },
        {
          "id": 121,
          "name": "",
          "type": "obj_spike_r",
          "gid": 261,
          "x": 3168.0,
          "y": 928.0,
          "width": 32.0,
          "height": 32.0,
          "rotation": -0.0,
          "visible": true
        },
        {
          "id": 122,
          "name": "",
          "type": "obj_spike_r",
          "gid": 261,
          "x": 2272.0,
          "y": 1088.0,
          "width": 32.0,
          "height": 32.0,
          "rotation": -0.0,
          "visible": true
        },
        {
          "id": 123,
          "name": "",
          "type": "obj_spike_r",
          "gid": 261,
          "x": 2272.0,
          "y": 1184.0,
          "width": 32.0,
          "height": 32.0,
          "rotation": -0.0,
          "visible": true
        },
        {
          "id": 124,
          "name": "",
          "type": "obj_spike_r",
          "gid": 261,
          "x": 2272.0,
          "y": 1216.0,
          "width": 32.0,
          "height": 32.0,
          "rotation": -0.0,
          "visible": true
        },
        {
          "id": 125,
          "name": "",
          "type": "obj_spike_r",
          "gid": 261,
          "x": 2272.0,
          "y": 1248.0,
          "width": 32.0,
          "height": 32.0,
          "rotation": -0.0,
          "visible": true
        },
        {
          "id": 126,
          "name": "",
          "type": "obj_spike_r",
          "gid": 261,
          "x": 2272.0,
          "y": 1344.0,
          "width": 32.0,
          "height": 32.0,
          "rotation": -0.0,
          "visible": true
        },
        {
          "id": 127,
          "name": "",
          "type": "obj_spike_r",
          "gid": 261,
          "x": 2272.0,
          "y": 1376.0,
          "width": 32.0,
          "height": 32.0,
          "rotation": -0.0,
          "visible": true
        },
        {
          "id": 128,
          "name": "",
          "type": "obj_spike_r",
          "gid": 2147483909,
          "x": 1536.0,
          "y": 560.0,
          "width": 32.0,
          "height": 32.0,
          "rotation": -0.0,
          "visible": true
        },
        {
          "id": 129,
          "name": "",
          "type": "obj_spike_r",
          "gid": 2147483909,
          "x": 1536.0,
          "y": 592.0,
          "width": 32.0,
          "height": 32.0,
          "rotation": -0.0,
          "visible": true
        },
        {
          "id": 130,
          "name": "",
          "type": "obj_spike_r",
          "gid": 2147483909,
          "x": 1536.0,
          "y": 624.0,
          "width": 32.0,
          "height": 32.0,
          "rotation": -0.0,
          "visible": true
        },
        {
          "id": 131,
          "name": "",
          "type": "obj_spike_r",
          "gid": 2147483909,
          "x": 1536.0,
          "y": 656.0,
          "width": 32.0,
          "height": 32.0,
          "rotation": -0.0,
          "visible": true
        },
        {
          "id": 132,
          "name": "",
          "type": "obj_spike_r",
          "gid": 2147483909,
          "x": 384.0,
          "y": 1088.0,
          "width": 32.0,
          "height": 32.0,
          "rotation": -0.0,
          "visible": true
        },
        {
          "id": 133,
          "name": "",
          "type": "obj_spike_r",
          "gid": 2147483909,
          "x": 384.0,
          "y": 1120.0,
          "width": 32.0,
          "height": 32.0,
          "rotation": -0.0,
          "visible": true
        },
        {
          "id": 134,
          "name": "",
          "type": "obj_ring_spawner",
          "gid": 249,
          "x": 640.0,
          "y": 1064.0,
          "width": 16.0,
          "height": 16.0,
          "rotation": -0.0,
          "visible": true
        },
        {
          "id": 135,
          "name": "",
          "type": "obj_ring_spawner",
          "gid": 249,
          "x": 448.0,
          "y": 1064.0,
          "width": 16.0,
          "height": 16.0,
          "rotation": -0.0,
          "visible": true
        },
        {
          "id": 136,
          "name": "",
          "type": "obj_solid_block",
          "gid": 255,
          "x": 2273.0,
          "y": 1272.0,
          "width": 31.0,
          "height": 8.0,
          "rotation": -0.0,
          "visible": true
        },
        {
          "id": 137,
          "name": "",
          "type": "obj_kaf_slope1",
          "gid": 119,
          "x": 1089.0,
          "y": 1280.0,
          "width": 178.0,
          "height": 128.0,
          "rotation": -0.0,
          "visible": true
        },
        {
          "id": 138,
          "name": "",
          "type": "obj_kaf_slope1",
          "gid": 2147483767,
          "x": 1293.0,
          "y": 1280.0,
          "width": 178.0,
          "height": 128.0,
          "rotation": -0.0,
          "visible": true
        },
        {
          "id": 139,
          "name": "",
          "type": "obj_ring_spawner",
          "gid": 249,
          "x": 1164.0,
          "y": 1344.0,
          "width": 16.0,
          "height": 16.0,
          "rotation": 0.9466738,
          "visible": true
        },
        {
          "id": 140,
          "name": "",
          "type": "obj_ring_spawner",
          "gid": 249,
          "x": 1388.0,
          "y": 1344.0,
          "width": 16.0,
          "height": 16.0,
          "rotation": -0.0,
          "visible": true
        },
        {
          "id": 141,
          "name": "",
          "type": "obj_kaf_speedbox",
          "gid": 121,
          "x": 1810.0,
          "y": 1378.0,
          "width": 30.0,
          "height": 30.0,
          "rotation": -0.0,
          "visible": true
        },
        {
          "id": 142,
          "name": "",
          "type": "obj_kaf_speedbox",
          "gid": 121,
          "x": 2085.0,
          "y": 530.0,
          "width": 30.0,
          "height": 30.0,
          "rotation": -0.0,
          "visible": true
        },
        {
          "id": 143,
          "name": "",
          "type": "obj_kaf_speedbox",
          "gid": 121,
          "x": 2977.0,
          "y": 930.0,
          "width": 30.0,
          "height": 30.0,
          "rotation": -0.0,
          "visible": true
        },
        {
          "id": 144,
          "name": "",
          "type": "obj_kaf_speedbox",
          "gid": 121,
          "x": 613.0,
          "y": 1122.0,
          "width": 30.0,
          "height": 30.0,
          "rotation": -0.0,
          "visible": true
        },
        {
          "id": 145,
          "name": "",
          "type": "obj_solid_block",
          "gid": 255,
          "x": 1248.0,
          "y": 1408.0,
          "width": 65.0,
          "height": 12.0,
          "rotation": -0.0,
          "visible": true
        },
        {
          "id": 146,
          "name": "",
          "type": "obj_spike_r",
          "gid": 261,
          "x": 2272.0,
          "y": 1120.0,
          "width": 32.0,
          "height": 32.0,
          "rotation": -0.0,
          "visible": true
        },
        {
          "id": 147,
          "name": "",
          "type": "obj_spike_r",
          "gid": 261,
          "x": 2272.0,
          "y": 1152.0,
          "width": 32.0,
          "height": 32.0,
          "rotation": -0.0,
          "visible": true
        },
        {
          "id": 148,
          "name": "",
          "type": "obj_spike_r",
          "gid": 2147483909,
          "x": 1536.0,
          "y": 528.0,
          "width": 32.0,
          "height": 32.0,
          "rotation": -0.0,
          "visible": true
        },
        {
          "id": 149,
          "name": "",
          "type": "obj_kaf_speedbox",
          "gid": 121,
          "x": 2268.0,
          "y": 530.0,
          "width": 30.0,
          "height": 30.0,
          "rotation": -0.0,
          "visible": true
        },
        {
          "id": 150,
          "name": "",
          "type": "obj_kaf_speedbox",
          "gid": 121,
          "x": 2441.0,
          "y": 530.0,
          "width": 30.0,
          "height": 30.0,
          "rotation": -0.0,
          "visible": true
        },
        {
          "id": 151,
          "name": "",
          "type": "obj_solid_block",
          "gid": 255,
          "x": 2688.0,
          "y": 496.0,
          "width": 128.0,
          "height": 64.0,
          "rotation": -0.0,
          "visible": true
        },
        {
          "id": 152,
          "name": "",
          "type": "obj_solid_block",
          "gid": 255,
          "x": 2657.0,
          "y": 504.0,
          "width": 29.99999872,
          "height": 56.0,
          "rotation": -0.0,
          "visible": true
        },
        {
          "id": 153,
          "name": "",
          "type": "obj_solid_block",
          "gid": 255,
          "x": 2656.0,
          "y": 496.0,
          "width": 31.99999616,
          "height": 8.0,
          "rotation": -0.0,
          "visible": true
        },
        {
          "id": 154,
          "name": "",
          "type": "obj_damage",
          "gid": 49,
          "x": 2656.0,
          "y": 504.0,
          "width": 32.0,
          "height": 56.0,
          "rotation": -0.0,
          "visible": true
        },
        {
          "id": 155,
          "name": "",
          "type": "obj_spike_r",
          "gid": 261,
          "x": 2656.0,
          "y": 528.0,
          "width": 32.0,
          "height": 32.0,
          "rotation": -0.0,
          "visible": true
        },
        {
          "id": 156,
          "name": "",
          "type": "obj_spike_r",
          "gid": 261,
          "x": 2656.0,
          "y": 496.0,
          "width": 32.0,
          "height": 32.0,
          "rotation": -0.0,
          "visible": true
        },
        {
          "id": 157,
          "name": "",
          "type": "obj_spike_r",
          "gid": 261,
          "x": 4192.0,
          "y": 642.0,
          "width": 32.0,
          "height": 32.0,
          "rotation": -0.0,
          "visible": true
        },
        {
          "id": 158,
          "name": "",
          "type": "obj_spike_r",
          "gid": 261,
          "x": 4192.0,
          "y": 706.0,
          "width": 32.0,
          "height": 32.0,
          "rotation": -0.0,
          "visible": true
        },
        {
          "id": 159,
          "name": "",
          "type": "obj_spike_r",
          "gid": 261,
          "x": 4192.0,
          "y": 738.0,
          "width": 32.0,
          "height": 32.0,
          "rotation": -0.0,
          "visible": true
        },
        {
          "id": 160,
          "name": "",
          "type": "obj_spike_r",
          "gid": 261,
          "x": 4192.0,
          "y": 770.0,
          "width": 32.0,
          "height": 32.0,
          "rotation": -0.0,
          "visible": true
        },
        {
          "id": 161,
          "name": "",
          "type": "obj_spike_r",
          "gid": 261,
          "x": 4192.0,
          "y": 802.0,
          "width": 32.0,
          "height": 32.0,
          "rotation": -0.0,
          "visible": true
        },
        {
          "id": 162,
          "name": "",
          "type": "obj_spike_r",
          "gid": 261,
          "x": 4192.0,
          "y": 834.0,
          "width": 32.0,
          "height": 32.0,
          "rotation": -0.0,
          "visible": true
        },
        {
          "id": 163,
          "name": "",
          "type": "obj_spike_r",
          "gid": 261,
          "x": 4192.0,
          "y": 962.0,
          "width": 32.0,
          "height": 32.0,
          "rotation": -0.0,
          "visible": true
        },
        {
          "id": 164,
          "name": "",
          "type": "obj_spike_r",
          "gid": 261,
          "x": 4192.0,
          "y": 930.0,
          "width": 32.0,
          "height": 32.0,
          "rotation": -0.0,
          "visible": true
        },
        {
          "id": 165,
          "name": "",
          "type": "obj_spike_r",
          "gid": 261,
          "x": 4192.0,
          "y": 898.0,
          "width": 32.0,
          "height": 32.0,
          "rotation": -0.0,
          "visible": true
        },
        {
          "id": 166,
          "name": "",
          "type": "obj_spike_r",
          "gid": 261,
          "x": 4192.0,
          "y": 866.0,
          "width": 32.0,
          "height": 32.0,
          "rotation": -0.0,
          "visible": true
        },
        {
          "id": 167,
          "name": "",
          "type": "obj_spike_r",
          "gid": 261,
          "x": 4192.0,
          "y": 1089.0,
          "width": 32.0,
          "height": 32.0,
          "rotation": -0.0,
          "visible": true
        },
        {
          "id": 168,
          "name": "",
          "type": "obj_spike_r",
          "gid": 261,
          "x": 4192.0,
          "y": 1057.0,
          "width": 32.0,
          "height": 32.0,
          "rotation": -0.0,
          "visible": true
        },
        {
          "id": 169,
          "name": "",
          "type": "obj_spike_r",
          "gid": 261,
          "x": 4192.0,
          "y": 1025.0,
          "width": 32.0,
          "height": 32.0,
          "rotation": -0.0,
          "visible": true
        },
        {
          "id": 170,
          "name": "",
          "type": "obj_spike_r",
          "gid": 261,
          "x": 4192.0,
          "y": 993.0,
          "width": 32.0,
          "height": 32.0,
          "rotation": -0.0,
          "visible": true
        },
        {
          "id": 171,
          "name": "",
          "type": "obj_spike_r",
          "gid": 261,
          "x": 4192.0,
          "y": 1217.0,
          "width": 32.0,
          "height": 32.0,
          "rotation": -0.0,
          "visible": true
        },
        {
          "id": 172,
          "name": "",
          "type": "obj_spike_r",
          "gid": 261,
          "x": 4192.0,
          "y": 1185.0,
          "width": 32.0,
          "height": 32.0,
          "rotation": -0.0,
          "visible": true
        },
        {
          "id": 173,
          "name": "",
          "type": "obj_spike_r",
          "gid": 261,
          "x": 4192.0,
          "y": 1153.0,
          "width": 32.0,
          "height": 32.0,
          "rotation": -0.0,
          "visible": true
        },
        {
          "id": 174,
          "name": "",
          "type": "obj_spike_r",
          "gid": 261,
          "x": 4192.0,
          "y": 1121.0,
          "width": 32.0,
          "height": 32.0,
          "rotation": -0.0,
          "visible": true
        },
        {
          "id": 175,
          "name": "",
          "type": "obj_spike_r",
          "gid": 261,
          "x": 4192.0,
          "y": 1248.0,
          "width": 32.0,
          "height": 32.0,
          "rotation": -0.0,
          "visible": true
        },
        {
          "id": 176,
          "name": "",
          "type": "obj_spike_r",
          "gid": 261,
          "x": 4192.0,
          "y": -26.0,
          "width": 32.0,
          "height": 32.0,
          "rotation": -0.0,
          "visible": true
        },
        {
          "id": 177,
          "name": "",
          "type": "obj_solid_block",
          "gid": 255,
          "x": 3584.0,
          "y": 1408.0,
          "width": 312.0,
          "height": 132.0,
          "rotation": -0.0,
          "visible": true
        },
        {
          "id": 178,
          "name": "",
          "type": "obj_solid_block",
          "gid": 255,
          "x": 3896.0,
          "y": 1280.0,
          "width": 328.0,
          "height": 260.0,
          "rotation": -0.0,
          "visible": true
        },
        {
          "id": 179,
          "name": "",
          "type": "obj_solid_block",
          "gid": 255,
          "x": 2961.0,
          "y": 1192.0,
          "width": 128.0,
          "height": 72.0,
          "rotation": -0.0,
          "visible": true
        },
        {
          "id": 180,
          "name": "",
          "type": "obj_kaf_speedbox",
          "gid": 121,
          "x": 3371.0,
          "y": 1234.0,
          "width": 30.0,
          "height": 30.0,
          "rotation": -0.0,
          "visible": true
        },
        {
          "id": 181,
          "name": "",
          "type": "obj_kaf_slope1",
          "gid": 2147483767,
          "x": 3725.0,
          "y": 1280.0,
          "width": 178.0,
          "height": 128.0,
          "rotation": -0.0,
          "visible": true
        },
        {
          "id": 182,
          "name": "",
          "type": "obj_ring_spawner",
          "gid": 249,
          "x": 2968.0,
          "y": 1168.0,
          "width": 16.0,
          "height": 16.0,
          "rotation": -0.0,
          "visible": true
        },
        {
          "id": 183,
          "name": "",
          "type": "obj_ring_spawner",
          "gid": 249,
          "x": 3068.0,
          "y": 1168.0,
          "width": 16.0,
          "height": 16.0,
          "rotation": -0.0,
          "visible": true
        },
        {
          "id": 184,
          "name": "",
          "type": "obj_ring_spawner",
          "gid": 249,
          "x": 3216.0,
          "y": 1240.0,
          "width": 16.0,
          "height": 16.0,
          "rotation": -0.0,
          "visible": true
        },
        {
          "id": 185,
          "name": "",
          "type": "obj_ring_spawner",
          "gid": 249,
          "x": 3556.0,
          "y": 1240.0,
          "width": 16.0,
          "height": 16.0,
          "rotation": -0.0,
          "visible": true
        },
        {
          "id": 186,
          "name": "",
          "type": "obj_ring_spawner",
          "gid": 249,
          "x": 4056.0,
          "y": 1256.0,
          "width": 16.0,
          "height": 16.0,
          "rotation": -0.0,
          "visible": true
        },
        {
          "id": 187,
          "name": "",
          "type": "obj_kaf_speedbox",
          "gid": 121,
          "x": 3477.0,
          "y": 610.0,
          "width": 30.0,
          "height": 30.0,
          "rotation": -0.0,
          "visible": true
        },
        {
          "id": 188,
          "name": "",
          "type": "obj_kaf_speedbox",
          "gid": 121,
          "x": 3632.0,
          "y": 610.0,
          "width": 30.0,
          "height": 30.0,
          "rotation": -0.0,
          "visible": true
        },
        {
          "id": 189,
          "name": "",
          "type": "obj_kaf_speedbox",
          "gid": 121,
          "x": 3792.0,
          "y": 610.0,
          "width": 30.0,
          "height": 30.0,
          "rotation": -0.0,
          "visible": true
        },
        {
          "id": 190,
          "name": "",
          "type": "obj_kaf_speedbox",
          "gid": 121,
          "x": 3952.0,
          "y": 610.0,
          "width": 30.0,
          "height": 30.0,
          "rotation": -0.0,
          "visible": true
        },
        {
          "id": 191,
          "name": "",
          "type": "obj_bspring_right",
          "gid": 33,
          "x": 596.0,
          "y": 908.0,
          "width": 44.0,
          "height": 44.0,
          "rotation": -0.0,
          "visible": true
        },
        {
          "id": 192,
          "name": "",
          "type": "obj_bspring_right",
          "gid": 33,
          "x": 3016.0,
          "y": 1364.0,
          "width": 44.0,
          "height": 44.0,
          "rotation": -0.0,
          "visible": true
        },
        {
          "id": 193,
          "name": "",
          "type": "obj_bspring_up",
          "gid": 34,
          "x": 3584.0,
          "y": 1376.0,
          "width": 32.0,
          "height": 32.0,
          "rotation": -0.0,
          "visible": true
        },
        {
          "id": 194,
          "name": "",
          "type": "obj_angleanuller_eggsafe",
          "gid": 21,
          "x": 1524.0,
          "y": 492.0,
          "width": 48.0,
          "height": 40.0,
          "rotation": -0.0,
          "visible": true
        },
        {
          "id": 195,
          "name": "",
          "type": "obj_corpse_cream",
          "gid": 44,
          "x": 4192.0,
          "y": 565.0,
          "width": 32.0,
          "height": 58.0,
          "rotation": -0.0,
          "visible": true
        },
        {
          "id": 196,
          "name": "",
          "type": "obj_corpse_cream",
          "gid": 44,
          "x": 3152.0,
          "y": 1350.0,
          "width": 32.0,
          "height": 58.0,
          "rotation": -0.0,
          "visible": true,
          "properties": [
            {
              "name": "image_index",
              "type": "int",
              "value": 1
            }
          ]
        },
        {
          "id": 197,
          "name": "",
          "type": "obj_angleanuller_eggsafe",
          "gid": 21,
          "x": 1920.0,
          "y": 528.0,
          "width": 28.0,
          "height": 32.0,
          "rotation": -0.0,
          "visible": true
        },
        {
          "id": 198,
          "name": "",
          "type": "obj_angleallower",
          "gid": 19,
          "x": 1068.0,
          "y": 1248.0,
          "width": 32.0,
          "height": 32.0,
          "rotation": -0.0,
          "visible": true
        },
        {
          "id": 199,
          "name": "",
          "type": "obj_angleallower",
          "gid": 19,
          "x": 1460.0,
          "y": 1248.0,
          "width": 32.0,
          "height": 32.0,
          "rotation": -0.0,
          "visible": true
        },
        {
          "id": 200,
          "name": "",
          "type": "obj_angleallower",
          "gid": 19,
          "x": 876.0,
          "y": 800.0,
          "width": 32.0,
          "height": 32.0,
          "rotation": -0.0,
          "visible": true
        },
        {
          "id": 201,
          "name": "",
          "type": "obj_angleallower",
          "gid": 19,
          "x": 2728.0,
          "y": 928.0,
          "width": 32.0,
          "height": 32.0,
          "rotation": -0.0,
          "visible": true
        },
        {
          "id": 202,
          "name": "",
          "type": "obj_angleallower",
          "gid": 19,
          "x": 2936.0,
          "y": 928.0,
          "width": 32.0,
          "height": 32.0,
          "rotation": -0.0,
          "visible": true
        },
        {
          "id": 203,
          "name": "",
          "type": "obj_spike_r",
          "gid": 2147483909,
          "x": 2432.0,
          "y": 688.0,
          "width": 32.0,
          "height": 32.0,
          "rotation": -0.0,
          "visible": true
        },
        {
          "id": 204,
          "name": "",
          "type": "obj_spike_r",
          "gid": 2147483909,
          "x": 2432.0,
          "y": 720.0,
          "width": 32.0,
          "height": 32.0,
          "rotation": -0.0,
          "visible": true
        },
        {
          "id": 205,
          "name": "",
          "type": "obj_solid_block",
          "gid": 255,
          "x": 2431.0,
          "y": 688.0,
          "width": 30.99999616,
          "height": 64.0,
          "rotation": -0.0,
          "visible": true
        },
        {
          "id": 206,
          "name": "",
          "type": "obj_damage",
          "gid": 49,
          "x": 2431.0,
          "y": 688.0,
          "width": 32.0,
          "height": 64.0,
          "rotation": -0.0,
          "visible": true
        },
        {
          "id": 207,
          "name": "",
          "type": "obj_angleallower",
          "gid": 19,
          "x": 3892.0,
          "y": 1248.0,
          "width": 32.0,
          "height": 32.0,
          "rotation": -0.0,
          "visible": true
        },
        {
          "id": 208,
          "name": "",
          "type": "obj_solid_block",
          "gid": 255,
          "x": 768.0,
          "y": 1224.0,
          "width": 141.0,
          "height": 56.0,
          "rotation": -0.0,
          "visible": true
        },
        {
          "id": 209,
          "name": "",
          "type": "obj_solid_block",
          "gid": 255,
          "x": 768.0,
          "y": 1200.0,
          "width": 93.0,
          "height": 24.0,
          "rotation": -0.0,
          "visible": true
        },
        {
          "id": 210,
          "name": "",
          "type": "obj_solid_block",
          "gid": 255,
          "x": 908.0,
          "y": 1264.0,
          "width": 84.0,
          "height": 16.0,
          "rotation": -0.0,
          "visible": true
        },
        {
          "id": 211,
          "name": "",
          "type": "obj_solid_block",
          "gid": 255,
          "x": 768.0,
          "y": 1184.0,
          "width": 64.0,
          "height": 16.0,
          "rotation": -0.0,
          "visible": true
        },
        {
          "id": 212,
          "name": "",
          "type": "obj_solid_block",
          "gid": 255,
          "x": 1783.0,
          "y": 628.0,
          "width": 137.0,
          "height": 60.0,
          "rotation": -0.0,
          "visible": true
        },
        {
          "id": 213,
          "name": "",
          "type": "obj_solid_block",
          "gid": 255,
          "x": 1848.0,
          "y": 596.0,
          "width": 73.0,
          "height": 32.0,
          "rotation": -0.0,
          "visible": true
        },
        {
          "id": 214,
          "name": "",
          "type": "obj_solid_block",
          "gid": 255,
          "x": 1720.0,
          "y": 660.0,
          "width": 64.0,
          "height": 28.0,
          "rotation": -0.0,
          "visible": true
        },
        {
          "id": 215,
          "name": "",
          "type": "obj_solid_block",
          "gid": 255,
          "x": 2587.0,
          "y": 1028.0,
          "width": 137.0,
          "height": 60.0,
          "rotation": -0.0,
          "visible": true
        },
        {
          "id": 216,
          "name": "",
          "type": "obj_solid_block",
          "gid": 255,
          "x": 2652.0,
          "y": 996.0,
          "width": 73.0,
          "height": 32.0,
          "rotation": -0.0,
          "visible": true
        },
        {
          "id": 217,
          "name": "",
          "type": "obj_solid_block",
          "gid": 255,
          "x": 2524.0,
          "y": 1060.0,
          "width": 64.0,
          "height": 28.0,
          "rotation": -0.0,
          "visible": true
        },
        {
          "id": 218,
          "name": "",
          "type": "obj_solid_block",
          "gid": 255,
          "x": 2752.0,
          "y": 1060.0,
          "width": 196.0,
          "height": 28.0,
          "rotation": -0.0,
          "visible": true
        },
        {
          "id": 219,
          "name": "",
          "type": "obj_solid_block2",
          "gid": 256,
          "x": -44.0,
          "y": 0.0,
          "width": 44.0,
          "height": 1060.0,
          "rotation": -0.0,
          "visible": true
        }
      ],
      "properties": [
        {
          "name": "depth",
          "type": "int",
          "value": 0
        }
      ]
    }
  ]
}