{
  "type": "map",
  "version": "1.10",
  "orientation": "orthogonal",
  "renderorder": "right-down",
  "infinite": false,
  "width": 880,
  "height": 348,
  "tilewidth": 4,
  "tileheight": 4,
  "nextlayerid": 7,
  "nextobjectid": 163,
  "properties": [
    {
      "name": "persistent",
      "type": "bool",
      "value": false
    },
    {
      "name": "views_enabled",
      "type": "bool",
      "value": true
    },
    {
      "name": "clear_view_background",
      "type": "bool",
      "value": false
    },
    {
      "name": "view_visible",
      "type": "bool",
      "value": true
    },
    {
      "name": "view_x",
      "type": "int",
      "value": 0
    },
    {
      "name": "view_y",
      "type": "int",
      "value": 0
    },
    {
      "name": "view_width",
      "type": "int",
      "value": 480
    },
    {
      "name": "view_height",
      "type": "int",
      "value": 270
    },
    {
      "name": "port_x",
      "type": "int",
      "value": 0
    },
    {
      "name": "port_y",
      "type": "int",
      "value": 0
    },
    {
      "name": "port_width",
      "type": "int",
      "value": 480
    },
    {
      "name": "port_height",
      "type": "int",
      "value": 270
    }
  ],
  "tilesets": [
    {
      "firstgid": 1,
      "source": "Tilesets/objects.tsj"
    },
    {
      "firstgid": 10000,
      "source": "Tilesets/sprites.tsj"
    }
  ],
  "layers": [
    {
      "type": "imagelayer",
      "id": 1,
      "name": "Background",
      "image": "",
      "imagewidth": 0,
      "imageheight": 0,
      "repeatx": false,
      "repeaty": false,
      "offsetx": 0.0,
      "offsety": 0.0,
      "opacity": 1.0,
      "visible": true,
      "tintcolor": "#ff000000",
      "x": 0,
      "y": 0,
      "properties": [
        {
          "name": "depth",
          "type": "int",
          "value": 400
        }
      ]
    },
    {
      "type": "imagelayer",
      "id": 2,
      "name": "Background1",
      "image": "../Textures/Zones/LimpCity/limpcity3.apng",
      "imagewidth": 480,
      "imageheight": 189,
      "repeatx": false,
      "repeaty": false,
      "offsetx": 0.0,
      "offsety": 0.0,
      "parallaxx": 0.0,
      "parallaxy": 0.0,
      "opacity": 1.0,
      "visible": true,
      "x": 0,
      "y": 0,
      "properties": [
        {
          "name": "depth",
          "type": "int",
          "value": 300
        }
      ]
    },
    {
      "type": "imagelayer",
      "id": 3,
      "name": "Background2",
      "image": "../Textures/Zones/LimpCity/limpcity.png",
      "imagewidth": 351,
      "imageheight": 297,
      "repeatx": true,
      "repeaty": false,
      "offsetx": 0.0,
      "offsety": 64.0,
      "parallaxx": 0.3,
      "parallaxy": 0.0,
      "opacity": 1.0,
      "visible": true,
      "x": 0,
      "y": 0,
      "properties": [
        {
          "name": "depth",
          "type": "int",
          "value": 200
        }
      ]
    },
    {
      "type": "imagelayer",
      "id": 4,
      "name": "Background3",
      "image": "../Textures/Zones/LimpCity/limpcity2.png",
      "imagewidth": 256,
      "imageheight": 82,
      "repeatx": true,
      "repeaty": false,
      "offsetx": 0.0,
      "offsety": 185.0,
      "parallaxx": 0.5,
      "parallaxy": 0.0,
      "opacity": 1.0,
      "visible": true,
      "x": 0,
      "y": 0,
      "properties": [
        {
          "name": "depth",
          "type": "int",
          "value": 100
        }
      ]
    },
    {
      "type": "objectgroup",
      "id": 6,
      "name": "LevelArt limpcity_tiles",
      "draworder": "index",
      "opacity": 1.0,
      "visible": true,
      "x": 0,
      "y": 0,
      "objects": [
        {
          "id": 161,
          "name": "",
          "type": "",
          "gid": 10515,
          "x": 0.0,
          "y": 0.0,
          "width": 1760.0,
          "height": 1392.0,
          "rotation": -0.0,
          "visible": true,
          "properties": [
            {
              "name": "animation_speed",
              "type": "float",
              "value": 0.0
            }
          ]
        },
        {
          "id": 162,
          "name": "",
          "type": "",
          "gid": 10515,
          "x": 1760.0,
          "y": 0.0,
          "width": 1760.0,
          "height": 1392.0,
          "rotation": -0.0,
          "visible": true,
          "properties": [
            {
              "name": "animation_speed",
              "type": "float",
              "value": 0.0
            },
            {
              "name": "frame",
              "type": "float",
              "value": 1.0
            }
          ]
        }
      ],
      "properties": [
        {
          "name": "depth",
          "type": "int",
          "value": 90
        },
        {
          "name": "asset_layer",
          "type": "bool",
          "value": true
        }
      ]
    },
    {
      "type": "objectgroup",
      "id": 5,
      "name": "Instances",
      "draworder": "index",
      "opacity": 1.0,
      "visible": true,
      "x": 0,
      "y": 0,
      "objects": [
        {
          "id": 1,
          "name": "",
          "type": "obj_solid_block",
          "gid": 255,
          "x": 48.0,
          "y": 440.0,
          "width": 144.0,
          "height": 128.0,
          "rotation": -0.0,
          "visible": true
        },
        {
          "id": 2,
          "name": "",
          "type": "obj_solid_block",
          "gid": 255,
          "x": 320.0,
          "y": 376.0,
          "width": 144.0,
          "height": 192.0,
          "rotation": -0.0,
          "visible": true
        },
        {
          "id": 3,
          "name": "",
          "type": "obj_solid_block",
          "gid": 255,
          "x": 592.0,
          "y": 440.0,
          "width": 144.0,
          "height": 100.0,
          "rotation": -0.0,
          "visible": true
        },
        {
          "id": 4,
          "name": "",
          "type": "obj_solid_block",
          "gid": 255,
          "x": 736.0,
          "y": 376.0,
          "width": 208.0,
          "height": 164.0,
          "rotation": -0.0,
          "visible": true
        },
        {
          "id": 5,
          "name": "",
          "type": "obj_solid_block",
          "gid": 255,
          "x": 944.0,
          "y": 440.0,
          "width": 66.0,
          "height": 100.0,
          "rotation": -0.0,
          "visible": true
        },
        {
          "id": 6,
          "name": "",
          "type": "obj_solid_block",
          "gid": 255,
          "x": 1136.0,
          "y": 504.0,
          "width": 144.0,
          "height": 64.0,
          "rotation": -0.0,
          "visible": true
        },
        {
          "id": 7,
          "name": "",
          "type": "obj_solid_block",
          "gid": 255,
          "x": 1728.0,
          "y": 376.0,
          "width": 196.0,
          "height": 164.0,
          "rotation": -0.0,
          "visible": true
        },
        {
          "id": 8,
          "name": "",
          "type": "obj_solid_block",
          "gid": 255,
          "x": 1408.0,
          "y": 504.0,
          "width": 1088.0,
          "height": 64.0,
          "rotation": -0.0,
          "visible": true
        },
        {
          "id": 9,
          "name": "",
          "type": "obj_solid_block",
          "gid": 255,
          "x": 2568.0,
          "y": 528.0,
          "width": 208.0,
          "height": 64.0,
          "rotation": -0.0,
          "visible": true
        },
        {
          "id": 10,
          "name": "",
          "type": "obj_solid_block",
          "gid": 255,
          "x": 2912.0,
          "y": 528.0,
          "width": 208.0,
          "height": 64.0,
          "rotation": -0.0,
          "visible": true
        },
        {
          "id": 11,
          "name": "",
          "type": "obj_solid_block",
          "gid": 255,
          "x": 3096.0,
          "y": 704.0,
          "width": 208.0,
          "height": 128.0,
          "rotation": -0.0,
          "visible": true
        },
        {
          "id": 12,
          "name": "",
          "type": "obj_solid_block",
          "gid": 255,
          "x": 3392.0,
          "y": 768.0,
          "width": 128.0,
          "height": 256.0,
          "rotation": -0.0,
          "visible": true
        },
        {
          "id": 13,
          "name": "",
          "type": "obj_solid_block",
          "gid": 255,
          "x": 3260.0,
          "y": 1024.0,
          "width": 260.0,
          "height": 368.0,
          "rotation": -0.0,
          "visible": true
        },
        {
          "id": 14,
          "name": "",
          "type": "obj_solid_block",
          "gid": 255,
          "x": 2944.0,
          "y": 1088.0,
          "width": 316.0,
          "height": 304.0,
          "rotation": -0.0,
          "visible": true
        },
        {
          "id": 15,
          "name": "",
          "type": "obj_solid_block",
          "gid": 255,
          "x": 1156.0,
          "y": 1152.0,
          "width": 1788.0,
          "height": 240.0,
          "rotation": -0.0,
          "visible": true
        },
        {
          "id": 16,
          "name": "",
          "type": "obj_solid_block",
          "gid": 255,
          "x": 1024.0,
          "y": 960.0,
          "width": 132.0,
          "height": 320.0,
          "rotation": -0.0,
          "visible": true
        },
        {
          "id": 17,
          "name": "",
          "type": "obj_solid_block",
          "gid": 255,
          "x": 256.0,
          "y": 1280.0,
          "width": 900.0,
          "height": 112.0,
          "rotation": -0.0,
          "visible": true
        },
        {
          "id": 18,
          "name": "",
          "type": "obj_solid_block",
          "gid": 255,
          "x": 0.0,
          "y": 832.0,
          "width": 256.0,
          "height": 560.0,
          "rotation": -0.0,
          "visible": true
        },
        {
          "id": 19,
          "name": "",
          "type": "obj_solid_block",
          "gid": 255,
          "x": 360.0,
          "y": 832.0,
          "width": 256.0,
          "height": 256.0,
          "rotation": -0.0,
          "visible": true
        },
        {
          "id": 20,
          "name": "",
          "type": "obj_solid_block",
          "gid": 255,
          "x": 872.0,
          "y": 960.0,
          "width": 64.0,
          "height": 128.0,
          "rotation": -0.0,
          "visible": true
        },
        {
          "id": 21,
          "name": "",
          "type": "obj_solid_block",
          "gid": 255,
          "x": 736.0,
          "y": 760.0,
          "width": 256.0,
          "height": 64.0,
          "rotation": -0.0,
          "visible": true
        },
        {
          "id": 22,
          "name": "",
          "type": "obj_solid_block",
          "gid": 255,
          "x": 1088.0,
          "y": 776.0,
          "width": 320.0,
          "height": 64.0,
          "rotation": -0.0,
          "visible": true
        },
        {
          "id": 23,
          "name": "",
          "type": "obj_solid_block",
          "gid": 255,
          "x": 1280.0,
          "y": 712.0,
          "width": 128.0,
          "height": 64.0,
          "rotation": -0.0,
          "visible": true
        },
        {
          "id": 24,
          "name": "",
          "type": "obj_solid_block",
          "gid": 255,
          "x": 1896.0,
          "y": 872.0,
          "width": 600.0,
          "height": 64.0,
          "rotation": -0.0,
          "visible": true
        },
        {
          "id": 25,
          "name": "",
          "type": "obj_solid_block",
          "gid": 255,
          "x": 2024.0,
          "y": 936.0,
          "width": 576.0,
          "height": 128.0,
          "rotation": -0.0,
          "visible": true
        },
        {
          "id": 26,
          "name": "",
          "type": "obj_solid_block",
          "gid": 255,
          "x": 2536.0,
          "y": 744.0,
          "width": 464.0,
          "height": 128.0,
          "rotation": -0.0,
          "visible": true
        },
        {
          "id": 27,
          "name": "",
          "type": "obj_solid_block",
          "gid": 255,
          "x": 2496.0,
          "y": 756.0,
          "width": 40.0,
          "height": 180.0,
          "rotation": -0.0,
          "visible": true
        },
        {
          "id": 28,
          "name": "",
          "type": "obj_solid_block",
          "gid": 255,
          "x": 1032.0,
          "y": 312.0,
          "width": 512.0,
          "height": 64.0,
          "rotation": -0.0,
          "visible": true
        },
        {
          "id": 29,
          "name": "",
          "type": "obj_solid_block",
          "gid": 255,
          "x": 616.0,
          "y": 832.0,
          "width": 288.0,
          "height": 64.0,
          "rotation": 26.5,
          "visible": true
        },
        {
          "id": 30,
          "name": "",
          "type": "obj_solid_block",
          "gid": 255,
          "x": 464.0,
          "y": 376.0,
          "width": 148.0,
          "height": 64.0,
          "rotation": 26.5,
          "visible": true
        },
        {
          "id": 31,
          "name": "",
          "type": "obj_solid_block",
          "gid": 255,
          "x": 188.0,
          "y": 442.0,
          "width": 148.0,
          "height": 64.0,
          "rotation": 333.5,
          "visible": true
        },
        {
          "id": 32,
          "name": "",
          "type": "obj_solid_block",
          "gid": 255,
          "x": 1010.0,
          "y": 440.0,
          "width": 148.0,
          "height": 64.0,
          "rotation": 26.5,
          "visible": true
        },
        {
          "id": 33,
          "name": "",
          "type": "obj_solid_block",
          "gid": 255,
          "x": 1924.0,
          "y": 376.0,
          "width": 534.0,
          "height": 64.0,
          "rotation": 14.125877,
          "visible": true
        },
        {
          "id": 34,
          "name": "",
          "type": "obj_solid_block",
          "gid": 255,
          "x": 2023.0,
          "y": 872.0,
          "width": 532.0,
          "height": 64.0,
          "rotation": 346.0,
          "visible": true
        },
        {
          "id": 35,
          "name": "",
          "type": "obj_solid_block",
          "gid": 255,
          "x": 1156.0,
          "y": 960.0,
          "width": 790.0,
          "height": 64.0,
          "rotation": 14.125877,
          "visible": true
        },
        {
          "id": 36,
          "name": "",
          "type": "obj_solid_block",
          "gid": 255,
          "x": 1471.0,
          "y": 504.0,
          "width": 288.0,
          "height": 64.0,
          "rotation": 333.5,
          "visible": true
        },
        {
          "id": 37,
          "name": "",
          "type": "obj_solid_block",
          "gid": 255,
          "x": 592.0,
          "y": 540.0,
          "width": 543.999936,
          "height": 28.0,
          "rotation": -0.0,
          "visible": true
        },
        {
          "id": 38,
          "name": "",
          "type": "obj_solid_block",
          "gid": 255,
          "x": 616.0,
          "y": 960.0,
          "width": 256.0,
          "height": 128.0,
          "rotation": -0.0,
          "visible": true
        },
        {
          "id": 39,
          "name": "",
          "type": "obj_solid_block",
          "gid": 255,
          "x": 3008.0,
          "y": 1088.0,
          "width": 264.0,
          "height": 64.0,
          "rotation": 346.0,
          "visible": true
        },
        {
          "id": 40,
          "name": "",
          "type": "obj_limpcity_eyeA",
          "gid": 127,
          "x": 1282.0,
          "y": 270.0,
          "width": 28.0,
          "height": 28.0,
          "rotation": -0.0,
          "visible": true,
          "properties": [
            {
              "name": "tid",
              "type": "int",
              "value": 0
            },
            {
              "name": "nid",
              "type": "int",
              "value": 0
            },
            {
              "name": "target1",
              "type": "int",
              "value": 1
            },
            {
              "name": "target2",
              "type": "int",
              "value": 2
            }
          ]
        },
        {
          "id": 41,
          "name": "",
          "type": "obj_limpcity_eyeB",
          "gid": 128,
          "x": 1182.0,
          "y": 636.0,
          "width": 28.0,
          "height": 28.0,
          "rotation": -0.0,
          "visible": true,
          "properties": [
            {
              "name": "tid",
              "type": "int",
              "value": 3
            },
            {
              "name": "nid",
              "type": "int",
              "value": 1
            }
          ]
        },
        {
          "id": 42,
          "name": "",
          "type": "obj_limpcity_eyeB",
          "gid": 128,
          "x": 2430.0,
          "y": 454.0,
          "width": 28.0,
          "height": 28.0,
          "rotation": -0.0,
          "visible": true,
          "properties": [
            {
              "name": "tid",
              "type": "int",
              "value": 5
            },
            {
              "name": "nid",
              "type": "int",
              "value": 2
            }
          ]
        },
        {
          "id": 43,
          "name": "",
          "type": "obj_limpcity_eyeB",
          "gid": 128,
          "x": 2986.0,
          "y": 662.0,
          "width": 28.0,
          "height": 28.0,
          "rotation": -0.0,
          "visible": true,
          "properties": [
            {
              "name": "tid",
              "type": "int",
              "value": 11
            },
            {
              "name": "nid",
              "type": "int",
              "value": 3
            }
          ]
        },
        {
          "id": 44,
          "name": "",
          "type": "obj_limpcity_eyeA",
          "gid": 127,
          "x": 2550.0,
          "y": 898.0,
          "width": 28.0,
          "height": 28.0,
          "rotation": -0.0,
          "visible": true,
          "properties": [
            {
              "name": "tid",
              "type": "int",
              "value": 8
            },
            {
              "name": "nid",
              "type": "int",
              "value": 1
            },
            {
              "name": "target1",
              "type": "int",
              "value": 4
            },
            {
              "name": "target2",
              "type": "int",
              "value": 3
            }
          ]
        },
        {
          "id": 45,
          "name": "",
          "type": "obj_limpcity_eyeB",
          "gid": 128,
          "x": 2268.0,
          "y": 1093.0,
          "width": 28.0,
          "height": 28.0,
          "rotation": -0.0,
          "visible": true,
          "properties": [
            {
              "name": "tid",
              "type": "int",
              "value": 7
            },
            {
              "name": "nid",
              "type": "int",
              "value": 4
            }
          ]
        },
        {
          "id": 46,
          "name": "",
          "type": "obj_limpcity_eyechain",
          "gid": 129,
          "x": 1197.0,
          "y": 608.0,
          "width": 12.0,
          "height": 31.0,
          "rotation": -0.0,
          "visible": true,
          "properties": [
            {
              "name": "sid",
              "type": "int",
              "value": 3
            },
            {
              "name": "tid",
              "type": "int",
              "value": 2
            },
            {
              "name": "range",
              "type": "float",
              "value": 1.5
            }
          ]
        },
        {
          "id": 47,
          "name": "",
          "type": "obj_limpcity_eyechain",
          "gid": 129,
          "x": 1205.0,
          "y": 580.0,
          "width": 12.0,
          "height": 31.0,
          "rotation": -0.0,
          "visible": true,
          "properties": [
            {
              "name": "sid",
              "type": "int",
              "value": 2
            },
            {
              "name": "tid",
              "type": "int",
              "value": 1
            },
            {
              "name": "range",
              "type": "int",
              "value": 1
            }
          ]
        },
        {
          "id": 48,
          "name": "",
          "type": "obj_limpcity_eyechain",
          "gid": 129,
          "x": 1213.0,
          "y": 552.0,
          "width": 12.0,
          "height": 31.0,
          "rotation": -0.0,
          "visible": true,
          "properties": [
            {
              "name": "sid",
              "type": "int",
              "value": 1
            },
            {
              "name": "range",
              "type": "float",
              "value": 0.5
            }
          ]
        },
        {
          "id": 49,
          "name": "",
          "type": "obj_limpcity_eyechain",
          "gid": 129,
          "x": 2287.0,
          "y": 1068.0,
          "width": 12.0,
          "height": 31.0,
          "rotation": -0.0,
          "visible": true,
          "properties": [
            {
              "name": "sid",
              "type": "int",
              "value": 7
            },
            {
              "name": "tid",
              "type": "int",
              "value": 6
            },
            {
              "name": "range",
              "type": "int",
              "value": 1
            }
          ]
        },
        {
          "id": 50,
          "name": "",
          "type": "obj_limpcity_eyechain",
          "gid": 129,
          "x": 2295.0,
          "y": 1040.0,
          "width": 12.0,
          "height": 31.0,
          "rotation": -0.0,
          "visible": true,
          "properties": [
            {
              "name": "sid",
              "type": "int",
              "value": 6
            },
            {
              "name": "range",
              "type": "float",
              "value": 0.5
            }
          ]
        },
        {
          "id": 51,
          "name": "",
          "type": "obj_limpcity_eyechain",
          "gid": 129,
          "x": 2997.0,
          "y": 636.0,
          "width": 12.0,
          "height": 31.0,
          "rotation": -0.0,
          "visible": true,
          "properties": [
            {
              "name": "sid",
              "type": "int",
              "value": 11
            },
            {
              "name": "tid",
              "type": "int",
              "value": 10
            },
            {
              "name": "range",
              "type": "float",
              "value": 1.5
            }
          ]
        },
        {
          "id": 52,
          "name": "",
          "type": "obj_limpcity_eyechain",
          "gid": 129,
          "x": 3005.0,
          "y": 608.0,
          "width": 12.0,
          "height": 31.0,
          "rotation": -0.0,
          "visible": true,
          "properties": [
            {
              "name": "sid",
              "type": "int",
              "value": 10
            },
            {
              "name": "tid",
              "type": "int",
              "value": 9
            },
            {
              "name": "range",
              "type": "int",
              "value": 1
            }
          ]
        },
        {
          "id": 53,
          "name": "",
          "type": "obj_limpcity_eyechain",
          "gid": 129,
          "x": 3013.0,
          "y": 580.0,
          "width": 12.0,
          "height": 31.0,
          "rotation": -0.0,
          "visible": true,
          "properties": [
            {
              "name": "sid",
              "type": "int",
              "value": 9
            },
            {
              "name": "range",
              "type": "float",
              "value": 0.5
            }
          ]
        },
        {
          "id": 54,
          "name": "",
          "type": "obj_spawnpoint",
          "gid": 259,
          "x": 831.0,
          "y": 344.0,
          "width": 32.0,
          "height": 32.0,
          "rotation": -0.0,
          "visible": true
        },
        {
          "id": 55,
          "name": "",
          "type": "obj_limpcity_eyechain2",
          "gid": 130,
          "x": 1299.0,
          "y": 328.0,
          "width": 12.0,
          "height": 31.0,
          "rotation": 180.0,
          "visible": true,
          "properties": [
            {
              "name": "range",
              "type": "int",
              "value": 1
            },
            {
              "name": "sid",
              "type": "int",
              "value": 0
            }
          ]
        },
        {
          "id": 56,
          "name": "",
          "type": "obj_limpcity_eyechain2",
          "gid": 130,
          "x": 2443.0,
          "y": 508.0,
          "width": 12.0,
          "height": 31.0,
          "rotation": 180.0,
          "visible": true,
          "properties": [
            {
              "name": "sid",
              "type": "int",
              "value": 5
            },
            {
              "name": "range",
              "type": "float",
              "value": 0.5
            }
          ]
        },
        {
          "id": 57,
          "name": "",
          "type": "obj_limpcity_eyechain2",
          "gid": 130,
          "x": 2567.0,
          "y": 952.0,
          "width": 12.0,
          "height": 31.0,
          "rotation": 180.0,
          "visible": true,
          "properties": [
            {
              "name": "sid",
              "type": "int",
              "value": 8
            },
            {
              "name": "range",
              "type": "int",
              "value": 1
            }
          ]
        },
        {
          "id": 58,
          "name": "",
          "type": "obj_limpcity_echain1",
          "gid": 125,
          "x": -28.0,
          "y": 464.0,
          "width": 128.0,
          "height": 16.0,
          "rotation": -0.0,
          "visible": true
        },
        {
          "id": 59,
          "name": "",
          "type": "obj_limpcity_echain2",
          "gid": 126,
          "x": 680.0,
          "y": 568.0,
          "width": 16.0,
          "height": 128.0,
          "rotation": -0.0,
          "visible": true
        },
        {
          "id": 60,
          "name": "",
          "type": "obj_limpcity_echain2",
          "gid": 126,
          "x": 680.0,
          "y": 696.0,
          "width": 16.0,
          "height": 128.0,
          "rotation": -0.0,
          "visible": true
        },
        {
          "id": 61,
          "name": "",
          "type": "obj_limpcity_echain2",
          "gid": 126,
          "x": 1032.0,
          "y": 568.0,
          "width": 16.0,
          "height": 128.0,
          "rotation": -0.0,
          "visible": true
        },
        {
          "id": 62,
          "name": "",
          "type": "obj_limpcity_echain2",
          "gid": 126,
          "x": 1032.0,
          "y": 696.0,
          "width": 16.0,
          "height": 128.0,
          "rotation": -0.0,
          "visible": true
        },
        {
          "id": 63,
          "name": "",
          "type": "obj_limpcity_echain1",
          "gid": 125,
          "x": 1280.0,
          "y": 528.0,
          "width": 128.0,
          "height": 16.0,
          "rotation": -0.0,
          "visible": true
        },
        {
          "id": 64,
          "name": "",
          "type": "obj_limpcity_echain2",
          "gid": 126,
          "x": 1040.0,
          "y": 184.0,
          "width": 16.0,
          "height": 128.0,
          "rotation": -0.0,
          "visible": true
        },
        {
          "id": 65,
          "name": "",
          "type": "obj_limpcity_echain2",
          "gid": 126,
          "x": 1040.0,
          "y": 56.0,
          "width": 16.0,
          "height": 128.0,
          "rotation": -0.0,
          "visible": true
        },
        {
          "id": 66,
          "name": "",
          "type": "obj_limpcity_echain2",
          "gid": 126,
          "x": 1040.0,
          "y": -72.0,
          "width": 16.0,
          "height": 128.0,
          "rotation": -0.0,
          "visible": true
        },
        {
          "id": 67,
          "name": "",
          "type": "obj_limpcity_echain2",
          "gid": 126,
          "x": 1520.0,
          "y": 184.0,
          "width": 16.0,
          "height": 128.0,
          "rotation": -0.0,
          "visible": true
        },
        {
          "id": 68,
          "name": "",
          "type": "obj_limpcity_echain2",
          "gid": 126,
          "x": 1520.0,
          "y": 56.0,
          "width": 16.0,
          "height": 128.0,
          "rotation": -0.0,
          "visible": true
        },
        {
          "id": 69,
          "name": "",
          "type": "obj_limpcity_echain2",
          "gid": 126,
          "x": 1520.0,
          "y": -72.0,
          "width": 16.0,
          "height": 128.0,
          "rotation": -0.0,
          "visible": true
        },
        {
          "id": 70,
          "name": "",
          "type": "obj_limpcity_echain2",
          "gid": 126,
          "x": 2524.0,
          "y": 340.0,
          "width": 16.0,
          "height": 128.0,
          "rotation": -0.0,
          "visible": true
        },
        {
          "id": 71,
          "name": "",
          "type": "obj_limpcity_echain2",
          "gid": 126,
          "x": 2524.0,
          "y": 468.0,
          "width": 16.0,
          "height": 128.0,
          "rotation": -0.0,
          "visible": true
        },
        {
          "id": 72,
          "name": "",
          "type": "obj_limpcity_echain2",
          "gid": 126,
          "x": 3136.0,
          "y": 336.0,
          "width": 16.0,
          "height": 128.0,
          "rotation": -0.0,
          "visible": true
        },
        {
          "id": 73,
          "name": "",
          "type": "obj_limpcity_echain2",
          "gid": 126,
          "x": 3136.0,
          "y": 464.0,
          "width": 16.0,
          "height": 128.0,
          "rotation": -0.0,
          "visible": true
        },
        {
          "id": 74,
          "name": "",
          "type": "obj_limpcity_echain2",
          "gid": 126,
          "x": 2556.0,
          "y": 1044.0,
          "width": 16.0,
          "height": 128.0,
          "rotation": -0.0,
          "visible": true
        },
        {
          "id": 75,
          "name": "",
          "type": "obj_limpcity_echain2",
          "gid": 126,
          "x": 2052.0,
          "y": 1044.0,
          "width": 16.0,
          "height": 128.0,
          "rotation": -0.0,
          "visible": true
        },
        {
          "id": 76,
          "name": "",
          "type": "obj_spring_left",
          "gid": 262,
          "x": 2900.0,
          "y": 1108.0,
          "width": 44.0,
          "height": 44.0,
          "rotation": -0.0,
          "visible": true
        },
        {
          "id": 77,
          "name": "",
          "type": "obj_yspring_up",
          "gid": 299,
          "x": 2828.0,
          "y": 712.0,
          "width": 32.0,
          "height": 32.0,
          "rotation": -0.0,
          "visible": true
        },
        {
          "id": 78,
          "name": "",
          "type": "obj_spring_up",
          "gid": 265,
          "x": 3360.0,
          "y": 992.0,
          "width": 32.0,
          "height": 32.0,
          "rotation": -0.0,
          "visible": true
        },
        {
          "id": 79,
          "name": "",
          "type": "obj_yspring_up",
          "gid": 299,
          "x": 1328.0,
          "y": 680.0,
          "width": 32.0,
          "height": 32.0,
          "rotation": -0.0,
          "visible": true
        },
        {
          "id": 80,
          "name": "",
          "type": "obj_spring_up",
          "gid": 265,
          "x": 988.0,
          "y": 1248.0,
          "width": 32.0,
          "height": 32.0,
          "rotation": -0.0,
          "visible": true
        },
        {
          "id": 81,
          "name": "",
          "type": "obj_exespawn",
          "gid": 85,
          "x": 2963.0,
          "y": 1056.0,
          "width": 32.0,
          "height": 32.0,
          "rotation": -0.0,
          "visible": true
        },
        {
          "id": 82,
          "name": "",
          "type": "obj_spawnpoint",
          "gid": 259,
          "x": 463.0,
          "y": 800.0,
          "width": 32.0,
          "height": 32.0,
          "rotation": -0.0,
          "visible": true
        },
        {
          "id": 83,
          "name": "",
          "type": "obj_exespawn",
          "gid": 85,
          "x": 543.0,
          "y": 1248.0,
          "width": 32.0,
          "height": 32.0,
          "rotation": -0.0,
          "visible": true
        },
        {
          "id": 84,
          "name": "",
          "type": "obj_exespawn",
          "gid": 85,
          "x": 2667.0,
          "y": 496.0,
          "width": 32.0,
          "height": 32.0,
          "rotation": -0.0,
          "visible": true
        },
        {
          "id": 85,
          "name": "",
          "type": "obj_spawnpoint",
          "gid": 259,
          "x": 1939.0,
          "y": 840.0,
          "width": 32.0,
          "height": 32.0,
          "rotation": -0.0,
          "visible": true
        },
        {
          "id": 86,
          "name": "",
          "type": "obj_exespawn",
          "gid": 85,
          "x": 3487.0,
          "y": 736.0,
          "width": 32.0,
          "height": 32.0,
          "rotation": -0.0,
          "visible": true
        },
        {
          "id": 87,
          "name": "",
          "type": "obj_spawnpoint",
          "gid": 259,
          "x": 151.0,
          "y": 408.0,
          "width": 32.0,
          "height": 32.0,
          "rotation": -0.0,
          "visible": true
        },
        {
          "id": 88,
          "name": "",
          "type": "obj_soundemitter",
          "gid": 258,
          "x": 7.0,
          "y": 456.0,
          "width": 32.0,
          "height": 32.0,
          "rotation": -0.0,
          "visible": true,
          "properties": [
            {
              "name": "stype",
              "type": "float",
              "value": 1.0
            }
          ]
        },
        {
          "id": 89,
          "name": "",
          "type": "obj_soundemitter",
          "gid": 258,
          "x": 671.0,
          "y": 672.0,
          "width": 32.0,
          "height": 32.0,
          "rotation": -0.0,
          "visible": true,
          "properties": [
            {
              "name": "stype",
              "type": "float",
              "value": 1.0
            }
          ]
        },
        {
          "id": 90,
          "name": "",
          "type": "obj_soundemitter",
          "gid": 258,
          "x": 1027.0,
          "y": 672.0,
          "width": 32.0,
          "height": 32.0,
          "rotation": -0.0,
          "visible": true,
          "properties": [
            {
              "name": "stype",
              "type": "float",
              "value": 1.0
            }
          ]
        },
        {
          "id": 91,
          "name": "",
          "type": "obj_soundemitter",
          "gid": 258,
          "x": 1327.0,
          "y": 520.0,
          "width": 32.0,
          "height": 32.0,
          "rotation": -0.0,
          "visible": true,
          "properties": [
            {
              "name": "stype",
              "type": "float",
              "value": 1.0
            }
          ]
        },
        {
          "id": 92,
          "name": "",
          "type": "obj_soundemitter",
          "gid": 258,
          "x": 2043.0,
          "y": 1092.0,
          "width": 32.0,
          "height": 32.0,
          "rotation": -0.0,
          "visible": true,
          "properties": [
            {
              "name": "stype",
              "type": "float",
              "value": 1.0
            }
          ]
        },
        {
          "id": 93,
          "name": "",
          "type": "obj_soundemitter",
          "gid": 258,
          "x": 2547.0,
          "y": 1088.0,
          "width": 32.0,
          "height": 32.0,
          "rotation": -0.0,
          "visible": true,
          "properties": [
            {
              "name": "stype",
              "type": "float",
              "value": 1.0
            }
          ]
        },
        {
          "id": 94,
          "name": "",
          "type": "obj_soundemitter",
          "gid": 258,
          "x": 3127.0,
          "y": 444.0,
          "width": 32.0,
          "height": 32.0,
          "rotation": -0.0,
          "visible": true,
          "properties": [
            {
              "name": "stype",
              "type": "float",
              "value": 1.0
            }
          ]
        },
        {
          "id": 95,
          "name": "",
          "type": "obj_soundemitter",
          "gid": 258,
          "x": 2515.0,
          "y": 452.0,
          "width": 32.0,
          "height": 32.0,
          "rotation": -0.0,
          "visible": true,
          "properties": [
            {
              "name": "stype",
              "type": "float",
              "value": 1.0
            }
          ]
        },
        {
          "id": 96,
          "name": "",
          "type": "obj_ringspawn",
          "gid": 251,
          "x": 627.0,
          "y": 1144.0,
          "width": 32.0,
          "height": 32.0,
          "rotation": -0.0,
          "visible": true
        },
        {
          "id": 97,
          "name": "",
          "type": "obj_ringspawn",
          "gid": 251,
          "x": 851.0,
          "y": 648.0,
          "width": 32.0,
          "height": 32.0,
          "rotation": -0.0,
          "visible": true
        },
        {
          "id": 98,
          "name": "",
          "type": "obj_ringspawn",
          "gid": 251,
          "x": 2999.0,
          "y": 412.0,
          "width": 32.0,
          "height": 32.0,
          "rotation": -0.0,
          "visible": true
        },
        {
          "id": 99,
          "name": "",
          "type": "obj_ringspawn",
          "gid": 251,
          "x": 375.0,
          "y": 248.0,
          "width": 32.0,
          "height": 32.0,
          "rotation": -0.0,
          "visible": true
        },
        {
          "id": 100,
          "name": "",
          "type": "obj_ring_spawner",
          "gid": 249,
          "x": 1184.0,
          "y": 748.0,
          "width": 16.0,
          "height": 16.0,
          "rotation": -0.0,
          "visible": true
        },
        {
          "id": 101,
          "name": "",
          "type": "obj_ring_spawner",
          "gid": 249,
          "x": 1240.0,
          "y": 748.0,
          "width": 16.0,
          "height": 16.0,
          "rotation": -0.0,
          "visible": true
        },
        {
          "id": 102,
          "name": "",
          "type": "obj_ring_spawner",
          "gid": 249,
          "x": 828.0,
          "y": 732.0,
          "width": 16.0,
          "height": 16.0,
          "rotation": -0.0,
          "visible": true
        },
        {
          "id": 103,
          "name": "",
          "type": "obj_ring_spawner",
          "gid": 249,
          "x": 856.0,
          "y": 732.0,
          "width": 16.0,
          "height": 16.0,
          "rotation": -0.0,
          "visible": true
        },
        {
          "id": 104,
          "name": "",
          "type": "obj_ring_spawner",
          "gid": 249,
          "x": 884.0,
          "y": 732.0,
          "width": 16.0,
          "height": 16.0,
          "rotation": -0.0,
          "visible": true
        },
        {
          "id": 105,
          "name": "",
          "type": "obj_ring_spawner",
          "gid": 249,
          "x": 416.0,
          "y": 804.0,
          "width": 16.0,
          "height": 16.0,
          "rotation": -0.0,
          "visible": true
        },
        {
          "id": 106,
          "name": "",
          "type": "obj_ring_spawner",
          "gid": 249,
          "x": 520.0,
          "y": 804.0,
          "width": 16.0,
          "height": 16.0,
          "rotation": -0.0,
          "visible": true
        },
        {
          "id": 107,
          "name": "",
          "type": "obj_ring_spawner",
          "gid": 249,
          "x": 601.0,
          "y": 1252.0,
          "width": 16.0,
          "height": 16.0,
          "rotation": -0.0,
          "visible": true
        },
        {
          "id": 108,
          "name": "",
          "type": "obj_ring_spawner",
          "gid": 249,
          "x": 672.0,
          "y": 1252.0,
          "width": 16.0,
          "height": 16.0,
          "rotation": -0.0,
          "visible": true
        },
        {
          "id": 109,
          "name": "",
          "type": "obj_ring_spawner",
          "gid": 249,
          "x": 2560.0,
          "y": 716.0,
          "width": 16.0,
          "height": 16.0,
          "rotation": -0.0,
          "visible": true
        },
        {
          "id": 110,
          "name": "",
          "type": "obj_ring_spawner",
          "gid": 249,
          "x": 2624.0,
          "y": 716.0,
          "width": 16.0,
          "height": 16.0,
          "rotation": -0.0,
          "visible": true
        },
        {
          "id": 111,
          "name": "",
          "type": "obj_ring_spawner",
          "gid": 249,
          "x": 2976.0,
          "y": 496.0,
          "width": 16.0,
          "height": 16.0,
          "rotation": -0.0,
          "visible": true
        },
        {
          "id": 112,
          "name": "",
          "type": "obj_ring_spawner",
          "gid": 249,
          "x": 3008.0,
          "y": 496.0,
          "width": 16.0,
          "height": 16.0,
          "rotation": -0.0,
          "visible": true
        },
        {
          "id": 113,
          "name": "",
          "type": "obj_ring_spawner",
          "gid": 249,
          "x": 3040.0,
          "y": 496.0,
          "width": 16.0,
          "height": 16.0,
          "rotation": -0.0,
          "visible": true
        },
        {
          "id": 114,
          "name": "",
          "type": "obj_ring_spawner",
          "gid": 249,
          "x": 2712.0,
          "y": 1124.0,
          "width": 16.0,
          "height": 16.0,
          "rotation": -0.0,
          "visible": true
        },
        {
          "id": 115,
          "name": "",
          "type": "obj_ring_spawner",
          "gid": 249,
          "x": 2748.0,
          "y": 1124.0,
          "width": 16.0,
          "height": 16.0,
          "rotation": -0.0,
          "visible": true
        },
        {
          "id": 116,
          "name": "",
          "type": "obj_ring_spawner",
          "gid": 249,
          "x": 2784.0,
          "y": 1124.0,
          "width": 16.0,
          "height": 16.0,
          "rotation": -0.0,
          "visible": true
        },
        {
          "id": 117,
          "name": "",
          "type": "obj_ring_spawner",
          "gid": 249,
          "x": 1792.0,
          "y": 352.0,
          "width": 16.0,
          "height": 16.0,
          "rotation": -0.0,
          "visible": true
        },
        {
          "id": 118,
          "name": "",
          "type": "obj_ring_spawner",
          "gid": 249,
          "x": 1820.0,
          "y": 352.0,
          "width": 16.0,
          "height": 16.0,
          "rotation": -0.0,
          "visible": true
        },
        {
          "id": 119,
          "name": "",
          "type": "obj_ring_spawner",
          "gid": 249,
          "x": 1848.0,
          "y": 352.0,
          "width": 16.0,
          "height": 16.0,
          "rotation": -0.0,
          "visible": true
        },
        {
          "id": 120,
          "name": "",
          "type": "obj_ring_spawner",
          "gid": 249,
          "x": 92.0,
          "y": 804.0,
          "width": 16.0,
          "height": 16.0,
          "rotation": -0.0,
          "visible": true
        },
        {
          "id": 121,
          "name": "",
          "type": "obj_ring_spawner",
          "gid": 249,
          "x": 120.0,
          "y": 804.0,
          "width": 16.0,
          "height": 16.0,
          "rotation": -0.0,
          "visible": true
        },
        {
          "id": 122,
          "name": "",
          "type": "obj_ring_spawner",
          "gid": 249,
          "x": 148.0,
          "y": 804.0,
          "width": 16.0,
          "height": 16.0,
          "rotation": -0.0,
          "visible": true
        },
        {
          "id": 123,
          "name": "",
          "type": "obj_parallax",
          "gid": 211,
          "x": 0.0,
          "y": -16.0,
          "width": 16.0,
          "height": 16.0,
          "rotation": -0.0,
          "visible": true
        },
        {
          "id": 124,
          "name": "",
          "type": "obj_soundemitter",
          "gid": 258,
          "x": 1031.0,
          "y": 212.0,
          "width": 32.0,
          "height": 32.0,
          "rotation": -0.0,
          "visible": true,
          "properties": [
            {
              "name": "stype",
              "type": "float",
              "value": 1.0
            }
          ]
        },
        {
          "id": 125,
          "name": "",
          "type": "obj_soundemitter",
          "gid": 258,
          "x": 1511.0,
          "y": 208.0,
          "width": 32.0,
          "height": 32.0,
          "rotation": -0.0,
          "visible": true,
          "properties": [
            {
              "name": "stype",
              "type": "float",
              "value": 1.0
            }
          ]
        },
        {
          "id": 126,
          "name": "",
          "type": "obj_limpcity_hideeye",
          "gid": 131,
          "x": 1.0,
          "y": 785.0,
          "width": 57.0,
          "height": 47.0,
          "rotation": -0.0,
          "visible": true,
          "properties": [
            {
              "name": "image_index",
              "type": "int",
              "value": 1
            }
          ]
        },
        {
          "id": 127,
          "name": "",
          "type": "obj_limpcity_hideeye",
          "gid": 131,
          "x": 200.0,
          "y": 785.0,
          "width": 57.0,
          "height": 47.0,
          "rotation": -0.0,
          "visible": true
        },
        {
          "id": 128,
          "name": "",
          "type": "obj_limpcity_hideeye",
          "gid": 131,
          "x": 280.0,
          "y": 1233.0,
          "width": 57.0,
          "height": 47.0,
          "rotation": -0.0,
          "visible": true,
          "properties": [
            {
              "name": "image_index",
              "type": "int",
              "value": 2
            }
          ]
        },
        {
          "id": 129,
          "name": "",
          "type": "obj_limpcity_hideeye",
          "gid": 131,
          "x": 619.0,
          "y": 1233.0,
          "width": 57.0,
          "height": 47.0,
          "rotation": -0.0,
          "visible": true
        },
        {
          "id": 130,
          "name": "",
          "type": "obj_limpcity_hideeye",
          "gid": 131,
          "x": 786.0,
          "y": 1233.0,
          "width": 57.0,
          "height": 47.0,
          "rotation": -0.0,
          "visible": true,
          "properties": [
            {
              "name": "image_index",
              "type": "int",
              "value": 2
            }
          ]
        },
        {
          "id": 131,
          "name": "",
          "type": "obj_limpcity_hideeye",
          "gid": 131,
          "x": 2159.0,
          "y": 1105.0,
          "width": 57.0,
          "height": 47.0,
          "rotation": -0.0,
          "visible": true,
          "properties": [
            {
              "name": "image_index",
              "type": "int",
              "value": -2
            }
          ]
        },
        {
          "id": 132,
          "name": "",
          "type": "obj_limpcity_hideeye",
          "gid": 131,
          "x": 2443.0,
          "y": 1105.0,
          "width": 57.0,
          "height": 47.0,
          "rotation": -0.0,
          "visible": true
        },
        {
          "id": 133,
          "name": "",
          "type": "obj_limpcity_hideeye",
          "gid": 131,
          "x": 3416.0,
          "y": 721.0,
          "width": 57.0,
          "height": 47.0,
          "rotation": -0.0,
          "visible": true,
          "properties": [
            {
              "name": "image_index",
              "type": "int",
              "value": 1
            }
          ]
        },
        {
          "id": 134,
          "name": "",
          "type": "obj_limpcity_hideeye",
          "gid": 131,
          "x": 1728.0,
          "y": 329.0,
          "width": 57.0,
          "height": 47.0,
          "rotation": -0.0,
          "visible": true,
          "properties": [
            {
              "name": "image_index",
              "type": "int",
              "value": 2
            }
          ]
        },
        {
          "id": 135,
          "name": "",
          "type": "obj_limpcity_hideeye",
          "gid": 131,
          "x": 1871.0,
          "y": 329.0,
          "width": 57.0,
          "height": 47.0,
          "rotation": -0.0,
          "visible": true,
          "properties": [
            {
              "name": "image_index",
              "type": "int",
              "value": 1
            }
          ]
        },
        {
          "id": 136,
          "name": "",
          "type": "obj_limpcity_hideeye",
          "gid": 131,
          "x": 632.0,
          "y": 393.0,
          "width": 57.0,
          "height": 47.0,
          "rotation": -0.0,
          "visible": true,
          "properties": [
            {
              "name": "image_index",
              "type": "int",
              "value": 2
            }
          ]
        },
        {
          "id": 137,
          "name": "",
          "type": "obj_solid_block",
          "gid": 255,
          "x": 616.0,
          "y": 900.0,
          "width": 132.0,
          "height": 60.0,
          "rotation": -0.0,
          "visible": true
        },
        {
          "id": 138,
          "name": "",
          "type": "obj_solid_block",
          "gid": 255,
          "x": 1156.0,
          "y": 1080.0,
          "width": 476.0,
          "height": 72.0,
          "rotation": -0.0,
          "visible": true
        },
        {
          "id": 139,
          "name": "",
          "type": "obj_solid_block",
          "gid": 255,
          "x": 1156.0,
          "y": 1008.0,
          "width": 184.0,
          "height": 72.0,
          "rotation": -0.0,
          "visible": true
        },
        {
          "id": 140,
          "name": "",
          "type": "obj_solid_block",
          "gid": 255,
          "x": 1340.0,
          "y": 1056.0,
          "width": 184.0,
          "height": 24.0,
          "rotation": -0.0,
          "visible": true
        },
        {
          "id": 141,
          "name": "",
          "type": "obj_solid_block",
          "gid": 255,
          "x": 1632.0,
          "y": 1128.0,
          "width": 184.0,
          "height": 24.0,
          "rotation": -0.0,
          "visible": true
        },
        {
          "id": 142,
          "name": "",
          "type": "obj_solid_block",
          "gid": 255,
          "x": 2236.0,
          "y": 820.0,
          "width": 260.0,
          "height": 52.0,
          "rotation": -0.0,
          "visible": true
        },
        {
          "id": 143,
          "name": "",
          "type": "obj_solid_block",
          "gid": 255,
          "x": 1604.0,
          "y": 440.0,
          "width": 124.0,
          "height": 63.99999616,
          "rotation": -0.0,
          "visible": true
        },
        {
          "id": 144,
          "name": "",
          "type": "obj_solid_block",
          "gid": 255,
          "x": 1924.0,
          "y": 440.0,
          "width": 244.0,
          "height": 63.99999616,
          "rotation": -0.0,
          "visible": true
        },
        {
          "id": 145,
          "name": "",
          "type": "obj_solid_block",
          "gid": 255,
          "x": 1540.0,
          "y": 472.0,
          "width": 64.0,
          "height": 31.99999616,
          "rotation": -0.0,
          "visible": true
        },
        {
          "id": 146,
          "name": "",
          "type": "obj_solid_block",
          "gid": 255,
          "x": 1664.0,
          "y": 408.0,
          "width": 64.0,
          "height": 31.99999616,
          "rotation": -0.0,
          "visible": true
        },
        {
          "id": 147,
          "name": "",
          "type": "obj_solid_block",
          "gid": 255,
          "x": 1924.0,
          "y": 404.0,
          "width": 104.0,
          "height": 35.99999616,
          "rotation": -0.0,
          "visible": true
        },
        {
          "id": 148,
          "name": "",
          "type": "obj_solid_block",
          "gid": 255,
          "x": 2168.0,
          "y": 468.0,
          "width": 104.0,
          "height": 35.99999616,
          "rotation": -0.0,
          "visible": true
        },
        {
          "id": 149,
          "name": "",
          "type": "obj_solid_block",
          "gid": 255,
          "x": 1010.0,
          "y": 504.0,
          "width": 126.0,
          "height": 35.99999616,
          "rotation": -0.0,
          "visible": true
        },
        {
          "id": 150,
          "name": "",
          "type": "obj_solid_block",
          "gid": 255,
          "x": 1010.0,
          "y": 480.0,
          "width": 78.0,
          "height": 23.99999616,
          "rotation": -0.0,
          "visible": true
        },
        {
          "id": 151,
          "name": "",
          "type": "obj_solid_block",
          "gid": 255,
          "x": 1010.0,
          "y": 468.0,
          "width": 54.0,
          "height": 11.99999616,
          "rotation": -0.0,
          "visible": true
        },
        {
          "id": 152,
          "name": "",
          "type": "obj_solid_block",
          "gid": 255,
          "x": 1088.0,
          "y": 496.0,
          "width": 34.0,
          "height": 7.99999616,
          "rotation": -0.0,
          "visible": true
        },
        {
          "id": 153,
          "name": "",
          "type": "obj_solid_block",
          "gid": 255,
          "x": 1010.0,
          "y": 460.0,
          "width": 38.0,
          "height": 7.99999616,
          "rotation": -0.0,
          "visible": true
        },
        {
          "id": 154,
          "name": "",
          "type": "obj_solid_block",
          "gid": 255,
          "x": 464.0,
          "y": 440.0,
          "width": 128.0,
          "height": 127.99999232,
          "rotation": -0.0,
          "visible": true
        },
        {
          "id": 155,
          "name": "",
          "type": "obj_solid_block",
          "gid": 255,
          "x": 192.0,
          "y": 440.0,
          "width": 128.0,
          "height": 127.99999232,
          "rotation": -0.0,
          "visible": true
        },
        {
          "id": 156,
          "name": "",
          "type": "obj_solid_block",
          "gid": 255,
          "x": 248.0,
          "y": 412.0,
          "width": 72.0,
          "height": 27.99999232,
          "rotation": -0.0,
          "visible": true
        },
        {
          "id": 157,
          "name": "",
          "type": "obj_solid_block",
          "gid": 255,
          "x": 464.0,
          "y": 412.0,
          "width": 72.0,
          "height": 27.99999232,
          "rotation": -0.0,
          "visible": true
        },
        {
          "id": 158,
          "name": "",
          "type": "obj_solid_block2",
          "gid": 256,
          "x": -32.0,
          "y": 0.0,
          "width": 32.0,
          "height": 876.0,
          "rotation": -0.0,
          "visible": true
        },
        {
          "id": 159,
          "name": "",
          "type": "obj_solid_block2",
          "gid": 256,
          "x": 3520.0,
          "y": 0.0,
          "width": 44.0,
          "height": 820.0,
          "rotation": -0.0,
          "visible": true
        },
        {
          "id": 160,
          "name": "",
          "type": "obj_solid_block2",
          "gid": 256,
          "x": -32.0,
          "y": -32.0,
          "width": 3595.999744,
          "height": 32.0,
          "rotation": -0.0,
          "visible": true
        }
      ],
      "properties": [
        {
          "name": "depth",
          "type": "int",
          "value": 0
        }
      ]
    }
  ]
}