{
 "type": "map",
 "version": "1.10",
 "orientation": "orthogonal",
 "renderorder": "right-down",
 "infinite": false,
 "width": 480,
 "height": 270,
 "tilewidth": 1,
 "tileheight": 1,
 "nextlayerid": 70,
 "nextobjectid": 603,
 "properties": [
  {
   "name": "persistent",
   "type": "bool",
   "value": false
  },
  {
   "name": "views_enabled",
   "type": "bool",
   "value": false
  },
  {
   "name": "clear_view_background",
   "type": "bool",
   "value": false
  },
  {
   "name": "view_visible",
   "type": "bool",
   "value": false
  },
  {
   "name": "view_x",
   "type": "int",
   "value": 0
  },
  {
   "name": "view_y",
   "type": "int",
   "value": 0
  },
  {
   "name": "view_width",
   "type": "int",
   "value": 1366
  },
  {
   "name": "view_height",
   "type": "int",
   "value": 768
  },
  {
   "name": "port_x",
   "type": "int",
   "value": 0
  },
  {
   "name": "port_y",
   "type": "int",
   "value": 0
  },
  {
   "name": "port_width",
   "type": "int",
   "value": 1366
  },
  {
   "name": "port_height",
   "type": "int",
   "value": 768
  }
 ],
 "tilesets": [
  {
   "firstgid": 1,
   "source": "Tilesets/objects.tsj"
  },
  {
   "firstgid": 10000,
   "source": "Tilesets/sprites.tsj"
  }
 ],
 "layers": [
  {
   "type": "imagelayer",
   "id": 1,
   "name": "Background",
   "image": "../Textures/Zones/test.apng",
   "imagewidth": 96,
   "imageheight": 96,
   "repeatx": true,
   "repeaty": true,
   "offsetx": 0.0,
   "offsety": 0.0,
   "opacity": 1.0,
   "visible": true,
   "tintcolor": "#ff282828",
   "x": 0,
   "y": 0,
   "properties": [
    {
     "name": "depth",
     "type": "int",
     "value": 2000
    },
    {
     "name": "effect",
     "type": "string",
     "value": "_filter_heathaze"
    },
    {
     "name": "effect.g_Distort1Speed",
     "type": "float",
     "value": 0.01
    },
    {
     "name": "effect.g_Distort2Speed",
     "type": "float",
     "value": 0.025
    },
    {
     "name": "effect.g_Distort1Scale",
     "type": "float",
     "value": 1.3
    },
    {
     "name": "effect.g_Distort2Scale",
     "type": "float",
     "value": 3.3
    },
    {
     "name": "effect.g_Distort1Amount",
     "type": "float",
     "value": 2.0
    },
    {
     "name": "effect.g_Distort2Amount",
     "type": "float",
     "value": 4.0
    },
    {
     "name": "effect.g_ChromaSpreadAmount",
     "type": "float",
     "value": 0.5
    },
    {
     "name": "effect.g_CamOffsetScale",
     "type": "float",
     "value": 1.0
    },
    {
     "name": "effect.g_DistortTexture",
     "type": "string",
     "value": "_filter_heathaze_noise_sprite"
    },
    {
     "name": "hspeed",
     "type": "float",
     "value": -0.2
    }
   ]
  },
  {
   "type": "objectgroup",
   "id": 2,
   "name": "Main3",
   "draworder": "index",
   "opacity": 1.0,
   "visible": true,
   "x": 0,
   "y": 0,
   "objects": [
    {
     "id": 3,
     "name": "",
     "type": "obj_menu_characters",
     "gid": 161,
     "x": 216.0,
     "y": 49.0,
     "width": 272.0,
     "height": 216.0,
     "rotation": -0.0,
     "visible": true,
     "properties": [
      {
       "name": "image_blend",
       "type": "color",
       "value": "#ff777777"
      }
     ]
    }
   ],
   "properties": [
    {
     "name": "depth",
     "type": "int",
     "value": 1900
    },
    {
     "name": "effect",
     "type": "string",
     "value": "_filter_heathaze"
    },
    {
     "name": "effect.g_Distort1Speed",
     "type": "float",
     "value": 0.01
    },
    {
     "name": "effect.g_Distort2Speed",
     "type": "float",
     "value": 0.025
    },
    {
     "name": "effect.g_Distort1Scale",
     "type": "float",
     "value": 1.3
    },
    {
     "name": "effect.g_Distort2Scale",
     "type": "float",
     "value": 3.3
    },
    {
     "name": "effect.g_Distort1Amount",
     "type": "float",
     "value": 2.0
    },
    {
     "name": "effect.g_Distort2Amount",
     "type": "float",
     "value": 4.0
    },
    {
     "name": "effect.g_ChromaSpreadAmount",
     "type": "float",
     "value": 0.5
    },
    {
     "name": "effect.g_CamOffsetScale",
     "type": "float",
     "value": 1.0
    },
    {
     "name": "effect.g_DistortTexture",
     "type": "string",
     "value": "_filter_heathaze_noise_sprite"
    }
   ]
  },
  {
   "type": "objectgroup",
   "id": 3,
   "name": "AboutCreditsText",
   "draworder": "index",
   "opacity": 1.0,
   "visible": false,
   "x": 0,
   "y": 0,
   "objects": [
    {
     "id": 154,
     "name": "",
     "type": "obj_menu_credits",
     "gid": 162,
     "x": 99.0,
     "y": 196.0,
     "width": 282.0,
     "height": 1022.0,
     "rotation": -0.0,
     "visible": true,
     "properties": [
      {
       "name": "text",
       "type": "string",
       "value": "/original game: \n~-outlaik \n \n/coding: \n~-handerhedgehog \n \n/directing and game design: \n~-merfamphetamine \n \n/level design: \n~-merfamphetamine \n-catswellmeow  \n-handerhedgehog \n-dan the patient bear \n-jaizkoys \n-hamsterman \n \n/sprites: \n~-sonic team \n-modgen project \n-hamsterman \n-merfamphetamine \n-catswellmeow \n-natufox \n-damien \n-dolphman \n-danielmania \n-shadic 34 \n-sonic worlds delta team \n \n/music by: \n~-cageaboom1 \n-ibroman \n-yuuzudev \n-mao hamamoto \n-kyu sawamura \n-akira yamaoka \n-sonic team \n-john vogel \n-kevin manthei \n-shane cartledge \n-fabrice bouillon \n-olivier deriviere \n-kelly bailey \n \n/voice acting by: \n~-shey grell \n-darkbox \n-jaizkoys \n-merfamphetamine \n-philnex \n \n/testers: \n~-stormdev \n-hyper \n-lore64 \n-exsoulest \n-kooltimyt \n-jasongamer9000 \n-shonnikrus \n-dan the patient bear \n-johnnie the gaming echidna \n-uncle \n-treeze \n-jaizkoys \n-triss vencely \n-fufle \n-vecnazak \n-mastered ui kostas \n-sty \n-dalkano muddrip \n \n/tools used: \n~-gamemaker \n-dotnet 7.0 \n-aseprite \n \nmade in association with \\exe empire ~community"
      }
     ]
    }
   ],
   "properties": [
    {
     "name": "depth",
     "type": "int",
     "value": 1800
    }
   ]
  },
  {
   "type": "objectgroup",
   "id": 4,
   "name": "ExtraAchivementsList",
   "draworder": "index",
   "opacity": 1.0,
   "visible": false,
   "x": 0,
   "y": 0,
   "objects": [
    {
     "id": 478,
     "name": "",
     "type": "obj_menu_achivements",
     "gid": 157,
     "x": 240.0,
     "y": 64.0,
     "width": 334.0,
     "height": 38.0,
     "rotation": -0.0,
     "visible": true
    }
   ],
   "properties": [
    {
     "name": "depth",
     "type": "int",
     "value": 1700
    }
   ]
  },
  {
   "type": "objectgroup",
   "id": 5,
   "name": "AboutCharacter",
   "draworder": "index",
   "opacity": 1.0,
   "visible": false,
   "x": 0,
   "y": 0,
   "objects": [
    {
     "id": 256,
     "name": "",
     "type": "obj_menu_character",
     "gid": 160,
     "x": 240.0,
     "y": 46.0,
     "width": 223.0,
     "height": 189.0,
     "rotation": -0.0,
     "visible": true
    }
   ],
   "properties": [
    {
     "name": "depth",
     "type": "int",
     "value": 1600
    }
   ]
  },
  {
   "type": "imagelayer",
   "id": 6,
   "name": "Bars",
   "image": "../Textures/Main Menu/menu_bars.apng",
   "imagewidth": 480,
   "imageheight": 270,
   "repeatx": false,
   "repeaty": false,
   "offsetx": 0.0,
   "offsety": 0.0,
   "opacity": 1.0,
   "visible": true,
   "x": 0,
   "y": 0,
   "properties": [
    {
     "name": "depth",
     "type": "int",
     "value": 1500
    }
   ]
  },
  {
   "type": "objectgroup",
   "id": 7,
   "name": "Main2",
   "draworder": "index",
   "opacity": 1.0,
   "visible": true,
   "x": 0,
   "y": 0,
   "objects": [
    {
     "id": 488,
     "name": "",
     "type": "",
     "gid": 10529,
     "x": 25.0,
     "y": 92.0,
     "width": 219.0,
     "height": 89.0,
     "rotation": -0.0,
     "visible": true,
     "properties": [
      {
       "name": "animation_speed",
       "type": "float",
       "value": 0.2
      }
     ]
    },
    {
     "id": 489,
     "name": "",
     "type": "",
     "gid": 10531,
     "x": 344.0,
     "y": 40.0,
     "width": 130.0,
     "height": 6.0,
     "rotation": -0.0,
     "visible": true
    }
   ],
   "properties": [
    {
     "name": "depth",
     "type": "int",
     "value": 1400
    },
    {
     "name": "asset_layer",
     "type": "bool",
     "value": true
    }
   ]
  },
  {
   "type": "objectgroup",
   "id": 8,
   "name": "Instances",
   "draworder": "index",
   "opacity": 1.0,
   "visible": true,
   "x": 0,
   "y": 0,
   "objects": [
    {
     "id": 1,
     "name": "",
     "type": "obj_menu_particlespawner",
     "gid": 175,
     "x": 16.0,
     "y": -16.0,
     "width": 16.0,
     "height": 16.0,
     "rotation": -0.0,
     "visible": true
    },
    {
     "id": 2,
     "name": "",
     "type": "obj_netclient",
     "gid": 205,
     "x": 0.0,
     "y": -16.0,
     "width": 16.0,
     "height": 16.0,
     "rotation": -0.0,
     "visible": true
    },
    {
     "id": 5,
     "name": "",
     "type": "obj_menu",
     "gid": 155,
     "x": 32.0,
     "y": -16.0,
     "width": 16.0,
     "height": 16.0,
     "rotation": -0.0,
     "visible": true
    }
   ],
   "properties": [
    {
     "name": "depth",
     "type": "int",
     "value": 1300
    }
   ]
  },
  {
   "type": "objectgroup",
   "id": 9,
   "name": "Main",
   "draworder": "index",
   "opacity": 1.0,
   "visible": true,
   "x": 0,
   "y": 0,
   "objects": [
    {
     "id": 6,
     "name": "",
     "type": "obj_menu_button",
     "gid": 159,
     "x": 47.0,
     "y": 244.0,
     "width": 180.0,
     "height": 16.0,
     "rotation": -0.0,
     "visible": true
    },
    {
     "id": 7,
     "name": "",
     "type": "obj_menu_button",
     "gid": 159,
     "x": 154.0,
     "y": 244.0,
     "width": 180.0,
     "height": 16.0,
     "rotation": -0.0,
     "visible": true,
     "properties": [
      {
       "name": "image_index",
       "type": "int",
       "value": 1
      },
      {
       "name": "bid",
       "type": "float",
       "value": 1.0
      }
     ]
    },
    {
     "id": 8,
     "name": "",
     "type": "obj_menu_button",
     "gid": 159,
     "x": 246.0,
     "y": 244.0,
     "width": 180.0,
     "height": 16.0,
     "rotation": -0.0,
     "visible": true,
     "properties": [
      {
       "name": "image_index",
       "type": "int",
       "value": 2
      },
      {
       "name": "bid",
       "type": "float",
       "value": 2.0
      }
     ]
    },
    {
     "id": 9,
     "name": "",
     "type": "obj_menu_button",
     "gid": 159,
     "x": 404.0,
     "y": 244.0,
     "width": 180.0,
     "height": 16.0,
     "rotation": -0.0,
     "visible": true,
     "properties": [
      {
       "name": "image_index",
       "type": "int",
       "value": 3
      },
      {
       "name": "bid",
       "type": "float",
       "value": 4.0
      }
     ]
    },
    {
     "id": 10,
     "name": "",
     "type": "obj_menu_button",
     "gid": 159,
     "x": 322.0,
     "y": 244.0,
     "width": 180.0,
     "height": 16.0,
     "rotation": -0.0,
     "visible": true,
     "properties": [
      {
       "name": "image_index",
       "type": "int",
       "value": 28
      },
      {
       "name": "bid",
       "type": "float",
       "value": 3.0
      }
     ]
    },
    {
     "id": 13,
     "name": "",
     "type": "obj_menu_link1",
     "gid": 167,
     "x": 36.0,
     "y": 11.0,
     "width": 86.0,
     "height": 13.0,
     "rotation": -0.0,
     "visible": true,
     "properties": [
      {
       "name": "open_url",
       "type": "string",
       "value": "https://discord.gg/exeempire"
      }
     ]
    },
    {
     "id": 14,
     "name": "",
     "type": "obj_menu_link1",
     "gid": 167,
     "x": 197.0,
     "y": 11.0,
     "width": 86.0,
     "height": 13.0,
     "rotation": -0.0,
     "visible": true,
     "properties": [
      {
       "name": "image_index",
       "type": "int",
       "value": 1
      },
      {
       "name": "open_url",
       "type": "string",
       "value": "https://www.roblox.com/games/6553871117/BETA-Sonic-EXE-The-Disaster"
      }
     ]
    },
    {
     "id": 15,
     "name": "",
     "type": "obj_menu_link2",
     "gid": 168,
     "x": 381.0,
     "y": 8.0,
     "width": 21.0,
     "height": 19.0,
     "rotation": -0.0,
     "visible": true,
     "properties": [
      {
       "name": "open_url",
       "type": "string",
       "value": "https://gamejolt.com/games/disaster2dr/780541"
      }
     ]
    },
    {
     "id": 16,
     "name": "",
     "type": "obj_menu_link2",
     "gid": 168,
     "x": 411.0,
     "y": 8.0,
     "width": 21.0,
     "height": 19.0,
     "rotation": -0.0,
     "visible": true,
     "properties": [
      {
       "name": "image_index",
       "type": "int",
       "value": 1
      },
      {
       "name": "open_url",
       "type": "string",
       "value": "https://discord.gg/thedisaster2d"
      }
     ]
    },
    {
     "id": 67,
     "name": "",
     "type": "obj_menu_version",
     "gid": 185,
     "x": 160.0,
     "y": 180.0,
     "width": 8.0,
     "height": 6.0,
     "rotation": -0.0,
     "visible": true
    },
    {
     "id": 481,
     "name": "",
     "type": "obj_menu_secret",
     "gid": 177,
     "x": 48.0,
     "y": -16.0,
     "width": 16.0,
     "height": 16.0,
     "rotation": -0.0,
     "visible": true
    }
   ],
   "properties": [
    {
     "name": "depth",
     "type": "int",
     "value": 1200
    }
   ]
  },
  {
   "type": "imagelayer",
   "id": 10,
   "name": "Backgrounds_1",
   "image": "",
   "imagewidth": 0,
   "imageheight": 0,
   "repeatx": false,
   "repeaty": false,
   "offsetx": 0.0,
   "offsety": 0.0,
   "opacity": 1.0,
   "visible": false,
   "tintcolor": "#ffffffff",
   "x": 0,
   "y": 0,
   "properties": [
    {
     "name": "depth",
     "type": "int",
     "value": 1100
    }
   ]
  },
  {
   "type": "objectgroup",
   "id": 11,
   "name": "JoinGame",
   "draworder": "index",
   "opacity": 1.0,
   "visible": false,
   "x": 0,
   "y": 0,
   "objects": [
    {
     "id": 11,
     "name": "",
     "type": "obj_menu_textbox",
     "gid": 182,
     "x": 176.0,
     "y": 52.0,
     "width": 128.0,
     "height": 16.0,
     "rotation": -0.0,
     "visible": true,
     "properties": [
      {
       "name": "placeholder",
       "type": "string",
       "value": "enter ip..."
      },
      {
       "name": "submenu",
       "type": "float",
       "value": 1.0
      },
      {
       "name": "tid",
       "type": "string",
       "value": "ip"
      },
      {
       "name": "limit",
       "type": "float",
       "value": 20.0
      }
     ]
    },
    {
     "id": 12,
     "name": "",
     "type": "obj_menu_button",
     "gid": 159,
     "x": 180.0,
     "y": 36.0,
     "width": 180.0,
     "height": 16.0,
     "rotation": -0.0,
     "visible": true,
     "properties": [
      {
       "name": "image_index",
       "type": "int",
       "value": 6
      },
      {
       "name": "submenu",
       "type": "float",
       "value": 1.0
      },
      {
       "name": "bid",
       "type": "float",
       "value": 0.0
      }
     ]
    },
    {
     "id": 482,
     "name": "",
     "type": "obj_menu_button",
     "gid": 159,
     "x": 160.0,
     "y": 244.0,
     "width": 180.0,
     "height": 16.0,
     "rotation": -0.0,
     "visible": true,
     "properties": [
      {
       "name": "image_index",
       "type": "int",
       "value": 4
      },
      {
       "name": "bid",
       "type": "float",
       "value": 1.0
      },
      {
       "name": "submenu",
       "type": "float",
       "value": 1.0
      },
      {
       "name": "bcolumn",
       "type": "float",
       "value": 0.0
      }
     ]
    },
    {
     "id": 583,
     "name": "",
     "type": "obj_menu_button",
     "gid": 159,
     "x": 228.0,
     "y": 244.0,
     "width": 180.0,
     "height": 16.0,
     "rotation": -0.0,
     "visible": true,
     "properties": [
      {
       "name": "image_index",
       "type": "int",
       "value": 0
      },
      {
       "name": "bid",
       "type": "float",
       "value": 1.0
      },
      {
       "name": "submenu",
       "type": "float",
       "value": 1.0
      },
      {
       "name": "label",
       "type": "string",
       "value": "singleplayer"
      },
      {
       "name": "bcolumn",
       "type": "float",
       "value": 1.0
      }
     ]
    },
    {
     "id": 584,
     "name": "",
     "type": "obj_menu_warning",
     "gid": 173,
     "x": 464.0,
     "y": 256.0,
     "width": 12.0,
     "height": 12.0,
     "rotation": -0.0,
     "visible": true
    }
   ],
   "properties": [
    {
     "name": "depth",
     "type": "int",
     "value": 1000
    }
   ]
  },
  {
   "type": "objectgroup",
   "id": 83,
   "name": "SingleMaps",
   "draworder": "index",
   "opacity": 1.0,
   "visible": false,
   "x": 0,
   "y": 0,
   "properties": [
    {
     "name": "depth",
     "type": "int",
     "value": 1000
    }
   ],
   "objects": [
    {
     "id": 549,
     "name": "",
     "type": "obj_menu_button",
     "gid": 159,
     "x": 16.0,
     "y": 30.0,
     "width": 180.0,
     "height": 16.0,
     "rotation": -0.0,
     "visible": true,
     "properties": [
      {
       "name": "image_index",
       "type": "int",
       "value": 0
      },
      {
       "name": "bid",
       "type": "float",
       "value": 0.0
      },
      {
       "name": "submenu",
       "type": "float",
       "value": 50.0
      },
      {
       "name": "bcolumn",
       "type": "float",
       "value": 0.0
      },
      {
       "name": "level",
       "type": "float",
       "value": 0.0
      }
     ]
    },
    {
     "id": 550,
     "name": "",
     "type": "obj_menu_button",
     "gid": 159,
     "x": 179.0,
     "y": 30.0,
     "width": 180.0,
     "height": 16.0,
     "rotation": -0.0,
     "visible": true,
     "properties": [
      {
       "name": "image_index",
       "type": "int",
       "value": 0
      },
      {
       "name": "bid",
       "type": "float",
       "value": 0.0
      },
      {
       "name": "submenu",
       "type": "float",
       "value": 50.0
      },
      {
       "name": "bcolumn",
       "type": "float",
       "value": 1.0
      },
      {
       "name": "level",
       "type": "float",
       "value": 1.0
      }
     ]
    },
    {
     "id": 551,
     "name": "",
     "type": "obj_menu_button",
     "gid": 159,
     "x": 341.0,
     "y": 30.0,
     "width": 180.0,
     "height": 16.0,
     "rotation": -0.0,
     "visible": true,
     "properties": [
      {
       "name": "image_index",
       "type": "int",
       "value": 0
      },
      {
       "name": "bid",
       "type": "float",
       "value": 0.0
      },
      {
       "name": "submenu",
       "type": "float",
       "value": 50.0
      },
      {
       "name": "bcolumn",
       "type": "float",
       "value": 2.0
      },
      {
       "name": "level",
       "type": "float",
       "value": 2.0
      }
     ]
    },
    {
     "id": 552,
     "name": "",
     "type": "obj_menu_button",
     "gid": 159,
     "x": 16.0,
     "y": 142.0,
     "width": 180.0,
     "height": 16.0,
     "rotation": -0.0,
     "visible": true,
     "properties": [
      {
       "name": "image_index",
       "type": "int",
       "value": 0
      },
      {
       "name": "bid",
       "type": "float",
       "value": 1.0
      },
      {
       "name": "submenu",
       "type": "float",
       "value": 50.0
      },
      {
       "name": "bcolumn",
       "type": "float",
       "value": 0.0
      },
      {
       "name": "level",
       "type": "float",
       "value": 3.0
      }
     ]
    },
    {
     "id": 553,
     "name": "",
     "type": "obj_menu_button",
     "gid": 159,
     "x": 179.0,
     "y": 142.0,
     "width": 180.0,
     "height": 16.0,
     "rotation": -0.0,
     "visible": true,
     "properties": [
      {
       "name": "image_index",
       "type": "int",
       "value": 0
      },
      {
       "name": "bid",
       "type": "float",
       "value": 1.0
      },
      {
       "name": "submenu",
       "type": "float",
       "value": 50.0
      },
      {
       "name": "bcolumn",
       "type": "float",
       "value": 1.0
      },
      {
       "name": "level",
       "type": "float",
       "value": 4.0
      }
     ]
    },
    {
     "id": 554,
     "name": "",
     "type": "obj_menu_button",
     "gid": 159,
     "x": 341.0,
     "y": 142.0,
     "width": 180.0,
     "height": 16.0,
     "rotation": -0.0,
     "visible": true,
     "properties": [
      {
       "name": "image_index",
       "type": "int",
       "value": 0
      },
      {
       "name": "bid",
       "type": "float",
       "value": 1.0
      },
      {
       "name": "submenu",
       "type": "float",
       "value": 50.0
      },
      {
       "name": "bcolumn",
       "type": "float",
       "value": 2.0
      },
      {
       "name": "level",
       "type": "float",
       "value": 5.0
      }
     ]
    },
    {
     "id": 555,
     "name": "",
     "type": "obj_menu_button",
     "gid": 159,
     "x": 16.0,
     "y": 254.0,
     "width": 180.0,
     "height": 16.0,
     "rotation": -0.0,
     "visible": true,
     "properties": [
      {
       "name": "image_index",
       "type": "int",
       "value": 0
      },
      {
       "name": "bid",
       "type": "float",
       "value": 2.0
      },
      {
       "name": "submenu",
       "type": "float",
       "value": 50.0
      },
      {
       "name": "bcolumn",
       "type": "float",
       "value": 0.0
      },
      {
       "name": "level",
       "type": "float",
       "value": 6.0
      }
     ]
    },
    {
     "id": 556,
     "name": "",
     "type": "obj_menu_button",
     "gid": 159,
     "x": 179.0,
     "y": 254.0,
     "width": 180.0,
     "height": 16.0,
     "rotation": -0.0,
     "visible": true,
     "properties": [
      {
       "name": "image_index",
       "type": "int",
       "value": 0
      },
      {
       "name": "bid",
       "type": "float",
       "value": 2.0
      },
      {
       "name": "submenu",
       "type": "float",
       "value": 50.0
      },
      {
       "name": "bcolumn",
       "type": "float",
       "value": 1.0
      },
      {
       "name": "level",
       "type": "float",
       "value": 7.0
      }
     ]
    },
    {
     "id": 557,
     "name": "",
     "type": "obj_menu_button",
     "gid": 159,
     "x": 341.0,
     "y": 254.0,
     "width": 180.0,
     "height": 16.0,
     "rotation": -0.0,
     "visible": true,
     "properties": [
      {
       "name": "image_index",
       "type": "int",
       "value": 0
      },
      {
       "name": "bid",
       "type": "float",
       "value": 2.0
      },
      {
       "name": "submenu",
       "type": "float",
       "value": 50.0
      },
      {
       "name": "bcolumn",
       "type": "float",
       "value": 2.0
      },
      {
       "name": "level",
       "type": "float",
       "value": 8.0
      }
     ]
    },
    {
     "id": 558,
     "name": "",
     "type": "obj_menu_button",
     "gid": 159,
     "x": 16.0,
     "y": 366.0,
     "width": 180.0,
     "height": 16.0,
     "rotation": -0.0,
     "visible": true,
     "properties": [
      {
       "name": "image_index",
       "type": "int",
       "value": 0
      },
      {
       "name": "bid",
       "type": "float",
       "value": 3.0
      },
      {
       "name": "submenu",
       "type": "float",
       "value": 50.0
      },
      {
       "name": "bcolumn",
       "type": "float",
       "value": 0.0
      },
      {
       "name": "level",
       "type": "float",
       "value": 9.0
      }
     ]
    },
    {
     "id": 559,
     "name": "",
     "type": "obj_menu_button",
     "gid": 159,
     "x": 179.0,
     "y": 366.0,
     "width": 180.0,
     "height": 16.0,
     "rotation": -0.0,
     "visible": true,
     "properties": [
      {
       "name": "image_index",
       "type": "int",
       "value": 0
      },
      {
       "name": "bid",
       "type": "float",
       "value": 3.0
      },
      {
       "name": "submenu",
       "type": "float",
       "value": 50.0
      },
      {
       "name": "bcolumn",
       "type": "float",
       "value": 1.0
      },
      {
       "name": "level",
       "type": "float",
       "value": 10.0
      }
     ]
    },
    {
     "id": 560,
     "name": "",
     "type": "obj_menu_button",
     "gid": 159,
     "x": 341.0,
     "y": 366.0,
     "width": 180.0,
     "height": 16.0,
     "rotation": -0.0,
     "visible": true,
     "properties": [
      {
       "name": "image_index",
       "type": "int",
       "value": 0
      },
      {
       "name": "bid",
       "type": "float",
       "value": 3.0
      },
      {
       "name": "submenu",
       "type": "float",
       "value": 50.0
      },
      {
       "name": "bcolumn",
       "type": "float",
       "value": 2.0
      },
      {
       "name": "level",
       "type": "float",
       "value": 11.0
      }
     ]
    },
    {
     "id": 561,
     "name": "",
     "type": "obj_menu_button",
     "gid": 159,
     "x": 16.0,
     "y": 478.0,
     "width": 180.0,
     "height": 16.0,
     "rotation": -0.0,
     "visible": true,
     "properties": [
      {
       "name": "image_index",
       "type": "int",
       "value": 0
      },
      {
       "name": "bid",
       "type": "float",
       "value": 4.0
      },
      {
       "name": "submenu",
       "type": "float",
       "value": 50.0
      },
      {
       "name": "bcolumn",
       "type": "float",
       "value": 0.0
      },
      {
       "name": "level",
       "type": "float",
       "value": 12.0
      }
     ]
    },
    {
     "id": 562,
     "name": "",
     "type": "obj_menu_button",
     "gid": 159,
     "x": 179.0,
     "y": 478.0,
     "width": 180.0,
     "height": 16.0,
     "rotation": -0.0,
     "visible": true,
     "properties": [
      {
       "name": "image_index",
       "type": "int",
       "value": 0
      },
      {
       "name": "bid",
       "type": "float",
       "value": 4.0
      },
      {
       "name": "submenu",
       "type": "float",
       "value": 50.0
      },
      {
       "name": "bcolumn",
       "type": "float",
       "value": 1.0
      },
      {
       "name": "level",
       "type": "float",
       "value": 13.0
      }
     ]
    },
    {
     "id": 563,
     "name": "",
     "type": "obj_menu_button",
     "gid": 159,
     "x": 341.0,
     "y": 478.0,
     "width": 180.0,
     "height": 16.0,
     "rotation": -0.0,
     "visible": true,
     "properties": [
      {
       "name": "image_index",
       "type": "int",
       "value": 0
      },
      {
       "name": "bid",
       "type": "float",
       "value": 4.0
      },
      {
       "name": "submenu",
       "type": "float",
       "value": 50.0
      },
      {
       "name": "bcolumn",
       "type": "float",
       "value": 2.0
      },
      {
       "name": "level",
       "type": "float",
       "value": 14.0
      }
     ]
    },
    {
     "id": 564,
     "name": "",
     "type": "obj_menu_button",
     "gid": 159,
     "x": 16.0,
     "y": 590.0,
     "width": 180.0,
     "height": 16.0,
     "rotation": -0.0,
     "visible": true,
     "properties": [
      {
       "name": "image_index",
       "type": "int",
       "value": 0
      },
      {
       "name": "bid",
       "type": "float",
       "value": 5.0
      },
      {
       "name": "submenu",
       "type": "float",
       "value": 50.0
      },
      {
       "name": "bcolumn",
       "type": "float",
       "value": 0.0
      },
      {
       "name": "level",
       "type": "float",
       "value": 15.0
      }
     ]
    },
    {
     "id": 565,
     "name": "",
     "type": "obj_menu_button",
     "gid": 159,
     "x": 179.0,
     "y": 590.0,
     "width": 180.0,
     "height": 16.0,
     "rotation": -0.0,
     "visible": true,
     "properties": [
      {
       "name": "image_index",
       "type": "int",
       "value": 0
      },
      {
       "name": "bid",
       "type": "float",
       "value": 5.0
      },
      {
       "name": "submenu",
       "type": "float",
       "value": 50.0
      },
      {
       "name": "bcolumn",
       "type": "float",
       "value": 1.0
      },
      {
       "name": "level",
       "type": "float",
       "value": 16.0
      }
     ]
    },
    {
     "id": 566,
     "name": "",
     "type": "obj_menu_button",
     "gid": 159,
     "x": 341.0,
     "y": 590.0,
     "width": 180.0,
     "height": 16.0,
     "rotation": -0.0,
     "visible": true,
     "properties": [
      {
       "name": "image_index",
       "type": "int",
       "value": 0
      },
      {
       "name": "bid",
       "type": "float",
       "value": 5.0
      },
      {
       "name": "submenu",
       "type": "float",
       "value": 50.0
      },
      {
       "name": "bcolumn",
       "type": "float",
       "value": 2.0
      },
      {
       "name": "level",
       "type": "float",
       "value": 17.0
      }
     ]
    },
    {
     "id": 567,
     "name": "",
     "type": "obj_menu_button",
     "gid": 159,
     "x": 16.0,
     "y": 702.0,
     "width": 180.0,
     "height": 16.0,
     "rotation": -0.0,
     "visible": true,
     "properties": [
      {
       "name": "image_index",
       "type": "int",
       "value": 0
      },
      {
       "name": "bid",
       "type": "float",
       "value": 6.0
      },
      {
       "name": "submenu",
       "type": "float",
       "value": 50.0
      },
      {
       "name": "bcolumn",
       "type": "float",
       "value": 0.0
      },
      {
       "name": "level",
       "type": "float",
       "value": 18.0
      }
     ]
    },
    {
     "id": 568,
     "name": "",
     "type": "obj_menu_button",
     "gid": 159,
     "x": 179.0,
     "y": 702.0,
     "width": 180.0,
     "height": 16.0,
     "rotation": -0.0,
     "visible": true,
     "properties": [
      {
       "name": "image_index",
       "type": "int",
       "value": 0
      },
      {
       "name": "bid",
       "type": "float",
       "value": 6.0
      },
      {
       "name": "submenu",
       "type": "float",
       "value": 50.0
      },
      {
       "name": "bcolumn",
       "type": "float",
       "value": 1.0
      },
      {
       "name": "level",
       "type": "float",
       "value": 19.0
      }
     ]
    },
    {
     "id": 569,
     "name": "",
     "type": "obj_menu_button",
     "gid": 159,
     "x": 341.0,
     "y": 702.0,
     "width": 180.0,
     "height": 16.0,
     "rotation": -0.0,
     "visible": true,
     "properties": [
      {
       "name": "image_index",
       "type": "int",
       "value": 0
      },
      {
       "name": "bid",
       "type": "float",
       "value": 6.0
      },
      {
       "name": "submenu",
       "type": "float",
       "value": 50.0
      },
      {
       "name": "bcolumn",
       "type": "float",
       "value": 2.0
      },
      {
       "name": "level",
       "type": "float",
       "value": 20.0
      }
     ]
    },
    {
     "id": 570,
     "name": "",
     "type": "obj_menu_button",
     "gid": 159,
     "x": 224.0,
     "y": 244.0,
     "width": 180.0,
     "height": 16.0,
     "rotation": -0.0,
     "visible": true,
     "properties": [
      {
       "name": "image_index",
       "type": "int",
       "value": 4
      },
      {
       "name": "bid",
       "type": "float",
       "value": 7.0
      },
      {
       "name": "submenu",
       "type": "float",
       "value": 50.0
      }
     ]
    }
   ]
  },
  {
   "type": "objectgroup",
   "id": 83,
   "name": "SingleCharacters",
   "draworder": "index",
   "opacity": 1.0,
   "visible": false,
   "x": 0,
   "y": 0,
   "properties": [
    {
     "name": "depth",
     "type": "int",
     "value": 1000
    }
   ],
   "objects": [
    {
     "height": 16.0,
     "id": 585,
     "name": "",
     "rotation": 0.0,
     "type": "obj_menu_button",
     "visible": true,
     "width": 180.0,
     "x": 200.0,
     "y": 62.0,
     "properties": [
      {
       "name": "bid",
       "type": "float",
       "value": 0.0
      },
      {
       "name": "submenu",
       "type": "float",
       "value": 51.0
      },
      {
       "name": "bcolumn",
       "type": "float",
       "value": 0.0
      },
      {
       "name": "character",
       "type": "float",
       "value": 1.0
      },
      {
       "name": "exechar",
       "type": "float",
       "value": -1.0
      }
     ]
    },
    {
     "height": 16.0,
     "id": 586,
     "name": "",
     "rotation": 0.0,
     "type": "obj_menu_button",
     "visible": true,
     "width": 180.0,
     "x": 200.0,
     "y": 112.0,
     "properties": [
      {
       "name": "bid",
       "type": "float",
       "value": 1.0
      },
      {
       "name": "submenu",
       "type": "float",
       "value": 51.0
      },
      {
       "name": "bcolumn",
       "type": "float",
       "value": 0.0
      },
      {
       "name": "character",
       "type": "float",
       "value": 1.0
      },
      {
       "name": "exechar",
       "type": "float",
       "value": -1.0
      },
      {
       "name": "demon",
       "type": "bool",
       "value": true
      }
     ]
    },
    {
     "height": 16.0,
     "id": 587,
     "name": "",
     "rotation": 0.0,
     "type": "obj_menu_button",
     "visible": true,
     "width": 180.0,
     "x": 232.0,
     "y": 62.0,
     "properties": [
      {
       "name": "bid",
       "type": "float",
       "value": 0.0
      },
      {
       "name": "submenu",
       "type": "float",
       "value": 51.0
      },
      {
       "name": "bcolumn",
       "type": "float",
       "value": 1.0
      },
      {
       "name": "character",
       "type": "float",
       "value": 2.0
      },
      {
       "name": "exechar",
       "type": "float",
       "value": -1.0
      }
     ]
    },
    {
     "height": 16.0,
     "id": 588,
     "name": "",
     "rotation": 0.0,
     "type": "obj_menu_button",
     "visible": true,
     "width": 180.0,
     "x": 232.0,
     "y": 112.0,
     "properties": [
      {
       "name": "bid",
       "type": "float",
       "value": 1.0
      },
      {
       "name": "submenu",
       "type": "float",
       "value": 51.0
      },
      {
       "name": "bcolumn",
       "type": "float",
       "value": 1.0
      },
      {
       "name": "character",
       "type": "float",
       "value": 2.0
      },
      {
       "name": "exechar",
       "type": "float",
       "value": -1.0
      },
      {
       "name": "demon",
       "type": "bool",
       "value": true
      }
     ]
    },
    {
     "height": 16.0,
     "id": 589,
     "name": "",
     "rotation": 0.0,
     "type": "obj_menu_button",
     "visible": true,
     "width": 180.0,
     "x": 264.0,
     "y": 62.0,
     "properties": [
      {
       "name": "bid",
       "type": "float",
       "value": 0.0
      },
      {
       "name": "submenu",
       "type": "float",
       "value": 51.0
      },
      {
       "name": "bcolumn",
       "type": "float",
       "value": 2.0
      },
      {
       "name": "character",
       "type": "float",
       "value": 3.0
      },
      {
       "name": "exechar",
       "type": "float",
       "value": -1.0
      }
     ]
    },
    {
     "height": 16.0,
     "id": 590,
     "name": "",
     "rotation": 0.0,
     "type": "obj_menu_button",
     "visible": true,
     "width": 180.0,
     "x": 264.0,
     "y": 112.0,
     "properties": [
      {
       "name": "bid",
       "type": "float",
       "value": 1.0
      },
      {
       "name": "submenu",
       "type": "float",
       "value": 51.0
      },
      {
       "name": "bcolumn",
       "type": "float",
       "value": 2.0
      },
      {
       "name": "character",
       "type": "float",
       "value": 3.0
      },
      {
       "name": "exechar",
       "type": "float",
       "value": -1.0
      },
      {
       "name": "demon",
       "type": "bool",
       "value": true
      }
     ]
    },
    {
     "height": 16.0,
     "id": 591,
     "name": "",
     "rotation": 0.0,
     "type": "obj_menu_button",
     "visible": true,
     "width": 180.0,
     "x": 296.0,
     "y": 62.0,
     "properties": [
      {
       "name": "bid",
       "type": "float",
       "value": 0.0
      },
      {
       "name": "submenu",
       "type": "float",
       "value": 51.0
      },
      {
       "name": "bcolumn",
       "type": "float",
       "value": 3.0
      },
      {
       "name": "character",
       "type": "float",
       "value": 4.0
      },
      {
       "name": "exechar",
       "type": "float",
       "value": -1.0
      }
     ]
    },
    {
     "height": 16.0,
     "id": 592,
     "name": "",
     "rotation": 0.0,
     "type": "obj_menu_button",
     "visible": true,
     "width": 180.0,
     "x": 296.0,
     "y": 112.0,
     "properties": [
      {
       "name": "bid",
       "type": "float",
       "value": 1.0
      },
      {
       "name": "submenu",
       "type": "float",
       "value": 51.0
      },
      {
       "name": "bcolumn",
       "type": "float",
       "value": 3.0
      },
      {
       "name": "character",
       "type": "float",
       "value": 4.0
      },
      {
       "name": "exechar",
       "type": "float",
       "value": -1.0
      },
      {
       "name": "demon",
       "type": "bool",
       "value": true
      }
     ]
    },
    {
     "height": 16.0,
     "id": 593,
     "name": "",
     "rotation": 0.0,
     "type": "obj_menu_button",
     "visible": true,
     "width": 180.0,
     "x": 328.0,
     "y": 62.0,
     "properties": [
      {
       "name": "bid",
       "type": "float",
       "value": 0.0
      },
      {
       "name": "submenu",
       "type": "float",
       "value": 51.0
      },
      {
       "name": "bcolumn",
       "type": "float",
       "value": 4.0
      },
      {
       "name": "character",
       "type": "float",
       "value": 5.0
      },
      {
       "name": "exechar",
       "type": "float",
       "value": -1.0
      }
     ]
    },
    {
     "height": 16.0,
     "id": 594,
     "name": "",
     "rotation": 0.0,
     "type": "obj_menu_button",
     "visible": true,
     "width": 180.0,
     "x": 328.0,
     "y": 112.0,
     "properties": [
      {
       "name": "bid",
       "type": "float",
       "value": 1.0
      },
      {
       "name": "submenu",
       "type": "float",
       "value": 51.0
      },
      {
       "name": "bcolumn",
       "type": "float",
       "value": 4.0
      },
      {
       "name": "character",
       "type": "float",
       "value": 5.0
      },
      {
       "name": "exechar",
       "type": "float",
       "value": -1.0
      },
      {
       "name": "demon",
       "type": "bool",
       "value": true
      }
     ]
    },
    {
     "height": 16.0,
     "id": 595,
     "name": "",
     "rotation": 0.0,
     "type": "obj_menu_button",
     "visible": true,
     "width": 180.0,
     "x": 360.0,
     "y": 62.0,
     "properties": [
      {
       "name": "bid",
       "type": "float",
       "value": 0.0
      },
      {
       "name": "submenu",
       "type": "float",
       "value": 51.0
      },
      {
       "name": "bcolumn",
       "type": "float",
       "value": 5.0
      },
      {
       "name": "character",
       "type": "float",
       "value": 6.0
      },
      {
       "name": "exechar",
       "type": "float",
       "value": -1.0
      }
     ]
    },
    {
     "height": 16.0,
     "id": 596,
     "name": "",
     "rotation": 0.0,
     "type": "obj_menu_button",
     "visible": true,
     "width": 180.0,
     "x": 360.0,
     "y": 112.0,
     "properties": [
      {
       "name": "bid",
       "type": "float",
       "value": 1.0
      },
      {
       "name": "submenu",
       "type": "float",
       "value": 51.0
      },
      {
       "name": "bcolumn",
       "type": "float",
       "value": 5.0
      },
      {
       "name": "character",
       "type": "float",
       "value": 6.0
      },
      {
       "name": "exechar",
       "type": "float",
       "value": -1.0
      },
      {
       "name": "demon",
       "type": "bool",
       "value": true
      }
     ]
    },
    {
     "height": 16.0,
     "id": 597,
     "name": "",
     "rotation": 0.0,
     "type": "obj_menu_button",
     "visible": true,
     "width": 180.0,
     "x": 200.0,
     "y": 162.0,
     "properties": [
      {
       "name": "bid",
       "type": "float",
       "value": 2.0
      },
      {
       "name": "submenu",
       "type": "float",
       "value": 51.0
      },
      {
       "name": "bcolumn",
       "type": "float",
       "value": 0.0
      },
      {
       "name": "character",
       "type": "float",
       "value": 0.0
      },
      {
       "name": "exechar",
       "type": "float",
       "value": 0.0
      }
     ]
    },
    {
     "height": 16.0,
     "id": 598,
     "name": "",
     "rotation": 0.0,
     "type": "obj_menu_button",
     "visible": true,
     "width": 180.0,
     "x": 232.0,
     "y": 162.0,
     "properties": [
      {
       "name": "bid",
       "type": "float",
       "value": 2.0
      },
      {
       "name": "submenu",
       "type": "float",
       "value": 51.0
      },
      {
       "name": "bcolumn",
       "type": "float",
       "value": 1.0
      },
      {
       "name": "character",
       "type": "float",
       "value": 0.0
      },
      {
       "name": "exechar",
       "type": "float",
       "value": 1.0
      }
     ]
    },
    {
     "height": 16.0,
     "id": 599,
     "name": "",
     "rotation": 0.0,
     "type": "obj_menu_button",
     "visible": true,
     "width": 180.0,
     "x": 264.0,
     "y": 162.0,
     "properties": [
      {
       "name": "bid",
       "type": "float",
       "value": 2.0
      },
      {
       "name": "submenu",
       "type": "float",
       "value": 51.0
      },
      {
       "name": "bcolumn",
       "type": "float",
       "value": 2.0
      },
      {
       "name": "character",
       "type": "float",
       "value": 0.0
      },
      {
       "name": "exechar",
       "type": "float",
       "value": 2.0
      }
     ]
    },
    {
     "height": 16.0,
     "id": 600,
     "name": "",
     "rotation": 0.0,
     "type": "obj_menu_button",
     "visible": true,
     "width": 180.0,
     "x": 296.0,
     "y": 162.0,
     "properties": [
      {
       "name": "bid",
       "type": "float",
       "value": 2.0
      },
      {
       "name": "submenu",
       "type": "float",
       "value": 51.0
      },
      {
       "name": "bcolumn",
       "type": "float",
       "value": 3.0
      },
      {
       "name": "character",
       "type": "float",
       "value": 0.0
      },
      {
       "name": "exechar",
       "type": "float",
       "value": 3.0
      }
     ]
    },
    {
     "height": 16.0,
     "id": 601,
     "name": "",
     "rotation": 0.0,
     "type": "obj_menu_button",
     "visible": true,
     "width": 180.0,
     "x": 328.0,
     "y": 162.0,
     "properties": [
      {
       "name": "bid",
       "type": "float",
       "value": 2.0
      },
      {
       "name": "submenu",
       "type": "float",
       "value": 51.0
      },
      {
       "name": "bcolumn",
       "type": "float",
       "value": 4.0
      },
      {
       "name": "pick",
       "type": "string",
       "value": "random"
      }
     ]
    },
    {
     "height": 16.0,
     "id": 602,
     "name": "",
     "rotation": 0.0,
     "type": "obj_menu_button",
     "visible": true,
     "width": 180.0,
     "x": 360.0,
     "y": 162.0,
     "properties": [
      {
       "name": "bid",
       "type": "float",
       "value": 2.0
      },
      {
       "name": "submenu",
       "type": "float",
       "value": 51.0
      },
      {
       "name": "bcolumn",
       "type": "float",
       "value": 5.0
      },
      {
       "name": "pick",
       "type": "string",
       "value": "freecam"
      }
     ]
    },
    {
     "id": 582,
     "name": "",
     "type": "obj_menu_button",
     "gid": 159,
     "x": 8.0,
     "y": 4.0,
     "width": 180.0,
     "height": 16.0,
     "rotation": -0.0,
     "visible": true,
     "properties": [
      {
       "name": "image_index",
       "type": "int",
       "value": 4
      },
      {
       "name": "bid",
       "type": "float",
       "value": 3.0
      },
      {
       "name": "submenu",
       "type": "float",
       "value": 51.0
      }
     ]
    }
   ]
  },
  {
   "type": "group",
   "id": 12,
   "name": "Sextra",
   "opacity": 1.0,
   "visible": false,
   "x": 0,
   "y": 0,
   "layers": [
    {
     "type": "objectgroup",
     "id": 65,
     "name": "ExtraTabs",
     "draworder": "index",
     "opacity": 1.0,
     "visible": false,
     "x": 0,
     "y": 0,
     "properties": [
      {
       "name": "depth",
       "type": "int",
       "value": 960
      }
     ],
     "objects": [
      {
       "id": 531,
       "name": "",
       "type": "obj_menu_button",
       "gid": 159,
       "x": 8.0,
       "y": 244.0,
       "width": 180.0,
       "height": 16.0,
       "rotation": -0.0,
       "visible": true,
       "properties": [
        {
         "name": "image_index",
         "type": "int",
         "value": 54
        },
        {
         "name": "submenu",
         "type": "float",
         "value": 47.0
        }
       ]
      },
      {
       "id": 532,
       "name": "",
       "type": "obj_menu_button",
       "gid": 159,
       "x": 160.0,
       "y": 244.0,
       "width": 180.0,
       "height": 16.0,
       "rotation": -0.0,
       "visible": true,
       "properties": [
        {
         "name": "image_index",
         "type": "int",
         "value": 56
        },
        {
         "name": "submenu",
         "type": "float",
         "value": 47.0
        }
       ]
      },
      {
       "id": 533,
       "name": "",
       "type": "obj_menu_button",
       "gid": 159,
       "x": 256.0,
       "y": 244.0,
       "width": 180.0,
       "height": 16.0,
       "rotation": -0.0,
       "visible": true,
       "properties": [
        {
         "name": "image_index",
         "type": "int",
         "value": 55
        },
        {
         "name": "submenu",
         "type": "float",
         "value": 47.0
        }
       ]
      },
      {
       "id": 534,
       "name": "",
       "type": "obj_menu_button",
       "gid": 159,
       "x": 352.0,
       "y": 244.0,
       "width": 180.0,
       "height": 16.0,
       "rotation": -0.0,
       "visible": true,
       "properties": [
        {
         "name": "image_index",
         "type": "int",
         "value": 57
        },
        {
         "name": "submenu",
         "type": "float",
         "value": 47.0
        }
       ]
      },
      {
       "id": 535,
       "name": "",
       "type": "obj_menu_button",
       "gid": 159,
       "x": 440.0,
       "y": 244.0,
       "width": 180.0,
       "height": 16.0,
       "rotation": -0.0,
       "visible": true,
       "properties": [
        {
         "name": "image_index",
         "type": "int",
         "value": 4
        },
        {
         "name": "submenu",
         "type": "float",
         "value": 47.0
        }
       ]
      }
     ]
    },
    {
     "type": "objectgroup",
     "id": 66,
     "name": "ExtraPageRow",
     "draworder": "index",
     "opacity": 1.0,
     "visible": false,
     "x": 0,
     "y": 0,
     "properties": [
      {
       "name": "depth",
       "type": "int",
       "value": 950
      }
     ],
     "objects": [
      {
       "id": 536,
       "name": "",
       "type": "obj_menu_button",
       "gid": 159,
       "x": 10.0,
       "y": 10.0,
       "width": 180.0,
       "height": 16.0,
       "rotation": -0.0,
       "visible": true,
       "properties": [
        {
         "name": "image_index",
         "type": "int",
         "value": 58
        },
        {
         "name": "submenu",
         "type": "float",
         "value": 48.0
        }
       ]
      },
      {
       "id": 537,
       "name": "",
       "type": "obj_menu_button",
       "gid": 159,
       "x": 222.0,
       "y": 10.0,
       "width": 180.0,
       "height": 16.0,
       "rotation": -0.0,
       "visible": true,
       "properties": [
        {
         "name": "image_index",
         "type": "int",
         "value": 59
        },
        {
         "name": "submenu",
         "type": "float",
         "value": 48.0
        }
       ]
      },
      {
       "id": 538,
       "name": "",
       "type": "obj_menu_button",
       "gid": 159,
       "x": 429.0,
       "y": 8.0,
       "width": 180.0,
       "height": 16.0,
       "rotation": -0.0,
       "visible": true,
       "properties": [
        {
         "name": "image_index",
         "type": "int",
         "value": 60
        },
        {
         "name": "submenu",
         "type": "float",
         "value": 48.0
        }
       ]
      }
     ]
    },
    {
     "type": "objectgroup",
     "id": 67,
     "name": "ExtraCharacterRow",
     "draworder": "index",
     "opacity": 1.0,
     "visible": false,
     "x": 0,
     "y": 0,
     "properties": [
      {
       "name": "depth",
       "type": "int",
       "value": 940
      }
     ],
     "objects": [
      {
       "id": 539,
       "name": "",
       "type": "obj_menu_button",
       "gid": 159,
       "x": 10.0,
       "y": 10.0,
       "width": 180.0,
       "height": 16.0,
       "rotation": -0.0,
       "visible": true,
       "properties": [
        {
         "name": "image_index",
         "type": "int",
         "value": 51
        },
        {
         "name": "submenu",
         "type": "float",
         "value": 49.0
        }
       ]
      },
      {
       "id": 540,
       "name": "",
       "type": "obj_menu_button",
       "gid": 159,
       "x": 224.0,
       "y": 10.0,
       "width": 180.0,
       "height": 16.0,
       "rotation": -0.0,
       "visible": true,
       "properties": [
        {
         "name": "image_index",
         "type": "int",
         "value": 43
        },
        {
         "name": "submenu",
         "type": "float",
         "value": 49.0
        }
       ]
      },
      {
       "id": 541,
       "name": "",
       "type": "obj_menu_button",
       "gid": 159,
       "x": 406.0,
       "y": 10.0,
       "width": 180.0,
       "height": 16.0,
       "rotation": -0.0,
       "visible": true,
       "properties": [
        {
         "name": "image_index",
         "type": "int",
         "value": 44
        },
        {
         "name": "submenu",
         "type": "float",
         "value": 49.0
        }
       ]
      }
     ]
    },
    {
     "type": "objectgroup",
     "id": 13,
     "name": "ExtraAchivements",
     "draworder": "index",
     "opacity": 1.0,
     "visible": false,
     "x": 0,
     "y": 0,
     "objects": [
      {
       "id": 479,
       "name": "",
       "type": "obj_menu_achvarrow",
       "gid": 158,
       "x": 198.0,
       "y": 40.0,
       "width": 84.0,
       "height": 9.0,
       "rotation": -0.0,
       "visible": true
      },
      {
       "id": 480,
       "name": "",
       "type": "obj_menu_achvarrow",
       "gid": 1073741982,
       "x": 198.0,
       "y": 219.0,
       "width": 84.0,
       "height": 9.0,
       "rotation": -0.0,
       "visible": true
      }
     ],
     "properties": [
      {
       "name": "depth",
       "type": "int",
       "value": 900
      }
     ]
    },
    {
     "type": "objectgroup",
     "id": 14,
     "name": "ExtraBack",
     "draworder": "index",
     "opacity": 1.0,
     "visible": false,
     "x": 0,
     "y": 0,
     "objects": [],
     "properties": [
      {
       "name": "depth",
       "type": "int",
       "value": 800
      }
     ]
    },
    {
     "type": "objectgroup",
     "id": 15,
     "name": "ExtraPenis",
     "draworder": "index",
     "opacity": 1.0,
     "visible": false,
     "x": 0,
     "y": 0,
     "objects": [
      {
       "id": 467,
       "name": "",
       "type": "obj_menu_pet",
       "gid": 176,
       "x": 64.0,
       "y": 48.0,
       "width": 64.0,
       "height": 69.0,
       "rotation": -0.0,
       "visible": true,
       "properties": [
        {
         "name": "price",
         "type": "float",
         "value": 0.0
        },
        {
         "name": "index",
         "type": "float",
         "value": -1.0
        },
        {
         "name": "submenu",
         "type": "float",
         "value": 44.0
        },
        {
         "name": "bcolumn",
         "type": "float",
         "value": 0.0
        },
        {
         "name": "bid",
         "type": "float",
         "value": 0.0
        }
       ]
      },
      {
       "id": 468,
       "name": "",
       "type": "obj_menu_pet",
       "gid": 176,
       "x": 152.0,
       "y": 48.0,
       "width": 64.0,
       "height": 69.0,
       "rotation": -0.0,
       "visible": true,
       "properties": [
        {
         "name": "price",
         "type": "float",
         "value": 250.0
        },
        {
         "name": "index",
         "type": "float",
         "value": 0.0
        },
        {
         "name": "submenu",
         "type": "float",
         "value": 44.0
        },
        {
         "name": "bcolumn",
         "type": "float",
         "value": 1.0
        },
        {
         "name": "bid",
         "type": "float",
         "value": 0.0
        }
       ]
      },
      {
       "id": 469,
       "name": "",
       "type": "obj_menu_pet",
       "gid": 176,
       "x": 264.0,
       "y": 48.0,
       "width": 64.0,
       "height": 69.0,
       "rotation": -0.0,
       "visible": true,
       "properties": [
        {
         "name": "price",
         "type": "float",
         "value": 275.0
        },
        {
         "name": "index",
         "type": "float",
         "value": 1.0
        },
        {
         "name": "submenu",
         "type": "float",
         "value": 44.0
        },
        {
         "name": "bcolumn",
         "type": "float",
         "value": 2.0
        },
        {
         "name": "bid",
         "type": "float",
         "value": 0.0
        }
       ]
      },
      {
       "id": 470,
       "name": "",
       "type": "obj_menu_pet",
       "gid": 176,
       "x": 352.0,
       "y": 48.0,
       "width": 64.0,
       "height": 69.0,
       "rotation": -0.0,
       "visible": true,
       "properties": [
        {
         "name": "price",
         "type": "float",
         "value": 250.0
        },
        {
         "name": "index",
         "type": "float",
         "value": 2.0
        },
        {
         "name": "submenu",
         "type": "float",
         "value": 44.0
        },
        {
         "name": "bcolumn",
         "type": "float",
         "value": 3.0
        },
        {
         "name": "bid",
         "type": "float",
         "value": 0.0
        }
       ]
      },
      {
       "id": 471,
       "name": "",
       "type": "obj_menu_pet",
       "gid": 176,
       "x": 64.0,
       "y": 144.0,
       "width": 64.0,
       "height": 69.0,
       "rotation": -0.0,
       "visible": true,
       "properties": [
        {
         "name": "price",
         "type": "float",
         "value": 300.0
        },
        {
         "name": "index",
         "type": "float",
         "value": 3.0
        },
        {
         "name": "submenu",
         "type": "float",
         "value": 44.0
        },
        {
         "name": "bcolumn",
         "type": "float",
         "value": 0.0
        },
        {
         "name": "bid",
         "type": "float",
         "value": 1.0
        }
       ]
      },
      {
       "id": 472,
       "name": "",
       "type": "obj_menu_pet",
       "gid": 176,
       "x": 152.0,
       "y": 144.0,
       "width": 64.0,
       "height": 69.0,
       "rotation": -0.0,
       "visible": true,
       "properties": [
        {
         "name": "price",
         "type": "float",
         "value": 275.0
        },
        {
         "name": "index",
         "type": "float",
         "value": 4.0
        },
        {
         "name": "submenu",
         "type": "float",
         "value": 44.0
        },
        {
         "name": "bcolumn",
         "type": "float",
         "value": 1.0
        },
        {
         "name": "bid",
         "type": "float",
         "value": 1.0
        }
       ]
      },
      {
       "id": 473,
       "name": "",
       "type": "obj_menu_pet",
       "gid": 176,
       "x": 264.0,
       "y": 144.0,
       "width": 64.0,
       "height": 69.0,
       "rotation": -0.0,
       "visible": true,
       "properties": [
        {
         "name": "price",
         "type": "float",
         "value": 250.0
        },
        {
         "name": "index",
         "type": "float",
         "value": 5.0
        },
        {
         "name": "submenu",
         "type": "float",
         "value": 44.0
        },
        {
         "name": "bcolumn",
         "type": "float",
         "value": 2.0
        },
        {
         "name": "bid",
         "type": "float",
         "value": 1.0
        }
       ]
      },
      {
       "id": 474,
       "name": "",
       "type": "obj_menu_pet",
       "gid": 176,
       "x": 352.0,
       "y": 144.0,
       "width": 64.0,
       "height": 69.0,
       "rotation": -0.0,
       "visible": true,
       "properties": [
        {
         "name": "price",
         "type": "float",
         "value": 250.0
        },
        {
         "name": "index",
         "type": "float",
         "value": 6.0
        },
        {
         "name": "submenu",
         "type": "float",
         "value": 44.0
        },
        {
         "name": "bcolumn",
         "type": "float",
         "value": 3.0
        },
        {
         "name": "bid",
         "type": "float",
         "value": 1.0
        }
       ]
      }
     ],
     "properties": [
      {
       "name": "depth",
       "type": "int",
       "value": 700
      }
     ]
    },
    {
     "type": "objectgroup",
     "id": 63,
     "name": "ExtraPets2",
     "draworder": "index",
     "opacity": 1.0,
     "visible": false,
     "x": 0,
     "y": 0,
     "objects": [
      {
       "id": 501,
       "name": "",
       "type": "obj_menu_pet",
       "gid": 176,
       "x": 8.0,
       "y": 48.0,
       "width": 64.0,
       "height": 69.0,
       "rotation": -0.0,
       "visible": true,
       "properties": [
        {
         "name": "index",
         "type": "float",
         "value": 7.0
        },
        {
         "name": "submenu",
         "type": "float",
         "value": 45.0
        },
        {
         "name": "bid",
         "type": "float",
         "value": 0.0
        },
        {
         "name": "bcolumn",
         "type": "float",
         "value": 0.0
        }
       ]
      },
      {
       "id": 502,
       "name": "",
       "type": "obj_menu_pet",
       "gid": 176,
       "x": 88.0,
       "y": 48.0,
       "width": 64.0,
       "height": 69.0,
       "rotation": -0.0,
       "visible": true,
       "properties": [
        {
         "name": "index",
         "type": "float",
         "value": 8.0
        },
        {
         "name": "submenu",
         "type": "float",
         "value": 45.0
        },
        {
         "name": "bid",
         "type": "float",
         "value": 0.0
        },
        {
         "name": "bcolumn",
         "type": "float",
         "value": 1.0
        }
       ]
      },
      {
       "id": 503,
       "name": "",
       "type": "obj_menu_pet",
       "gid": 176,
       "x": 168.0,
       "y": 48.0,
       "width": 64.0,
       "height": 69.0,
       "rotation": -0.0,
       "visible": true,
       "properties": [
        {
         "name": "index",
         "type": "float",
         "value": 9.0
        },
        {
         "name": "submenu",
         "type": "float",
         "value": 45.0
        },
        {
         "name": "bid",
         "type": "float",
         "value": 0.0
        },
        {
         "name": "bcolumn",
         "type": "float",
         "value": 2.0
        }
       ]
      },
      {
       "id": 504,
       "name": "",
       "type": "obj_menu_pet",
       "gid": 176,
       "x": 248.0,
       "y": 48.0,
       "width": 64.0,
       "height": 69.0,
       "rotation": -0.0,
       "visible": true,
       "properties": [
        {
         "name": "index",
         "type": "float",
         "value": 10.0
        },
        {
         "name": "submenu",
         "type": "float",
         "value": 45.0
        },
        {
         "name": "bid",
         "type": "float",
         "value": 0.0
        },
        {
         "name": "bcolumn",
         "type": "float",
         "value": 3.0
        }
       ]
      },
      {
       "id": 505,
       "name": "",
       "type": "obj_menu_pet",
       "gid": 176,
       "x": 328.0,
       "y": 48.0,
       "width": 64.0,
       "height": 69.0,
       "rotation": -0.0,
       "visible": true,
       "properties": [
        {
         "name": "index",
         "type": "float",
         "value": 11.0
        },
        {
         "name": "submenu",
         "type": "float",
         "value": 45.0
        },
        {
         "name": "bid",
         "type": "float",
         "value": 0.0
        },
        {
         "name": "bcolumn",
         "type": "float",
         "value": 4.0
        }
       ]
      },
      {
       "id": 506,
       "name": "",
       "type": "obj_menu_pet",
       "gid": 176,
       "x": 408.0,
       "y": 48.0,
       "width": 64.0,
       "height": 69.0,
       "rotation": -0.0,
       "visible": true,
       "properties": [
        {
         "name": "index",
         "type": "float",
         "value": 12.0
        },
        {
         "name": "submenu",
         "type": "float",
         "value": 45.0
        },
        {
         "name": "bid",
         "type": "float",
         "value": 0.0
        },
        {
         "name": "bcolumn",
         "type": "float",
         "value": 5.0
        }
       ]
      },
      {
       "id": 507,
       "name": "",
       "type": "obj_menu_pet",
       "gid": 176,
       "x": 8.0,
       "y": 144.0,
       "width": 64.0,
       "height": 69.0,
       "rotation": -0.0,
       "visible": true,
       "properties": [
        {
         "name": "index",
         "type": "float",
         "value": 13.0
        },
        {
         "name": "submenu",
         "type": "float",
         "value": 45.0
        },
        {
         "name": "bid",
         "type": "float",
         "value": 1.0
        },
        {
         "name": "bcolumn",
         "type": "float",
         "value": 0.0
        }
       ]
      },
      {
       "id": 508,
       "name": "",
       "type": "obj_menu_pet",
       "gid": 176,
       "x": 88.0,
       "y": 144.0,
       "width": 64.0,
       "height": 69.0,
       "rotation": -0.0,
       "visible": true,
       "properties": [
        {
         "name": "index",
         "type": "float",
         "value": 14.0
        },
        {
         "name": "submenu",
         "type": "float",
         "value": 45.0
        },
        {
         "name": "bid",
         "type": "float",
         "value": 1.0
        },
        {
         "name": "bcolumn",
         "type": "float",
         "value": 1.0
        }
       ]
      },
      {
       "id": 509,
       "name": "",
       "type": "obj_menu_pet",
       "gid": 176,
       "x": 168.0,
       "y": 144.0,
       "width": 64.0,
       "height": 69.0,
       "rotation": -0.0,
       "visible": true,
       "properties": [
        {
         "name": "index",
         "type": "float",
         "value": 15.0
        },
        {
         "name": "submenu",
         "type": "float",
         "value": 45.0
        },
        {
         "name": "bid",
         "type": "float",
         "value": 1.0
        },
        {
         "name": "bcolumn",
         "type": "float",
         "value": 2.0
        }
       ]
      },
      {
       "id": 510,
       "name": "",
       "type": "obj_menu_pet",
       "gid": 176,
       "x": 248.0,
       "y": 144.0,
       "width": 64.0,
       "height": 69.0,
       "rotation": -0.0,
       "visible": true,
       "properties": [
        {
         "name": "index",
         "type": "float",
         "value": 16.0
        },
        {
         "name": "submenu",
         "type": "float",
         "value": 45.0
        },
        {
         "name": "bid",
         "type": "float",
         "value": 1.0
        },
        {
         "name": "bcolumn",
         "type": "float",
         "value": 3.0
        }
       ]
      },
      {
       "id": 511,
       "name": "",
       "type": "obj_menu_pet",
       "gid": 176,
       "x": 328.0,
       "y": 144.0,
       "width": 64.0,
       "height": 69.0,
       "rotation": -0.0,
       "visible": true,
       "properties": [
        {
         "name": "index",
         "type": "float",
         "value": 17.0
        },
        {
         "name": "submenu",
         "type": "float",
         "value": 45.0
        },
        {
         "name": "bid",
         "type": "float",
         "value": 1.0
        },
        {
         "name": "bcolumn",
         "type": "float",
         "value": 4.0
        }
       ]
      },
      {
       "id": 512,
       "name": "",
       "type": "obj_menu_pet",
       "gid": 176,
       "x": 408.0,
       "y": 144.0,
       "width": 64.0,
       "height": 69.0,
       "rotation": -0.0,
       "visible": true,
       "properties": [
        {
         "name": "index",
         "type": "float",
         "value": 18.0
        },
        {
         "name": "submenu",
         "type": "float",
         "value": 45.0
        },
        {
         "name": "bid",
         "type": "float",
         "value": 1.0
        },
        {
         "name": "bcolumn",
         "type": "float",
         "value": 5.0
        }
       ]
      }
     ],
     "properties": [
      {
       "name": "depth",
       "type": "int",
       "value": 680
      }
     ]
    },
    {
     "type": "objectgroup",
     "id": 64,
     "name": "ExtraPets3",
     "draworder": "index",
     "opacity": 1.0,
     "visible": false,
     "x": 0,
     "y": 0,
     "objects": [
      {
       "id": 521,
       "name": "",
       "type": "obj_menu_pet",
       "gid": 176,
       "x": 8.0,
       "y": 48.0,
       "width": 64.0,
       "height": 69.0,
       "rotation": -0.0,
       "visible": true,
       "properties": [
        {
         "name": "index",
         "type": "float",
         "value": 19.0
        },
        {
         "name": "submenu",
         "type": "float",
         "value": 46.0
        },
        {
         "name": "bid",
         "type": "float",
         "value": 0.0
        },
        {
         "name": "bcolumn",
         "type": "float",
         "value": 0.0
        }
       ]
      },
      {
       "id": 522,
       "name": "",
       "type": "obj_menu_pet",
       "gid": 176,
       "x": 88.0,
       "y": 48.0,
       "width": 64.0,
       "height": 69.0,
       "rotation": -0.0,
       "visible": true,
       "properties": [
        {
         "name": "index",
         "type": "float",
         "value": 20.0
        },
        {
         "name": "submenu",
         "type": "float",
         "value": 46.0
        },
        {
         "name": "bid",
         "type": "float",
         "value": 0.0
        },
        {
         "name": "bcolumn",
         "type": "float",
         "value": 1.0
        }
       ]
      },
      {
       "id": 523,
       "name": "",
       "type": "obj_menu_pet",
       "gid": 176,
       "x": 168.0,
       "y": 48.0,
       "width": 64.0,
       "height": 69.0,
       "rotation": -0.0,
       "visible": true,
       "properties": [
        {
         "name": "index",
         "type": "float",
         "value": 21.0
        },
        {
         "name": "submenu",
         "type": "float",
         "value": 46.0
        },
        {
         "name": "bid",
         "type": "float",
         "value": 0.0
        },
        {
         "name": "bcolumn",
         "type": "float",
         "value": 2.0
        }
       ]
      },
      {
       "id": 524,
       "name": "",
       "type": "obj_menu_pet",
       "gid": 176,
       "x": 248.0,
       "y": 48.0,
       "width": 64.0,
       "height": 69.0,
       "rotation": -0.0,
       "visible": true,
       "properties": [
        {
         "name": "index",
         "type": "float",
         "value": 22.0
        },
        {
         "name": "submenu",
         "type": "float",
         "value": 46.0
        },
        {
         "name": "bid",
         "type": "float",
         "value": 0.0
        },
        {
         "name": "bcolumn",
         "type": "float",
         "value": 3.0
        }
       ]
      },
      {
       "id": 525,
       "name": "",
       "type": "obj_menu_pet",
       "gid": 176,
       "x": 328.0,
       "y": 48.0,
       "width": 64.0,
       "height": 69.0,
       "rotation": -0.0,
       "visible": true,
       "properties": [
        {
         "name": "index",
         "type": "float",
         "value": 23.0
        },
        {
         "name": "submenu",
         "type": "float",
         "value": 46.0
        },
        {
         "name": "bid",
         "type": "float",
         "value": 0.0
        },
        {
         "name": "bcolumn",
         "type": "float",
         "value": 4.0
        }
       ]
      },
      {
       "id": 526,
       "name": "",
       "type": "obj_menu_pet",
       "gid": 176,
       "x": 408.0,
       "y": 48.0,
       "width": 64.0,
       "height": 69.0,
       "rotation": -0.0,
       "visible": true,
       "properties": [
        {
         "name": "index",
         "type": "float",
         "value": 24.0
        },
        {
         "name": "submenu",
         "type": "float",
         "value": 46.0
        },
        {
         "name": "bid",
         "type": "float",
         "value": 0.0
        },
        {
         "name": "bcolumn",
         "type": "float",
         "value": 5.0
        }
       ]
      },
      {
       "id": 527,
       "name": "",
       "type": "obj_menu_pet",
       "gid": 176,
       "x": 8.0,
       "y": 144.0,
       "width": 64.0,
       "height": 69.0,
       "rotation": -0.0,
       "visible": true,
       "properties": [
        {
         "name": "index",
         "type": "float",
         "value": 25.0
        },
        {
         "name": "submenu",
         "type": "float",
         "value": 46.0
        },
        {
         "name": "bid",
         "type": "float",
         "value": 1.0
        },
        {
         "name": "bcolumn",
         "type": "float",
         "value": 0.0
        }
       ]
      },
      {
       "id": 528,
       "name": "",
       "type": "obj_menu_pet",
       "gid": 176,
       "x": 88.0,
       "y": 144.0,
       "width": 64.0,
       "height": 69.0,
       "rotation": -0.0,
       "visible": true,
       "properties": [
        {
         "name": "index",
         "type": "float",
         "value": 26.0
        },
        {
         "name": "submenu",
         "type": "float",
         "value": 46.0
        },
        {
         "name": "bid",
         "type": "float",
         "value": 1.0
        },
        {
         "name": "bcolumn",
         "type": "float",
         "value": 1.0
        }
       ]
      },
      {
       "id": 529,
       "name": "",
       "type": "obj_menu_pet",
       "gid": 176,
       "x": 168.0,
       "y": 144.0,
       "width": 64.0,
       "height": 69.0,
       "rotation": -0.0,
       "visible": true,
       "properties": [
        {
         "name": "index",
         "type": "float",
         "value": 27.0
        },
        {
         "name": "submenu",
         "type": "float",
         "value": 46.0
        },
        {
         "name": "bid",
         "type": "float",
         "value": 1.0
        },
        {
         "name": "bcolumn",
         "type": "float",
         "value": 2.0
        }
       ]
      },
      {
       "id": 530,
       "name": "",
       "type": "obj_menu_pet",
       "gid": 176,
       "x": 248.0,
       "y": 144.0,
       "width": 64.0,
       "height": 69.0,
       "rotation": -0.0,
       "visible": true,
       "properties": [
        {
         "name": "index",
         "type": "float",
         "value": 28.0
        },
        {
         "name": "submenu",
         "type": "float",
         "value": 46.0
        },
        {
         "name": "bid",
         "type": "float",
         "value": 1.0
        },
        {
         "name": "bcolumn",
         "type": "float",
         "value": 3.0
        }
       ]
      }
     ],
     "properties": [
      {
       "name": "depth",
       "type": "int",
       "value": 670
      }
     ]
    },
    {
     "type": "group",
     "id": 16,
     "name": "Skins",
     "opacity": 1.0,
     "visible": false,
     "x": 0,
     "y": 0,
     "layers": [
      {
       "type": "objectgroup",
       "id": 17,
       "name": "ExtraTails",
       "draworder": "index",
       "opacity": 1.0,
       "visible": false,
       "x": 0,
       "y": 0,
       "objects": [
        {
         "id": 270,
         "name": "",
         "type": "obj_menu_skin",
         "gid": 179,
         "x": 40.0,
         "y": 48.0,
         "width": 64.0,
         "height": 85.0,
         "rotation": -0.0,
         "visible": true,
         "properties": [
          {
           "name": "submenu",
           "type": "float",
           "value": 30.0
          },
          {
           "name": "bid",
           "type": "float",
           "value": 1.0
          },
          {
           "name": "bcolumn",
           "type": "float",
           "value": 0.0
          },
          {
           "name": "character",
           "type": "float",
           "value": 1.0
          }
         ]
        },
        {
         "id": 271,
         "name": "",
         "type": "obj_menu_skin",
         "gid": 179,
         "x": 152.0,
         "y": 48.0,
         "width": 64.0,
         "height": 85.0,
         "rotation": -0.0,
         "visible": true,
         "properties": [
          {
           "name": "bcolumn",
           "type": "float",
           "value": 1.0
          },
          {
           "name": "submenu",
           "type": "float",
           "value": 30.0
          },
          {
           "name": "bid",
           "type": "float",
           "value": 1.0
          },
          {
           "name": "character",
           "type": "float",
           "value": 1.0
          },
          {
           "name": "palette",
           "type": "float",
           "value": 0.0
          },
          {
           "name": "price",
           "type": "float",
           "value": 100.0
          },
          {
           "name": "tradeName",
           "type": "string",
           "value": "t1"
          }
         ]
        },
        {
         "id": 272,
         "name": "",
         "type": "obj_menu_skin",
         "gid": 179,
         "x": 264.0,
         "y": 48.0,
         "width": 64.0,
         "height": 85.0,
         "rotation": -0.0,
         "visible": true,
         "properties": [
          {
           "name": "bcolumn",
           "type": "float",
           "value": 2.0
          },
          {
           "name": "bid",
           "type": "float",
           "value": 1.0
          },
          {
           "name": "submenu",
           "type": "float",
           "value": 30.0
          },
          {
           "name": "character",
           "type": "float",
           "value": 1.0
          },
          {
           "name": "palette",
           "type": "float",
           "value": 1.0
          },
          {
           "name": "price",
           "type": "float",
           "value": 100.0
          },
          {
           "name": "tradeName",
           "type": "string",
           "value": "t2"
          }
         ]
        },
        {
         "id": 273,
         "name": "",
         "type": "obj_menu_skin",
         "gid": 179,
         "x": 376.0,
         "y": 48.0,
         "width": 64.0,
         "height": 85.0,
         "rotation": -0.0,
         "visible": true,
         "properties": [
          {
           "name": "bcolumn",
           "type": "float",
           "value": 3.0
          },
          {
           "name": "bid",
           "type": "float",
           "value": 1.0
          },
          {
           "name": "submenu",
           "type": "float",
           "value": 30.0
          },
          {
           "name": "character",
           "type": "float",
           "value": 1.0
          },
          {
           "name": "palette",
           "type": "float",
           "value": 2.0
          },
          {
           "name": "price",
           "type": "float",
           "value": 150.0
          },
          {
           "name": "tradeName",
           "type": "string",
           "value": "tc1"
          }
         ]
        },
        {
         "id": 274,
         "name": "",
         "type": "obj_menu_skin",
         "gid": 179,
         "x": 40.0,
         "y": 140.0,
         "width": 64.0,
         "height": 85.0,
         "rotation": -0.0,
         "visible": true,
         "properties": [
          {
           "name": "bid",
           "type": "float",
           "value": 2.0
          },
          {
           "name": "submenu",
           "type": "float",
           "value": 30.0
          },
          {
           "name": "bcolumn",
           "type": "float",
           "value": 0.0
          },
          {
           "name": "character",
           "type": "float",
           "value": 1.0
          },
          {
           "name": "demon",
           "type": "bool",
           "value": true
          }
         ]
        },
        {
         "id": 275,
         "name": "",
         "type": "obj_menu_skin",
         "gid": 179,
         "x": 152.0,
         "y": 140.0,
         "width": 64.0,
         "height": 85.0,
         "rotation": -0.0,
         "visible": true,
         "properties": [
          {
           "name": "bcolumn",
           "type": "float",
           "value": 1.0
          },
          {
           "name": "bid",
           "type": "float",
           "value": 2.0
          },
          {
           "name": "submenu",
           "type": "float",
           "value": 30.0
          },
          {
           "name": "character",
           "type": "float",
           "value": 1.0
          },
          {
           "name": "demon",
           "type": "bool",
           "value": true
          },
          {
           "name": "palette",
           "type": "float",
           "value": 0.0
          },
          {
           "name": "price",
           "type": "float",
           "value": 100.0
          },
          {
           "name": "tradeName",
           "type": "string",
           "value": "te1"
          }
         ]
        },
        {
         "id": 276,
         "name": "",
         "type": "obj_menu_skin",
         "gid": 179,
         "x": 264.0,
         "y": 140.0,
         "width": 64.0,
         "height": 85.0,
         "rotation": -0.0,
         "visible": true,
         "properties": [
          {
           "name": "bcolumn",
           "type": "float",
           "value": 2.0
          },
          {
           "name": "bid",
           "type": "float",
           "value": 2.0
          },
          {
           "name": "submenu",
           "type": "float",
           "value": 30.0
          },
          {
           "name": "character",
           "type": "float",
           "value": 1.0
          },
          {
           "name": "demon",
           "type": "bool",
           "value": true
          },
          {
           "name": "palette",
           "type": "float",
           "value": 1.0
          },
          {
           "name": "price",
           "type": "float",
           "value": 100.0
          },
          {
           "name": "tradeName",
           "type": "string",
           "value": "te2"
          }
         ]
        },
        {
         "id": 277,
         "name": "",
         "type": "obj_menu_skin",
         "gid": 179,
         "x": 376.0,
         "y": 140.0,
         "width": 64.0,
         "height": 85.0,
         "rotation": -0.0,
         "visible": true,
         "properties": [
          {
           "name": "bcolumn",
           "type": "float",
           "value": 3.0
          },
          {
           "name": "bid",
           "type": "float",
           "value": 2.0
          },
          {
           "name": "submenu",
           "type": "float",
           "value": 30.0
          },
          {
           "name": "character",
           "type": "float",
           "value": 1.0
          },
          {
           "name": "demon",
           "type": "bool",
           "value": true
          },
          {
           "name": "palette",
           "type": "float",
           "value": 2.0
          },
          {
           "name": "price",
           "type": "float",
           "value": 150.0
          },
          {
           "name": "tradeName",
           "type": "string",
           "value": "tec1"
          }
         ]
        }
       ],
       "properties": [
        {
         "name": "depth",
         "type": "int",
         "value": 600
        }
       ]
      },
      {
       "type": "objectgroup",
       "id": 18,
       "name": "ExtraKnux",
       "draworder": "index",
       "opacity": 1.0,
       "visible": false,
       "x": 0,
       "y": 0,
       "objects": [
        {
         "id": 286,
         "name": "",
         "type": "obj_menu_skin",
         "gid": 179,
         "x": 40.0,
         "y": 48.0,
         "width": 64.0,
         "height": 85.0,
         "rotation": -0.0,
         "visible": true,
         "properties": [
          {
           "name": "submenu",
           "type": "float",
           "value": 31.0
          },
          {
           "name": "bid",
           "type": "float",
           "value": 1.0
          },
          {
           "name": "bcolumn",
           "type": "float",
           "value": 0.0
          },
          {
           "name": "character",
           "type": "float",
           "value": 2.0
          }
         ]
        },
        {
         "id": 287,
         "name": "",
         "type": "obj_menu_skin",
         "gid": 179,
         "x": 152.0,
         "y": 48.0,
         "width": 64.0,
         "height": 85.0,
         "rotation": -0.0,
         "visible": true,
         "properties": [
          {
           "name": "bcolumn",
           "type": "float",
           "value": 1.0
          },
          {
           "name": "submenu",
           "type": "float",
           "value": 31.0
          },
          {
           "name": "bid",
           "type": "float",
           "value": 1.0
          },
          {
           "name": "character",
           "type": "float",
           "value": 2.0
          },
          {
           "name": "palette",
           "type": "float",
           "value": 0.0
          },
          {
           "name": "price",
           "type": "float",
           "value": 100.0
          },
          {
           "name": "tradeName",
           "type": "string",
           "value": "kt1"
          }
         ]
        },
        {
         "id": 288,
         "name": "",
         "type": "obj_menu_skin",
         "gid": 179,
         "x": 264.0,
         "y": 48.0,
         "width": 64.0,
         "height": 85.0,
         "rotation": -0.0,
         "visible": true,
         "properties": [
          {
           "name": "bcolumn",
           "type": "float",
           "value": 2.0
          },
          {
           "name": "bid",
           "type": "float",
           "value": 1.0
          },
          {
           "name": "submenu",
           "type": "float",
           "value": 31.0
          },
          {
           "name": "character",
           "type": "float",
           "value": 2.0
          },
          {
           "name": "palette",
           "type": "float",
           "value": 1.0
          },
          {
           "name": "price",
           "type": "float",
           "value": 100.0
          },
          {
           "name": "tradeName",
           "type": "string",
           "value": "kt2"
          }
         ]
        },
        {
         "id": 289,
         "name": "",
         "type": "obj_menu_skin",
         "gid": 179,
         "x": 376.0,
         "y": 48.0,
         "width": 64.0,
         "height": 85.0,
         "rotation": -0.0,
         "visible": true,
         "properties": [
          {
           "name": "bcolumn",
           "type": "float",
           "value": 3.0
          },
          {
           "name": "bid",
           "type": "float",
           "value": 1.0
          },
          {
           "name": "submenu",
           "type": "float",
           "value": 31.0
          },
          {
           "name": "character",
           "type": "float",
           "value": 2.0
          },
          {
           "name": "palette",
           "type": "float",
           "value": 2.0
          },
          {
           "name": "price",
           "type": "float",
           "value": 150.0
          },
          {
           "name": "tradeName",
           "type": "string",
           "value": "ktc"
          }
         ]
        },
        {
         "id": 290,
         "name": "",
         "type": "obj_menu_skin",
         "gid": 179,
         "x": 40.0,
         "y": 140.0,
         "width": 64.0,
         "height": 85.0,
         "rotation": -0.0,
         "visible": true,
         "properties": [
          {
           "name": "bid",
           "type": "float",
           "value": 2.0
          },
          {
           "name": "submenu",
           "type": "float",
           "value": 31.0
          },
          {
           "name": "bcolumn",
           "type": "float",
           "value": 0.0
          },
          {
           "name": "character",
           "type": "float",
           "value": 2.0
          },
          {
           "name": "demon",
           "type": "bool",
           "value": true
          }
         ]
        },
        {
         "id": 291,
         "name": "",
         "type": "obj_menu_skin",
         "gid": 179,
         "x": 152.0,
         "y": 140.0,
         "width": 64.0,
         "height": 85.0,
         "rotation": -0.0,
         "visible": true,
         "properties": [
          {
           "name": "bcolumn",
           "type": "float",
           "value": 1.0
          },
          {
           "name": "bid",
           "type": "float",
           "value": 2.0
          },
          {
           "name": "submenu",
           "type": "float",
           "value": 31.0
          },
          {
           "name": "character",
           "type": "float",
           "value": 2.0
          },
          {
           "name": "demon",
           "type": "bool",
           "value": true
          },
          {
           "name": "palette",
           "type": "float",
           "value": 0.0
          },
          {
           "name": "price",
           "type": "float",
           "value": 100.0
          },
          {
           "name": "tradeName",
           "type": "string",
           "value": "ekt1"
          }
         ]
        },
        {
         "id": 292,
         "name": "",
         "type": "obj_menu_skin",
         "gid": 179,
         "x": 264.0,
         "y": 140.0,
         "width": 64.0,
         "height": 85.0,
         "rotation": -0.0,
         "visible": true,
         "properties": [
          {
           "name": "bcolumn",
           "type": "float",
           "value": 2.0
          },
          {
           "name": "bid",
           "type": "float",
           "value": 2.0
          },
          {
           "name": "submenu",
           "type": "float",
           "value": 31.0
          },
          {
           "name": "character",
           "type": "float",
           "value": 2.0
          },
          {
           "name": "demon",
           "type": "bool",
           "value": true
          },
          {
           "name": "palette",
           "type": "float",
           "value": 1.0
          },
          {
           "name": "price",
           "type": "float",
           "value": 100.0
          },
          {
           "name": "tradeName",
           "type": "string",
           "value": "ekt2"
          }
         ]
        },
        {
         "id": 293,
         "name": "",
         "type": "obj_menu_skin",
         "gid": 179,
         "x": 376.0,
         "y": 140.0,
         "width": 64.0,
         "height": 85.0,
         "rotation": -0.0,
         "visible": true,
         "properties": [
          {
           "name": "bcolumn",
           "type": "float",
           "value": 3.0
          },
          {
           "name": "bid",
           "type": "float",
           "value": 2.0
          },
          {
           "name": "submenu",
           "type": "float",
           "value": 31.0
          },
          {
           "name": "character",
           "type": "float",
           "value": 2.0
          },
          {
           "name": "demon",
           "type": "bool",
           "value": true
          },
          {
           "name": "palette",
           "type": "float",
           "value": 2.0
          },
          {
           "name": "price",
           "type": "float",
           "value": 150.0
          },
          {
           "name": "tradeName",
           "type": "string",
           "value": "ektc"
          }
         ]
        }
       ],
       "properties": [
        {
         "name": "depth",
         "type": "int",
         "value": 500
        }
       ]
      },
      {
       "type": "objectgroup",
       "id": 19,
       "name": "ExtraEgg",
       "draworder": "index",
       "opacity": 1.0,
       "visible": false,
       "x": 0,
       "y": 0,
       "objects": [
        {
         "id": 302,
         "name": "",
         "type": "obj_menu_skin",
         "gid": 179,
         "x": 40.0,
         "y": 48.0,
         "width": 64.0,
         "height": 85.0,
         "rotation": -0.0,
         "visible": true,
         "properties": [
          {
           "name": "submenu",
           "type": "float",
           "value": 32.0
          },
          {
           "name": "bid",
           "type": "float",
           "value": 1.0
          },
          {
           "name": "bcolumn",
           "type": "float",
           "value": 0.0
          },
          {
           "name": "character",
           "type": "float",
           "value": 3.0
          }
         ]
        },
        {
         "id": 303,
         "name": "",
         "type": "obj_menu_skin",
         "gid": 179,
         "x": 152.0,
         "y": 48.0,
         "width": 64.0,
         "height": 85.0,
         "rotation": -0.0,
         "visible": true,
         "properties": [
          {
           "name": "bcolumn",
           "type": "float",
           "value": 1.0
          },
          {
           "name": "submenu",
           "type": "float",
           "value": 32.0
          },
          {
           "name": "bid",
           "type": "float",
           "value": 1.0
          },
          {
           "name": "character",
           "type": "float",
           "value": 3.0
          },
          {
           "name": "palette",
           "type": "float",
           "value": 0.0
          },
          {
           "name": "price",
           "type": "float",
           "value": 100.0
          },
          {
           "name": "tradeName",
           "type": "string",
           "value": "egg1"
          }
         ]
        },
        {
         "id": 304,
         "name": "",
         "type": "obj_menu_skin",
         "gid": 179,
         "x": 264.0,
         "y": 48.0,
         "width": 64.0,
         "height": 85.0,
         "rotation": -0.0,
         "visible": true,
         "properties": [
          {
           "name": "bcolumn",
           "type": "float",
           "value": 2.0
          },
          {
           "name": "bid",
           "type": "float",
           "value": 1.0
          },
          {
           "name": "submenu",
           "type": "float",
           "value": 32.0
          },
          {
           "name": "character",
           "type": "float",
           "value": 3.0
          },
          {
           "name": "palette",
           "type": "float",
           "value": 1.0
          },
          {
           "name": "price",
           "type": "float",
           "value": 100.0
          },
          {
           "name": "tradeName",
           "type": "string",
           "value": "egg2"
          }
         ]
        },
        {
         "id": 305,
         "name": "",
         "type": "obj_menu_skin",
         "gid": 179,
         "x": 376.0,
         "y": 48.0,
         "width": 64.0,
         "height": 85.0,
         "rotation": -0.0,
         "visible": true,
         "properties": [
          {
           "name": "bcolumn",
           "type": "float",
           "value": 3.0
          },
          {
           "name": "bid",
           "type": "float",
           "value": 1.0
          },
          {
           "name": "submenu",
           "type": "float",
           "value": 32.0
          },
          {
           "name": "character",
           "type": "float",
           "value": 3.0
          },
          {
           "name": "palette",
           "type": "float",
           "value": 2.0
          },
          {
           "name": "price",
           "type": "float",
           "value": 150.0
          },
          {
           "name": "tradeName",
           "type": "string",
           "value": "eggc"
          }
         ]
        },
        {
         "id": 306,
         "name": "",
         "type": "obj_menu_skin",
         "gid": 179,
         "x": 40.0,
         "y": 140.0,
         "width": 64.0,
         "height": 85.0,
         "rotation": -0.0,
         "visible": true,
         "properties": [
          {
           "name": "bid",
           "type": "float",
           "value": 2.0
          },
          {
           "name": "submenu",
           "type": "float",
           "value": 32.0
          },
          {
           "name": "bcolumn",
           "type": "float",
           "value": 0.0
          },
          {
           "name": "character",
           "type": "float",
           "value": 3.0
          },
          {
           "name": "demon",
           "type": "bool",
           "value": true
          }
         ]
        },
        {
         "id": 307,
         "name": "",
         "type": "obj_menu_skin",
         "gid": 179,
         "x": 152.0,
         "y": 140.0,
         "width": 64.0,
         "height": 85.0,
         "rotation": -0.0,
         "visible": true,
         "properties": [
          {
           "name": "bcolumn",
           "type": "float",
           "value": 1.0
          },
          {
           "name": "bid",
           "type": "float",
           "value": 2.0
          },
          {
           "name": "submenu",
           "type": "float",
           "value": 32.0
          },
          {
           "name": "character",
           "type": "float",
           "value": 3.0
          },
          {
           "name": "demon",
           "type": "bool",
           "value": true
          },
          {
           "name": "palette",
           "type": "float",
           "value": 0.0
          },
          {
           "name": "price",
           "type": "float",
           "value": 100.0
          },
          {
           "name": "tradeName",
           "type": "string",
           "value": "eegg1"
          }
         ]
        },
        {
         "id": 308,
         "name": "",
         "type": "obj_menu_skin",
         "gid": 179,
         "x": 264.0,
         "y": 140.0,
         "width": 64.0,
         "height": 85.0,
         "rotation": -0.0,
         "visible": true,
         "properties": [
          {
           "name": "bcolumn",
           "type": "float",
           "value": 2.0
          },
          {
           "name": "bid",
           "type": "float",
           "value": 2.0
          },
          {
           "name": "submenu",
           "type": "float",
           "value": 32.0
          },
          {
           "name": "character",
           "type": "float",
           "value": 3.0
          },
          {
           "name": "demon",
           "type": "bool",
           "value": true
          },
          {
           "name": "palette",
           "type": "float",
           "value": 1.0
          },
          {
           "name": "price",
           "type": "float",
           "value": 100.0
          },
          {
           "name": "tradeName",
           "type": "string",
           "value": "eegg2"
          }
         ]
        },
        {
         "id": 309,
         "name": "",
         "type": "obj_menu_skin",
         "gid": 179,
         "x": 376.0,
         "y": 140.0,
         "width": 64.0,
         "height": 85.0,
         "rotation": -0.0,
         "visible": true,
         "properties": [
          {
           "name": "bcolumn",
           "type": "float",
           "value": 3.0
          },
          {
           "name": "bid",
           "type": "float",
           "value": 2.0
          },
          {
           "name": "submenu",
           "type": "float",
           "value": 32.0
          },
          {
           "name": "character",
           "type": "float",
           "value": 3.0
          },
          {
           "name": "demon",
           "type": "bool",
           "value": true
          },
          {
           "name": "palette",
           "type": "float",
           "value": 2.0
          },
          {
           "name": "price",
           "type": "float",
           "value": 150.0
          },
          {
           "name": "tradeName",
           "type": "string",
           "value": "eeggc"
          }
         ]
        }
       ],
       "properties": [
        {
         "name": "depth",
         "type": "int",
         "value": 400
        }
       ]
      },
      {
       "type": "objectgroup",
       "id": 20,
       "name": "ExtraAmy",
       "draworder": "index",
       "opacity": 1.0,
       "visible": false,
       "x": 0,
       "y": 0,
       "objects": [
        {
         "id": 318,
         "name": "",
         "type": "obj_menu_skin",
         "gid": 179,
         "x": 40.0,
         "y": 48.0,
         "width": 64.0,
         "height": 85.0,
         "rotation": -0.0,
         "visible": true,
         "properties": [
          {
           "name": "submenu",
           "type": "float",
           "value": 33.0
          },
          {
           "name": "bid",
           "type": "float",
           "value": 1.0
          },
          {
           "name": "bcolumn",
           "type": "float",
           "value": 0.0
          },
          {
           "name": "character",
           "type": "float",
           "value": 4.0
          }
         ]
        },
        {
         "id": 319,
         "name": "",
         "type": "obj_menu_skin",
         "gid": 179,
         "x": 152.0,
         "y": 48.0,
         "width": 64.0,
         "height": 85.0,
         "rotation": -0.0,
         "visible": true,
         "properties": [
          {
           "name": "bcolumn",
           "type": "float",
           "value": 1.0
          },
          {
           "name": "submenu",
           "type": "float",
           "value": 33.0
          },
          {
           "name": "bid",
           "type": "float",
           "value": 1.0
          },
          {
           "name": "character",
           "type": "float",
           "value": 4.0
          },
          {
           "name": "palette",
           "type": "float",
           "value": 0.0
          },
          {
           "name": "price",
           "type": "float",
           "value": 100.0
          },
          {
           "name": "tradeName",
           "type": "string",
           "value": "am1"
          }
         ]
        },
        {
         "id": 320,
         "name": "",
         "type": "obj_menu_skin",
         "gid": 179,
         "x": 264.0,
         "y": 48.0,
         "width": 64.0,
         "height": 85.0,
         "rotation": -0.0,
         "visible": true,
         "properties": [
          {
           "name": "bcolumn",
           "type": "float",
           "value": 2.0
          },
          {
           "name": "bid",
           "type": "float",
           "value": 1.0
          },
          {
           "name": "submenu",
           "type": "float",
           "value": 33.0
          },
          {
           "name": "character",
           "type": "float",
           "value": 4.0
          },
          {
           "name": "palette",
           "type": "float",
           "value": 1.0
          },
          {
           "name": "price",
           "type": "float",
           "value": 100.0
          },
          {
           "name": "tradeName",
           "type": "string",
           "value": "am2"
          }
         ]
        },
        {
         "id": 321,
         "name": "",
         "type": "obj_menu_skin",
         "gid": 179,
         "x": 376.0,
         "y": 48.0,
         "width": 64.0,
         "height": 85.0,
         "rotation": -0.0,
         "visible": true,
         "properties": [
          {
           "name": "bcolumn",
           "type": "float",
           "value": 3.0
          },
          {
           "name": "bid",
           "type": "float",
           "value": 1.0
          },
          {
           "name": "submenu",
           "type": "float",
           "value": 33.0
          },
          {
           "name": "character",
           "type": "float",
           "value": 4.0
          },
          {
           "name": "palette",
           "type": "float",
           "value": 2.0
          },
          {
           "name": "price",
           "type": "float",
           "value": 150.0
          },
          {
           "name": "tradeName",
           "type": "string",
           "value": "amc"
          }
         ]
        },
        {
         "id": 322,
         "name": "",
         "type": "obj_menu_skin",
         "gid": 179,
         "x": 40.0,
         "y": 140.0,
         "width": 64.0,
         "height": 85.0,
         "rotation": -0.0,
         "visible": true,
         "properties": [
          {
           "name": "bid",
           "type": "float",
           "value": 2.0
          },
          {
           "name": "submenu",
           "type": "float",
           "value": 33.0
          },
          {
           "name": "bcolumn",
           "type": "float",
           "value": 0.0
          },
          {
           "name": "character",
           "type": "float",
           "value": 4.0
          },
          {
           "name": "demon",
           "type": "bool",
           "value": true
          }
         ]
        },
        {
         "id": 323,
         "name": "",
         "type": "obj_menu_skin",
         "gid": 179,
         "x": 152.0,
         "y": 140.0,
         "width": 64.0,
         "height": 85.0,
         "rotation": -0.0,
         "visible": true,
         "properties": [
          {
           "name": "bcolumn",
           "type": "float",
           "value": 1.0
          },
          {
           "name": "bid",
           "type": "float",
           "value": 2.0
          },
          {
           "name": "submenu",
           "type": "float",
           "value": 33.0
          },
          {
           "name": "character",
           "type": "float",
           "value": 4.0
          },
          {
           "name": "demon",
           "type": "bool",
           "value": true
          },
          {
           "name": "palette",
           "type": "float",
           "value": 0.0
          },
          {
           "name": "price",
           "type": "float",
           "value": 100.0
          },
          {
           "name": "tradeName",
           "type": "string",
           "value": "eam1"
          }
         ]
        },
        {
         "id": 324,
         "name": "",
         "type": "obj_menu_skin",
         "gid": 179,
         "x": 264.0,
         "y": 140.0,
         "width": 64.0,
         "height": 85.0,
         "rotation": -0.0,
         "visible": true,
         "properties": [
          {
           "name": "bcolumn",
           "type": "float",
           "value": 2.0
          },
          {
           "name": "bid",
           "type": "float",
           "value": 2.0
          },
          {
           "name": "submenu",
           "type": "float",
           "value": 33.0
          },
          {
           "name": "character",
           "type": "float",
           "value": 4.0
          },
          {
           "name": "demon",
           "type": "bool",
           "value": true
          },
          {
           "name": "palette",
           "type": "float",
           "value": 1.0
          },
          {
           "name": "price",
           "type": "float",
           "value": 100.0
          },
          {
           "name": "tradeName",
           "type": "string",
           "value": "eam2"
          }
         ]
        },
        {
         "id": 325,
         "name": "",
         "type": "obj_menu_skin",
         "gid": 179,
         "x": 376.0,
         "y": 140.0,
         "width": 64.0,
         "height": 85.0,
         "rotation": -0.0,
         "visible": true,
         "properties": [
          {
           "name": "bcolumn",
           "type": "float",
           "value": 3.0
          },
          {
           "name": "bid",
           "type": "float",
           "value": 2.0
          },
          {
           "name": "submenu",
           "type": "float",
           "value": 33.0
          },
          {
           "name": "character",
           "type": "float",
           "value": 4.0
          },
          {
           "name": "demon",
           "type": "bool",
           "value": true
          },
          {
           "name": "palette",
           "type": "float",
           "value": 2.0
          },
          {
           "name": "price",
           "type": "float",
           "value": 150.0
          },
          {
           "name": "tradeName",
           "type": "string",
           "value": "eamc"
          }
         ]
        }
       ],
       "properties": [
        {
         "name": "depth",
         "type": "int",
         "value": 300
        }
       ]
      },
      {
       "type": "objectgroup",
       "id": 21,
       "name": "ExtraCream",
       "draworder": "index",
       "opacity": 1.0,
       "visible": false,
       "x": 0,
       "y": 0,
       "objects": [
        {
         "id": 334,
         "name": "",
         "type": "obj_menu_skin",
         "gid": 179,
         "x": 40.0,
         "y": 48.0,
         "width": 64.0,
         "height": 85.0,
         "rotation": -0.0,
         "visible": true,
         "properties": [
          {
           "name": "submenu",
           "type": "float",
           "value": 34.0
          },
          {
           "name": "bid",
           "type": "float",
           "value": 1.0
          },
          {
           "name": "bcolumn",
           "type": "float",
           "value": 0.0
          },
          {
           "name": "character",
           "type": "float",
           "value": 5.0
          }
         ]
        },
        {
         "id": 335,
         "name": "",
         "type": "obj_menu_skin",
         "gid": 179,
         "x": 152.0,
         "y": 48.0,
         "width": 64.0,
         "height": 85.0,
         "rotation": -0.0,
         "visible": true,
         "properties": [
          {
           "name": "bcolumn",
           "type": "float",
           "value": 1.0
          },
          {
           "name": "submenu",
           "type": "float",
           "value": 34.0
          },
          {
           "name": "bid",
           "type": "float",
           "value": 1.0
          },
          {
           "name": "character",
           "type": "float",
           "value": 5.0
          },
          {
           "name": "palette",
           "type": "float",
           "value": 0.0
          },
          {
           "name": "price",
           "type": "float",
           "value": 100.0
          },
          {
           "name": "tradeName",
           "type": "string",
           "value": "cr1"
          }
         ]
        },
        {
         "id": 336,
         "name": "",
         "type": "obj_menu_skin",
         "gid": 179,
         "x": 264.0,
         "y": 48.0,
         "width": 64.0,
         "height": 85.0,
         "rotation": -0.0,
         "visible": true,
         "properties": [
          {
           "name": "bcolumn",
           "type": "float",
           "value": 2.0
          },
          {
           "name": "bid",
           "type": "float",
           "value": 1.0
          },
          {
           "name": "submenu",
           "type": "float",
           "value": 34.0
          },
          {
           "name": "character",
           "type": "float",
           "value": 5.0
          },
          {
           "name": "palette",
           "type": "float",
           "value": 1.0
          },
          {
           "name": "price",
           "type": "float",
           "value": 100.0
          },
          {
           "name": "tradeName",
           "type": "string",
           "value": "cr2"
          }
         ]
        },
        {
         "id": 337,
         "name": "",
         "type": "obj_menu_skin",
         "gid": 179,
         "x": 376.0,
         "y": 48.0,
         "width": 64.0,
         "height": 85.0,
         "rotation": -0.0,
         "visible": true,
         "properties": [
          {
           "name": "bcolumn",
           "type": "float",
           "value": 3.0
          },
          {
           "name": "bid",
           "type": "float",
           "value": 1.0
          },
          {
           "name": "submenu",
           "type": "float",
           "value": 34.0
          },
          {
           "name": "character",
           "type": "float",
           "value": 5.0
          },
          {
           "name": "palette",
           "type": "float",
           "value": 2.0
          },
          {
           "name": "price",
           "type": "float",
           "value": 150.0
          },
          {
           "name": "tradeName",
           "type": "string",
           "value": "crc"
          }
         ]
        },
        {
         "id": 338,
         "name": "",
         "type": "obj_menu_skin",
         "gid": 179,
         "x": 40.0,
         "y": 140.0,
         "width": 64.0,
         "height": 85.0,
         "rotation": -0.0,
         "visible": true,
         "properties": [
          {
           "name": "bid",
           "type": "float",
           "value": 2.0
          },
          {
           "name": "submenu",
           "type": "float",
           "value": 34.0
          },
          {
           "name": "bcolumn",
           "type": "float",
           "value": 0.0
          },
          {
           "name": "character",
           "type": "float",
           "value": 5.0
          },
          {
           "name": "demon",
           "type": "bool",
           "value": true
          }
         ]
        },
        {
         "id": 339,
         "name": "",
         "type": "obj_menu_skin",
         "gid": 179,
         "x": 152.0,
         "y": 140.0,
         "width": 64.0,
         "height": 85.0,
         "rotation": -0.0,
         "visible": true,
         "properties": [
          {
           "name": "bcolumn",
           "type": "float",
           "value": 1.0
          },
          {
           "name": "bid",
           "type": "float",
           "value": 2.0
          },
          {
           "name": "submenu",
           "type": "float",
           "value": 34.0
          },
          {
           "name": "character",
           "type": "float",
           "value": 5.0
          },
          {
           "name": "demon",
           "type": "bool",
           "value": true
          },
          {
           "name": "palette",
           "type": "float",
           "value": 0.0
          },
          {
           "name": "price",
           "type": "float",
           "value": 100.0
          },
          {
           "name": "tradeName",
           "type": "string",
           "value": "ecr1"
          }
         ]
        },
        {
         "id": 340,
         "name": "",
         "type": "obj_menu_skin",
         "gid": 179,
         "x": 264.0,
         "y": 140.0,
         "width": 64.0,
         "height": 85.0,
         "rotation": -0.0,
         "visible": true,
         "properties": [
          {
           "name": "bcolumn",
           "type": "float",
           "value": 2.0
          },
          {
           "name": "bid",
           "type": "float",
           "value": 2.0
          },
          {
           "name": "submenu",
           "type": "float",
           "value": 34.0
          },
          {
           "name": "character",
           "type": "float",
           "value": 5.0
          },
          {
           "name": "demon",
           "type": "bool",
           "value": true
          },
          {
           "name": "palette",
           "type": "float",
           "value": 1.0
          },
          {
           "name": "price",
           "type": "float",
           "value": 100.0
          },
          {
           "name": "tradeName",
           "type": "string",
           "value": "ecr2"
          }
         ]
        },
        {
         "id": 341,
         "name": "",
         "type": "obj_menu_skin",
         "gid": 179,
         "x": 376.0,
         "y": 140.0,
         "width": 64.0,
         "height": 85.0,
         "rotation": -0.0,
         "visible": true,
         "properties": [
          {
           "name": "bcolumn",
           "type": "float",
           "value": 3.0
          },
          {
           "name": "bid",
           "type": "float",
           "value": 2.0
          },
          {
           "name": "submenu",
           "type": "float",
           "value": 34.0
          },
          {
           "name": "character",
           "type": "float",
           "value": 5.0
          },
          {
           "name": "demon",
           "type": "bool",
           "value": true
          },
          {
           "name": "palette",
           "type": "float",
           "value": 2.0
          },
          {
           "name": "price",
           "type": "float",
           "value": 150.0
          },
          {
           "name": "tradeName",
           "type": "string",
           "value": "ecrc"
          }
         ]
        }
       ],
       "properties": [
        {
         "name": "depth",
         "type": "int",
         "value": 200
        }
       ]
      },
      {
       "type": "objectgroup",
       "id": 22,
       "name": "ExtraSally",
       "draworder": "index",
       "opacity": 1.0,
       "visible": false,
       "x": 0,
       "y": 0,
       "objects": [
        {
         "id": 350,
         "name": "",
         "type": "obj_menu_skin",
         "gid": 179,
         "x": 40.0,
         "y": 48.0,
         "width": 64.0,
         "height": 85.0,
         "rotation": -0.0,
         "visible": true,
         "properties": [
          {
           "name": "submenu",
           "type": "float",
           "value": 35.0
          },
          {
           "name": "bid",
           "type": "float",
           "value": 1.0
          },
          {
           "name": "bcolumn",
           "type": "float",
           "value": 0.0
          },
          {
           "name": "character",
           "type": "float",
           "value": 6.0
          }
         ]
        },
        {
         "id": 351,
         "name": "",
         "type": "obj_menu_skin",
         "gid": 179,
         "x": 152.0,
         "y": 48.0,
         "width": 64.0,
         "height": 85.0,
         "rotation": -0.0,
         "visible": true,
         "properties": [
          {
           "name": "bcolumn",
           "type": "float",
           "value": 1.0
          },
          {
           "name": "submenu",
           "type": "float",
           "value": 35.0
          },
          {
           "name": "bid",
           "type": "float",
           "value": 1.0
          },
          {
           "name": "character",
           "type": "float",
           "value": 6.0
          },
          {
           "name": "palette",
           "type": "float",
           "value": 0.0
          },
          {
           "name": "price",
           "type": "float",
           "value": 100.0
          },
          {
           "name": "tradeName",
           "type": "string",
           "value": "sa1"
          }
         ]
        },
        {
         "id": 352,
         "name": "",
         "type": "obj_menu_skin",
         "gid": 179,
         "x": 264.0,
         "y": 48.0,
         "width": 64.0,
         "height": 85.0,
         "rotation": -0.0,
         "visible": true,
         "properties": [
          {
           "name": "bcolumn",
           "type": "float",
           "value": 2.0
          },
          {
           "name": "bid",
           "type": "float",
           "value": 1.0
          },
          {
           "name": "submenu",
           "type": "float",
           "value": 35.0
          },
          {
           "name": "character",
           "type": "float",
           "value": 6.0
          },
          {
           "name": "palette",
           "type": "float",
           "value": 1.0
          },
          {
           "name": "price",
           "type": "float",
           "value": 100.0
          },
          {
           "name": "tradeName",
           "type": "string",
           "value": "sa2"
          }
         ]
        },
        {
         "id": 353,
         "name": "",
         "type": "obj_menu_skin",
         "gid": 179,
         "x": 376.0,
         "y": 48.0,
         "width": 64.0,
         "height": 85.0,
         "rotation": -0.0,
         "visible": true,
         "properties": [
          {
           "name": "bcolumn",
           "type": "float",
           "value": 3.0
          },
          {
           "name": "bid",
           "type": "float",
           "value": 1.0
          },
          {
           "name": "submenu",
           "type": "float",
           "value": 35.0
          },
          {
           "name": "character",
           "type": "float",
           "value": 6.0
          },
          {
           "name": "palette",
           "type": "float",
           "value": 2.0
          },
          {
           "name": "tradeName",
           "type": "string",
           "value": "sac"
          },
          {
           "name": "price",
           "type": "float",
           "value": 150.0
          }
         ]
        },
        {
         "id": 354,
         "name": "",
         "type": "obj_menu_skin",
         "gid": 179,
         "x": 40.0,
         "y": 140.0,
         "width": 64.0,
         "height": 85.0,
         "rotation": -0.0,
         "visible": true,
         "properties": [
          {
           "name": "bid",
           "type": "float",
           "value": 2.0
          },
          {
           "name": "submenu",
           "type": "float",
           "value": 35.0
          },
          {
           "name": "bcolumn",
           "type": "float",
           "value": 0.0
          },
          {
           "name": "character",
           "type": "float",
           "value": 6.0
          },
          {
           "name": "demon",
           "type": "bool",
           "value": true
          }
         ]
        },
        {
         "id": 355,
         "name": "",
         "type": "obj_menu_skin",
         "gid": 179,
         "x": 152.0,
         "y": 140.0,
         "width": 64.0,
         "height": 85.0,
         "rotation": -0.0,
         "visible": true,
         "properties": [
          {
           "name": "bcolumn",
           "type": "float",
           "value": 1.0
          },
          {
           "name": "bid",
           "type": "float",
           "value": 2.0
          },
          {
           "name": "submenu",
           "type": "float",
           "value": 35.0
          },
          {
           "name": "character",
           "type": "float",
           "value": 6.0
          },
          {
           "name": "demon",
           "type": "bool",
           "value": true
          },
          {
           "name": "palette",
           "type": "float",
           "value": 0.0
          },
          {
           "name": "price",
           "type": "float",
           "value": 100.0
          },
          {
           "name": "tradeName",
           "type": "string",
           "value": "esa1"
          }
         ]
        },
        {
         "id": 356,
         "name": "",
         "type": "obj_menu_skin",
         "gid": 179,
         "x": 264.0,
         "y": 140.0,
         "width": 64.0,
         "height": 85.0,
         "rotation": -0.0,
         "visible": true,
         "properties": [
          {
           "name": "bcolumn",
           "type": "float",
           "value": 2.0
          },
          {
           "name": "bid",
           "type": "float",
           "value": 2.0
          },
          {
           "name": "submenu",
           "type": "float",
           "value": 35.0
          },
          {
           "name": "character",
           "type": "float",
           "value": 6.0
          },
          {
           "name": "demon",
           "type": "bool",
           "value": true
          },
          {
           "name": "palette",
           "type": "float",
           "value": 1.0
          },
          {
           "name": "price",
           "type": "float",
           "value": 100.0
          },
          {
           "name": "tradeName",
           "type": "string",
           "value": "esa2"
          }
         ]
        },
        {
         "id": 357,
         "name": "",
         "type": "obj_menu_skin",
         "gid": 179,
         "x": 376.0,
         "y": 140.0,
         "width": 64.0,
         "height": 85.0,
         "rotation": -0.0,
         "visible": true,
         "properties": [
          {
           "name": "bcolumn",
           "type": "float",
           "value": 3.0
          },
          {
           "name": "bid",
           "type": "float",
           "value": 2.0
          },
          {
           "name": "submenu",
           "type": "float",
           "value": 35.0
          },
          {
           "name": "character",
           "type": "float",
           "value": 6.0
          },
          {
           "name": "demon",
           "type": "bool",
           "value": true
          },
          {
           "name": "palette",
           "type": "float",
           "value": 2.0
          },
          {
           "name": "tradeName",
           "type": "string",
           "value": "esac"
          },
          {
           "name": "price",
           "type": "float",
           "value": 150.0
          }
         ]
        }
       ],
       "properties": [
        {
         "name": "depth",
         "type": "int",
         "value": 100
        }
       ]
      },
      {
       "type": "objectgroup",
       "id": 23,
       "name": "ExtraExe",
       "draworder": "index",
       "opacity": 1.0,
       "visible": false,
       "x": 0,
       "y": 0,
       "objects": [
        {
         "id": 366,
         "name": "",
         "type": "obj_menu_skin",
         "gid": 179,
         "x": 40.0,
         "y": 92.5,
         "width": 64.0,
         "height": 85.0,
         "rotation": -0.0,
         "visible": true,
         "properties": [
          {
           "name": "submenu",
           "type": "float",
           "value": 36.0
          },
          {
           "name": "bid",
           "type": "float",
           "value": 1.0
          },
          {
           "name": "bcolumn",
           "type": "float",
           "value": 0.0
          },
          {
           "name": "character",
           "type": "float",
           "value": 0.0
          },
          {
           "name": "exe",
           "type": "bool",
           "value": true
          }
         ]
        },
        {
         "id": 367,
         "name": "",
         "type": "obj_menu_skin",
         "gid": 179,
         "x": 152.0,
         "y": 92.5,
         "width": 64.0,
         "height": 85.0,
         "rotation": -0.0,
         "visible": true,
         "properties": [
          {
           "name": "bcolumn",
           "type": "float",
           "value": 1.0
          },
          {
           "name": "submenu",
           "type": "float",
           "value": 36.0
          },
          {
           "name": "bid",
           "type": "float",
           "value": 1.0
          },
          {
           "name": "character",
           "type": "float",
           "value": 0.0
          },
          {
           "name": "palette",
           "type": "float",
           "value": 0.0
          },
          {
           "name": "exe",
           "type": "bool",
           "value": true
          },
          {
           "name": "tradeName",
           "type": "string",
           "value": "exe1"
          },
          {
           "name": "price",
           "type": "float",
           "value": 100.0
          }
         ]
        },
        {
         "id": 368,
         "name": "",
         "type": "obj_menu_skin",
         "gid": 179,
         "x": 264.0,
         "y": 92.5,
         "width": 64.0,
         "height": 85.0,
         "rotation": -0.0,
         "visible": true,
         "properties": [
          {
           "name": "bcolumn",
           "type": "float",
           "value": 2.0
          },
          {
           "name": "bid",
           "type": "float",
           "value": 1.0
          },
          {
           "name": "submenu",
           "type": "float",
           "value": 36.0
          },
          {
           "name": "character",
           "type": "float",
           "value": 0.0
          },
          {
           "name": "palette",
           "type": "float",
           "value": 1.0
          },
          {
           "name": "exe",
           "type": "bool",
           "value": true
          },
          {
           "name": "price",
           "type": "float",
           "value": 150.0
          },
          {
           "name": "tradeName",
           "type": "string",
           "value": "exe2"
          }
         ]
        },
        {
         "id": 369,
         "name": "",
         "type": "obj_menu_skin",
         "gid": 179,
         "x": 376.0,
         "y": 92.5,
         "width": 64.0,
         "height": 85.0,
         "rotation": -0.0,
         "visible": true,
         "properties": [
          {
           "name": "bcolumn",
           "type": "float",
           "value": 3.0
          },
          {
           "name": "bid",
           "type": "float",
           "value": 1.0
          },
          {
           "name": "submenu",
           "type": "float",
           "value": 36.0
          },
          {
           "name": "character",
           "type": "float",
           "value": 0.0
          },
          {
           "name": "exe",
           "type": "bool",
           "value": true
          },
          {
           "name": "palette",
           "type": "float",
           "value": 2.0
          },
          {
           "name": "price",
           "type": "float",
           "value": 150.0
          },
          {
           "name": "tradeName",
           "type": "string",
           "value": "exec"
          }
         ]
        }
       ],
       "properties": [
        {
         "name": "depth",
         "type": "int",
         "value": 0
        }
       ]
      },
      {
       "type": "objectgroup",
       "id": 24,
       "name": "ExtraChaos",
       "draworder": "index",
       "opacity": 1.0,
       "visible": false,
       "x": 0,
       "y": 0,
       "objects": [
        {
         "id": 378,
         "name": "",
         "type": "obj_menu_skin",
         "gid": 179,
         "x": 40.0,
         "y": 92.5,
         "width": 64.0,
         "height": 85.0,
         "rotation": -0.0,
         "visible": true,
         "properties": [
          {
           "name": "submenu",
           "type": "float",
           "value": 37.0
          },
          {
           "name": "bid",
           "type": "float",
           "value": 1.0
          },
          {
           "name": "bcolumn",
           "type": "float",
           "value": 0.0
          },
          {
           "name": "character",
           "type": "float",
           "value": 1.0
          },
          {
           "name": "exe",
           "type": "bool",
           "value": true
          }
         ]
        },
        {
         "id": 379,
         "name": "",
         "type": "obj_menu_skin",
         "gid": 179,
         "x": 152.0,
         "y": 92.5,
         "width": 64.0,
         "height": 85.0,
         "rotation": -0.0,
         "visible": true,
         "properties": [
          {
           "name": "bcolumn",
           "type": "float",
           "value": 1.0
          },
          {
           "name": "submenu",
           "type": "float",
           "value": 37.0
          },
          {
           "name": "bid",
           "type": "float",
           "value": 1.0
          },
          {
           "name": "character",
           "type": "float",
           "value": 1.0
          },
          {
           "name": "palette",
           "type": "float",
           "value": 0.0
          },
          {
           "name": "exe",
           "type": "bool",
           "value": true
          },
          {
           "name": "price",
           "type": "float",
           "value": 150.0
          },
          {
           "name": "tradeName",
           "type": "string",
           "value": "chaos"
          }
         ]
        },
        {
         "id": 380,
         "name": "",
         "type": "obj_menu_skin",
         "gid": 179,
         "x": 264.0,
         "y": 92.5,
         "width": 64.0,
         "height": 85.0,
         "rotation": -0.0,
         "visible": true,
         "properties": [
          {
           "name": "bcolumn",
           "type": "float",
           "value": 2.0
          },
          {
           "name": "bid",
           "type": "float",
           "value": 1.0
          },
          {
           "name": "submenu",
           "type": "float",
           "value": 37.0
          },
          {
           "name": "character",
           "type": "float",
           "value": 1.0
          },
          {
           "name": "palette",
           "type": "float",
           "value": 1.0
          },
          {
           "name": "exe",
           "type": "bool",
           "value": true
          },
          {
           "name": "price",
           "type": "float",
           "value": 150.0
          },
          {
           "name": "tradeName",
           "type": "string",
           "value": "chaos2"
          }
         ]
        },
        {
         "id": 381,
         "name": "",
         "type": "obj_menu_skin",
         "gid": 179,
         "x": 376.0,
         "y": 92.5,
         "width": 64.0,
         "height": 85.0,
         "rotation": -0.0,
         "visible": true,
         "properties": [
          {
           "name": "bcolumn",
           "type": "float",
           "value": 3.0
          },
          {
           "name": "bid",
           "type": "float",
           "value": 1.0
          },
          {
           "name": "submenu",
           "type": "float",
           "value": 37.0
          },
          {
           "name": "character",
           "type": "float",
           "value": 1.0
          },
          {
           "name": "exe",
           "type": "bool",
           "value": true
          },
          {
           "name": "palette",
           "type": "float",
           "value": 2.0
          },
          {
           "name": "price",
           "type": "float",
           "value": 150.0
          },
          {
           "name": "tradeName",
           "type": "string",
           "value": "chaosc"
          }
         ]
        }
       ],
       "properties": [
        {
         "name": "depth",
         "type": "int",
         "value": -100
        }
       ]
      },
      {
       "type": "objectgroup",
       "id": 25,
       "name": "ExtraExetior",
       "draworder": "index",
       "opacity": 1.0,
       "visible": false,
       "x": 0,
       "y": 0,
       "objects": [
        {
         "id": 390,
         "name": "",
         "type": "obj_menu_skin",
         "gid": 179,
         "x": 40.0,
         "y": 92.5,
         "width": 64.0,
         "height": 85.0,
         "rotation": -0.0,
         "visible": true,
         "properties": [
          {
           "name": "submenu",
           "type": "float",
           "value": 38.0
          },
          {
           "name": "bid",
           "type": "float",
           "value": 1.0
          },
          {
           "name": "bcolumn",
           "type": "float",
           "value": 0.0
          },
          {
           "name": "character",
           "type": "float",
           "value": 2.0
          },
          {
           "name": "exe",
           "type": "bool",
           "value": true
          }
         ]
        },
        {
         "id": 391,
         "name": "",
         "type": "obj_menu_skin",
         "gid": 179,
         "x": 152.0,
         "y": 92.5,
         "width": 64.0,
         "height": 85.0,
         "rotation": -0.0,
         "visible": true,
         "properties": [
          {
           "name": "bcolumn",
           "type": "float",
           "value": 1.0
          },
          {
           "name": "submenu",
           "type": "float",
           "value": 38.0
          },
          {
           "name": "bid",
           "type": "float",
           "value": 1.0
          },
          {
           "name": "palette",
           "type": "float",
           "value": 0.0
          },
          {
           "name": "character",
           "type": "float",
           "value": 2.0
          },
          {
           "name": "exe",
           "type": "bool",
           "value": true
          },
          {
           "name": "price",
           "type": "float",
           "value": 100.0
          },
          {
           "name": "tradeName",
           "type": "string",
           "value": "exetior"
          }
         ]
        },
        {
         "id": 392,
         "name": "",
         "type": "obj_menu_skin",
         "gid": 179,
         "x": 264.0,
         "y": 92.5,
         "width": 64.0,
         "height": 85.0,
         "rotation": -0.0,
         "visible": true,
         "properties": [
          {
           "name": "bcolumn",
           "type": "float",
           "value": 2.0
          },
          {
           "name": "bid",
           "type": "float",
           "value": 1.0
          },
          {
           "name": "submenu",
           "type": "float",
           "value": 38.0
          },
          {
           "name": "palette",
           "type": "float",
           "value": 1.0
          },
          {
           "name": "character",
           "type": "float",
           "value": 2.0
          },
          {
           "name": "exe",
           "type": "bool",
           "value": true
          },
          {
           "name": "price",
           "type": "float",
           "value": 150.0
          },
          {
           "name": "tradeName",
           "type": "string",
           "value": "exetior2"
          }
         ]
        },
        {
         "id": 393,
         "name": "",
         "type": "obj_menu_skin",
         "gid": 179,
         "x": 376.0,
         "y": 92.5,
         "width": 64.0,
         "height": 85.0,
         "rotation": -0.0,
         "visible": true,
         "properties": [
          {
           "name": "bcolumn",
           "type": "float",
           "value": 3.0
          },
          {
           "name": "bid",
           "type": "float",
           "value": 1.0
          },
          {
           "name": "submenu",
           "type": "float",
           "value": 38.0
          },
          {
           "name": "character",
           "type": "float",
           "value": 2.0
          },
          {
           "name": "exe",
           "type": "bool",
           "value": true
          },
          {
           "name": "palette",
           "type": "float",
           "value": 2.0
          },
          {
           "name": "price",
           "type": "float",
           "value": 100.0
          },
          {
           "name": "tradeName",
           "type": "string",
           "value": "exetiorc"
          }
         ]
        }
       ],
       "properties": [
        {
         "name": "depth",
         "type": "int",
         "value": -200
        }
       ]
      },
      {
       "type": "objectgroup",
       "id": 26,
       "name": "ExtraExeller",
       "draworder": "index",
       "opacity": 1.0,
       "visible": false,
       "x": 0,
       "y": 0,
       "objects": [
        {
         "id": 402,
         "name": "",
         "type": "obj_menu_skin",
         "gid": 179,
         "x": 40.0,
         "y": 92.5,
         "width": 64.0,
         "height": 85.0,
         "rotation": -0.0,
         "visible": true,
         "properties": [
          {
           "name": "submenu",
           "type": "float",
           "value": 39.0
          },
          {
           "name": "bid",
           "type": "float",
           "value": 1.0
          },
          {
           "name": "bcolumn",
           "type": "float",
           "value": 0.0
          },
          {
           "name": "character",
           "type": "float",
           "value": 3.0
          },
          {
           "name": "exe",
           "type": "bool",
           "value": true
          }
         ]
        },
        {
         "id": 403,
         "name": "",
         "type": "obj_menu_skin",
         "gid": 179,
         "x": 152.0,
         "y": 92.5,
         "width": 64.0,
         "height": 85.0,
         "rotation": -0.0,
         "visible": true,
         "properties": [
          {
           "name": "bcolumn",
           "type": "float",
           "value": 1.0
          },
          {
           "name": "submenu",
           "type": "float",
           "value": 39.0
          },
          {
           "name": "bid",
           "type": "float",
           "value": 1.0
          },
          {
           "name": "palette",
           "type": "float",
           "value": 0.0
          },
          {
           "name": "character",
           "type": "float",
           "value": 3.0
          },
          {
           "name": "exe",
           "type": "bool",
           "value": true
          },
          {
           "name": "price",
           "type": "float",
           "value": 100.0
          },
          {
           "name": "tradeName",
           "type": "string",
           "value": "exeller"
          }
         ]
        },
        {
         "id": 404,
         "name": "",
         "type": "obj_menu_skin",
         "gid": 179,
         "x": 264.0,
         "y": 92.5,
         "width": 64.0,
         "height": 85.0,
         "rotation": -0.0,
         "visible": true,
         "properties": [
          {
           "name": "bcolumn",
           "type": "float",
           "value": 2.0
          },
          {
           "name": "bid",
           "type": "float",
           "value": 1.0
          },
          {
           "name": "submenu",
           "type": "float",
           "value": 39.0
          },
          {
           "name": "palette",
           "type": "float",
           "value": 1.0
          },
          {
           "name": "character",
           "type": "float",
           "value": 3.0
          },
          {
           "name": "exe",
           "type": "bool",
           "value": true
          },
          {
           "name": "price",
           "type": "float",
           "value": 150.0
          },
          {
           "name": "tradeName",
           "type": "string",
           "value": "exeller2"
          }
         ]
        },
        {
         "id": 405,
         "name": "",
         "type": "obj_menu_skin",
         "gid": 179,
         "x": 376.0,
         "y": 92.5,
         "width": 64.0,
         "height": 85.0,
         "rotation": -0.0,
         "visible": true,
         "properties": [
          {
           "name": "bcolumn",
           "type": "float",
           "value": 3.0
          },
          {
           "name": "bid",
           "type": "float",
           "value": 1.0
          },
          {
           "name": "submenu",
           "type": "float",
           "value": 39.0
          },
          {
           "name": "character",
           "type": "float",
           "value": 3.0
          },
          {
           "name": "exe",
           "type": "bool",
           "value": true
          },
          {
           "name": "palette",
           "type": "float",
           "value": 2.0
          },
          {
           "name": "price",
           "type": "float",
           "value": 100.0
          },
          {
           "name": "tradeName",
           "type": "string",
           "value": "exellerc"
          }
         ]
        }
       ],
       "properties": [
        {
         "name": "depth",
         "type": "int",
         "value": -300
        }
       ]
      }
     ],
     "properties": [
      {
       "name": "depth",
       "type": "int",
       "value": -400
      }
     ]
    },
    {
     "type": "group",
     "id": 27,
     "name": "Icons",
     "opacity": 1.0,
     "visible": false,
     "x": 0,
     "y": 0,
     "layers": [
      {
       "type": "objectgroup",
       "id": 28,
       "name": "ExtraSkins1",
       "draworder": "index",
       "opacity": 1.0,
       "visible": false,
       "x": 0,
       "y": 0,
       "objects": [
        {
         "id": 419,
         "name": "",
         "type": "obj_menu_icon",
         "gid": 165,
         "x": 28.0,
         "y": 49.0,
         "width": 64.0,
         "height": 69.0,
         "rotation": -0.0,
         "visible": true,
         "properties": [
          {
           "name": "bid",
           "type": "float",
           "value": 1.0
          },
          {
           "name": "submenu",
           "type": "float",
           "value": 40.0
          },
          {
           "name": "bcolumn",
           "type": "float",
           "value": 0.0
          }
         ]
        },
        {
         "id": 420,
         "name": "",
         "type": "obj_menu_icon",
         "gid": 165,
         "x": 118.0,
         "y": 49.0,
         "width": 64.0,
         "height": 69.0,
         "rotation": -0.0,
         "visible": true,
         "properties": [
          {
           "name": "bid",
           "type": "float",
           "value": 1.0
          },
          {
           "name": "submenu",
           "type": "float",
           "value": 40.0
          },
          {
           "name": "bcolumn",
           "type": "float",
           "value": 1.0
          },
          {
           "name": "index",
           "type": "float",
           "value": 1.0
          }
         ]
        },
        {
         "id": 421,
         "name": "",
         "type": "obj_menu_icon",
         "gid": 165,
         "x": 208.0,
         "y": 49.0,
         "width": 64.0,
         "height": 69.0,
         "rotation": -0.0,
         "visible": true,
         "properties": [
          {
           "name": "bid",
           "type": "float",
           "value": 1.0
          },
          {
           "name": "submenu",
           "type": "float",
           "value": 40.0
          },
          {
           "name": "bcolumn",
           "type": "float",
           "value": 2.0
          },
          {
           "name": "index",
           "type": "float",
           "value": 2.0
          }
         ]
        },
        {
         "id": 422,
         "name": "",
         "type": "obj_menu_icon",
         "gid": 165,
         "x": 298.0,
         "y": 49.0,
         "width": 64.0,
         "height": 69.0,
         "rotation": -0.0,
         "visible": true,
         "properties": [
          {
           "name": "bid",
           "type": "float",
           "value": 1.0
          },
          {
           "name": "submenu",
           "type": "float",
           "value": 40.0
          },
          {
           "name": "bcolumn",
           "type": "float",
           "value": 3.0
          },
          {
           "name": "index",
           "type": "float",
           "value": 3.0
          }
         ]
        },
        {
         "id": 423,
         "name": "",
         "type": "obj_menu_icon",
         "gid": 165,
         "x": 388.0,
         "y": 49.0,
         "width": 64.0,
         "height": 69.0,
         "rotation": -0.0,
         "visible": true,
         "properties": [
          {
           "name": "bid",
           "type": "float",
           "value": 1.0
          },
          {
           "name": "submenu",
           "type": "float",
           "value": 40.0
          },
          {
           "name": "bcolumn",
           "type": "float",
           "value": 4.0
          },
          {
           "name": "index",
           "type": "float",
           "value": 4.0
          }
         ]
        },
        {
         "id": 424,
         "name": "",
         "type": "obj_menu_icon",
         "gid": 165,
         "x": 28.0,
         "y": 153.0,
         "width": 64.0,
         "height": 69.0,
         "rotation": -0.0,
         "visible": true,
         "properties": [
          {
           "name": "bid",
           "type": "float",
           "value": 2.0
          },
          {
           "name": "submenu",
           "type": "float",
           "value": 40.0
          },
          {
           "name": "bcolumn",
           "type": "float",
           "value": 0.0
          },
          {
           "name": "index",
           "type": "float",
           "value": 5.0
          }
         ]
        },
        {
         "id": 425,
         "name": "",
         "type": "obj_menu_icon",
         "gid": 165,
         "x": 118.0,
         "y": 153.0,
         "width": 64.0,
         "height": 69.0,
         "rotation": -0.0,
         "visible": true,
         "properties": [
          {
           "name": "bid",
           "type": "float",
           "value": 2.0
          },
          {
           "name": "submenu",
           "type": "float",
           "value": 40.0
          },
          {
           "name": "bcolumn",
           "type": "float",
           "value": 1.0
          },
          {
           "name": "index",
           "type": "float",
           "value": 6.0
          }
         ]
        },
        {
         "id": 426,
         "name": "",
         "type": "obj_menu_icon",
         "gid": 165,
         "x": 208.0,
         "y": 153.0,
         "width": 64.0,
         "height": 69.0,
         "rotation": -0.0,
         "visible": true,
         "properties": [
          {
           "name": "bid",
           "type": "float",
           "value": 2.0
          },
          {
           "name": "submenu",
           "type": "float",
           "value": 40.0
          },
          {
           "name": "bcolumn",
           "type": "float",
           "value": 2.0
          },
          {
           "name": "index",
           "type": "float",
           "value": 7.0
          }
         ]
        },
        {
         "id": 427,
         "name": "",
         "type": "obj_menu_icon",
         "gid": 165,
         "x": 298.0,
         "y": 153.0,
         "width": 64.0,
         "height": 69.0,
         "rotation": -0.0,
         "visible": true,
         "properties": [
          {
           "name": "bid",
           "type": "float",
           "value": 2.0
          },
          {
           "name": "submenu",
           "type": "float",
           "value": 40.0
          },
          {
           "name": "bcolumn",
           "type": "float",
           "value": 3.0
          },
          {
           "name": "index",
           "type": "float",
           "value": 8.0
          }
         ]
        },
        {
         "id": 428,
         "name": "",
         "type": "obj_menu_icon",
         "gid": 165,
         "x": 388.0,
         "y": 153.0,
         "width": 64.0,
         "height": 69.0,
         "rotation": -0.0,
         "visible": true,
         "properties": [
          {
           "name": "bid",
           "type": "float",
           "value": 2.0
          },
          {
           "name": "submenu",
           "type": "float",
           "value": 40.0
          },
          {
           "name": "bcolumn",
           "type": "float",
           "value": 4.0
          },
          {
           "name": "index",
           "type": "float",
           "value": 9.0
          }
         ]
        }
       ],
       "properties": [
        {
         "name": "depth",
         "type": "int",
         "value": -500
        }
       ]
      },
      {
       "type": "objectgroup",
       "id": 29,
       "name": "ExtraSkins2",
       "draworder": "index",
       "opacity": 1.0,
       "visible": false,
       "x": 0,
       "y": 0,
       "objects": [
        {
         "id": 439,
         "name": "",
         "type": "obj_menu_icon",
         "gid": 165,
         "x": 28.0,
         "y": 49.0,
         "width": 64.0,
         "height": 69.0,
         "rotation": -0.0,
         "visible": true,
         "properties": [
          {
           "name": "bid",
           "type": "float",
           "value": 1.0
          },
          {
           "name": "submenu",
           "type": "float",
           "value": 41.0
          },
          {
           "name": "bcolumn",
           "type": "float",
           "value": 0.0
          },
          {
           "name": "index",
           "type": "float",
           "value": 10.0
          }
         ]
        },
        {
         "id": 440,
         "name": "",
         "type": "obj_menu_icon",
         "gid": 165,
         "x": 118.0,
         "y": 49.0,
         "width": 64.0,
         "height": 69.0,
         "rotation": -0.0,
         "visible": true,
         "properties": [
          {
           "name": "bid",
           "type": "float",
           "value": 1.0
          },
          {
           "name": "submenu",
           "type": "float",
           "value": 41.0
          },
          {
           "name": "bcolumn",
           "type": "float",
           "value": 1.0
          },
          {
           "name": "index",
           "type": "float",
           "value": 11.0
          }
         ]
        },
        {
         "id": 441,
         "name": "",
         "type": "obj_menu_icon",
         "gid": 165,
         "x": 208.0,
         "y": 49.0,
         "width": 64.0,
         "height": 69.0,
         "rotation": -0.0,
         "visible": true,
         "properties": [
          {
           "name": "bid",
           "type": "float",
           "value": 1.0
          },
          {
           "name": "submenu",
           "type": "float",
           "value": 41.0
          },
          {
           "name": "bcolumn",
           "type": "float",
           "value": 2.0
          },
          {
           "name": "index",
           "type": "float",
           "value": 12.0
          }
         ]
        },
        {
         "id": 442,
         "name": "",
         "type": "obj_menu_icon",
         "gid": 165,
         "x": 298.0,
         "y": 49.0,
         "width": 64.0,
         "height": 69.0,
         "rotation": -0.0,
         "visible": true,
         "properties": [
          {
           "name": "bid",
           "type": "float",
           "value": 1.0
          },
          {
           "name": "submenu",
           "type": "float",
           "value": 41.0
          },
          {
           "name": "bcolumn",
           "type": "float",
           "value": 3.0
          },
          {
           "name": "index",
           "type": "float",
           "value": 13.0
          }
         ]
        },
        {
         "id": 443,
         "name": "",
         "type": "obj_menu_icon",
         "gid": 165,
         "x": 388.0,
         "y": 49.0,
         "width": 64.0,
         "height": 69.0,
         "rotation": -0.0,
         "visible": true,
         "properties": [
          {
           "name": "bid",
           "type": "float",
           "value": 1.0
          },
          {
           "name": "submenu",
           "type": "float",
           "value": 41.0
          },
          {
           "name": "bcolumn",
           "type": "float",
           "value": 4.0
          },
          {
           "name": "index",
           "type": "float",
           "value": 14.0
          }
         ]
        },
        {
         "id": 444,
         "name": "",
         "type": "obj_menu_icon",
         "gid": 165,
         "x": 28.0,
         "y": 153.0,
         "width": 64.0,
         "height": 69.0,
         "rotation": -0.0,
         "visible": true,
         "properties": [
          {
           "name": "bid",
           "type": "float",
           "value": 2.0
          },
          {
           "name": "submenu",
           "type": "float",
           "value": 41.0
          },
          {
           "name": "bcolumn",
           "type": "float",
           "value": 0.0
          },
          {
           "name": "index",
           "type": "float",
           "value": 15.0
          }
         ]
        },
        {
         "id": 445,
         "name": "",
         "type": "obj_menu_icon",
         "gid": 165,
         "x": 118.0,
         "y": 153.0,
         "width": 64.0,
         "height": 69.0,
         "rotation": -0.0,
         "visible": true,
         "properties": [
          {
           "name": "bid",
           "type": "float",
           "value": 2.0
          },
          {
           "name": "submenu",
           "type": "float",
           "value": 41.0
          },
          {
           "name": "bcolumn",
           "type": "float",
           "value": 1.0
          },
          {
           "name": "index",
           "type": "float",
           "value": 16.0
          }
         ]
        },
        {
         "id": 446,
         "name": "",
         "type": "obj_menu_icon",
         "gid": 165,
         "x": 208.0,
         "y": 153.0,
         "width": 64.0,
         "height": 69.0,
         "rotation": -0.0,
         "visible": true,
         "properties": [
          {
           "name": "bid",
           "type": "float",
           "value": 2.0
          },
          {
           "name": "submenu",
           "type": "float",
           "value": 41.0
          },
          {
           "name": "bcolumn",
           "type": "float",
           "value": 2.0
          },
          {
           "name": "index",
           "type": "float",
           "value": 17.0
          }
         ]
        },
        {
         "id": 447,
         "name": "",
         "type": "obj_menu_icon",
         "gid": 165,
         "x": 298.0,
         "y": 153.0,
         "width": 64.0,
         "height": 69.0,
         "rotation": -0.0,
         "visible": true,
         "properties": [
          {
           "name": "bid",
           "type": "float",
           "value": 2.0
          },
          {
           "name": "submenu",
           "type": "float",
           "value": 41.0
          },
          {
           "name": "bcolumn",
           "type": "float",
           "value": 3.0
          },
          {
           "name": "index",
           "type": "float",
           "value": 18.0
          }
         ]
        },
        {
         "id": 448,
         "name": "",
         "type": "obj_menu_icon",
         "gid": 165,
         "x": 388.0,
         "y": 153.0,
         "width": 64.0,
         "height": 69.0,
         "rotation": -0.0,
         "visible": true,
         "properties": [
          {
           "name": "bid",
           "type": "float",
           "value": 2.0
          },
          {
           "name": "submenu",
           "type": "float",
           "value": 41.0
          },
          {
           "name": "bcolumn",
           "type": "float",
           "value": 4.0
          },
          {
           "name": "index",
           "type": "float",
           "value": 19.0
          }
         ]
        }
       ],
       "properties": [
        {
         "name": "depth",
         "type": "int",
         "value": -600
        }
       ]
      },
      {
       "type": "objectgroup",
       "id": 30,
       "name": "ExtraSkins3",
       "draworder": "index",
       "opacity": 1.0,
       "visible": false,
       "x": 0,
       "y": 0,
       "objects": [
        {
         "id": 457,
         "name": "",
         "type": "obj_menu_icon",
         "gid": 165,
         "x": 28.0,
         "y": 101.0,
         "width": 64.0,
         "height": 69.0,
         "rotation": -0.0,
         "visible": true,
         "properties": [
          {
           "name": "bid",
           "type": "float",
           "value": 1.0
          },
          {
           "name": "submenu",
           "type": "float",
           "value": 42.0
          },
          {
           "name": "bcolumn",
           "type": "float",
           "value": 0.0
          },
          {
           "name": "index",
           "type": "float",
           "value": 20.0
          }
         ]
        },
        {
         "id": 458,
         "name": "",
         "type": "obj_menu_icon",
         "gid": 165,
         "x": 118.0,
         "y": 101.0,
         "width": 64.0,
         "height": 69.0,
         "rotation": -0.0,
         "visible": true,
         "properties": [
          {
           "name": "bid",
           "type": "float",
           "value": 1.0
          },
          {
           "name": "submenu",
           "type": "float",
           "value": 42.0
          },
          {
           "name": "bcolumn",
           "type": "float",
           "value": 1.0
          },
          {
           "name": "index",
           "type": "float",
           "value": 21.0
          }
         ]
        },
        {
         "id": 459,
         "name": "",
         "type": "obj_menu_icon",
         "gid": 165,
         "x": 208.0,
         "y": 101.0,
         "width": 64.0,
         "height": 69.0,
         "rotation": -0.0,
         "visible": true,
         "properties": [
          {
           "name": "bid",
           "type": "float",
           "value": 1.0
          },
          {
           "name": "submenu",
           "type": "float",
           "value": 42.0
          },
          {
           "name": "bcolumn",
           "type": "float",
           "value": 2.0
          },
          {
           "name": "index",
           "type": "float",
           "value": 22.0
          }
         ]
        },
        {
         "id": 460,
         "name": "",
         "type": "obj_menu_icon",
         "gid": 165,
         "x": 298.0,
         "y": 101.0,
         "width": 64.0,
         "height": 69.0,
         "rotation": -0.0,
         "visible": true,
         "properties": [
          {
           "name": "bid",
           "type": "float",
           "value": 1.0
          },
          {
           "name": "submenu",
           "type": "float",
           "value": 42.0
          },
          {
           "name": "bcolumn",
           "type": "float",
           "value": 3.0
          },
          {
           "name": "index",
           "type": "float",
           "value": 23.0
          }
         ]
        },
        {
         "id": 461,
         "name": "",
         "type": "obj_menu_icon",
         "gid": 165,
         "x": 388.0,
         "y": 101.0,
         "width": 64.0,
         "height": 69.0,
         "rotation": -0.0,
         "visible": true,
         "properties": [
          {
           "name": "bid",
           "type": "float",
           "value": 1.0
          },
          {
           "name": "submenu",
           "type": "float",
           "value": 42.0
          },
          {
           "name": "bcolumn",
           "type": "float",
           "value": 4.0
          },
          {
           "name": "index",
           "type": "float",
           "value": 24.0
          }
         ]
        }
       ],
       "properties": [
        {
         "name": "depth",
         "type": "int",
         "value": -700
        }
       ]
      }
     ],
     "properties": [
      {
       "name": "depth",
       "type": "int",
       "value": -800
      }
     ]
    }
   ],
   "properties": [
    {
     "name": "depth",
     "type": "int",
     "value": -900
    }
   ]
  },
  {
   "type": "group",
   "id": 31,
   "name": "Options",
   "opacity": 1.0,
   "visible": false,
   "x": 0,
   "y": 0,
   "layers": [
    {
     "type": "objectgroup",
     "id": 32,
     "name": "OptionsGeneral",
     "draworder": "index",
     "opacity": 1.0,
     "visible": false,
     "x": 0,
     "y": 0,
     "objects": [
      {
       "id": 22,
       "name": "",
       "type": "obj_menu_togglebutton",
       "gid": 184,
       "x": 208.0,
       "y": 177.0,
       "width": 180.0,
       "height": 16.0,
       "rotation": -0.0,
       "visible": true,
       "properties": [
        {
         "name": "image_index",
         "type": "int",
         "value": 11
        },
        {
         "name": "submenu",
         "type": "float",
         "value": 2.0
        },
        {
         "name": "bid",
         "type": "float",
         "value": 3.0
        },
        {
         "name": "tid",
         "type": "string",
         "value": "fps"
        }
       ]
      },
      {
       "id": 23,
       "name": "",
       "type": "obj_menu_button",
       "gid": 159,
       "x": 208.0,
       "y": 67.0,
       "width": 180.0,
       "height": 16.0,
       "rotation": -0.0,
       "visible": true,
       "properties": [
        {
         "name": "image_index",
         "type": "int",
         "value": 13
        },
        {
         "name": "submenu",
         "type": "float",
         "value": 2.0
        }
       ]
      },
      {
       "id": 24,
       "name": "",
       "type": "obj_menu_textbox",
       "gid": 182,
       "x": 176.0,
       "y": 83.0,
       "width": 128.0,
       "height": 16.0,
       "rotation": -0.0,
       "visible": true,
       "properties": [
        {
         "name": "submenu",
         "type": "float",
         "value": 2.0
        },
        {
         "name": "tid",
         "type": "string",
         "value": "nickname"
        },
        {
         "name": "limit",
         "type": "float",
         "value": 13.0
        }
       ]
      },
      {
       "id": 25,
       "name": "",
       "type": "obj_menu_button",
       "gid": 159,
       "x": 405.0,
       "y": 244.0,
       "width": 180.0,
       "height": 16.0,
       "rotation": -0.0,
       "visible": true,
       "properties": [
        {
         "name": "image_index",
         "type": "int",
         "value": 4
        },
        {
         "name": "submenu",
         "type": "float",
         "value": 2.0
        },
        {
         "name": "bid",
         "type": "float",
         "value": 5.0
        },
        {
         "name": "bcolumn",
         "type": "float",
         "value": 1.0
        }
       ]
      },
      {
       "id": 26,
       "name": "",
       "type": "obj_menu_button",
       "gid": 159,
       "x": 195.0,
       "y": 116.0,
       "width": 180.0,
       "height": 16.0,
       "rotation": -0.0,
       "visible": true,
       "properties": [
        {
         "name": "image_index",
         "type": "int",
         "value": 5
        },
        {
         "name": "submenu",
         "type": "float",
         "value": 2.0
        },
        {
         "name": "bid",
         "type": "float",
         "value": 1.0
        }
       ]
      },
      {
       "id": 27,
       "name": "",
       "type": "obj_menu_button",
       "gid": 159,
       "x": 209.0,
       "y": 244.0,
       "width": 180.0,
       "height": 16.0,
       "rotation": -0.0,
       "visible": true,
       "properties": [
        {
         "name": "image_index",
         "type": "int",
         "value": 8
        },
        {
         "name": "submenu",
         "type": "float",
         "value": 2.0
        },
        {
         "name": "bid",
         "type": "float",
         "value": 4.0
        },
        {
         "name": "tid",
         "type": "string",
         "value": "tabOControls"
        },
        {
         "name": "bcolumn",
         "type": "float",
         "value": 1.0
        }
       ]
      },
      {
       "id": 30,
       "name": "",
       "type": "obj_menu_togglebutton",
       "gid": 184,
       "x": 204.0,
       "y": 148.0,
       "width": 180.0,
       "height": 16.0,
       "rotation": -0.0,
       "visible": true,
       "properties": [
        {
         "name": "image_index",
         "type": "int",
         "value": 9
        },
        {
         "name": "submenu",
         "type": "float",
         "value": 2.0
        },
        {
         "name": "bid",
         "type": "float",
         "value": 2.0
        },
        {
         "name": "tid",
         "type": "string",
         "value": "ping"
        }
       ]
      },
      {
       "id": 429,
       "name": "",
       "type": "obj_menu_button",
       "gid": 159,
       "x": 34.0,
       "y": 244.0,
       "width": 180.0,
       "height": 16.0,
       "rotation": -0.0,
       "visible": true,
       "properties": [
        {
         "name": "image_index",
         "type": "int",
         "value": 7
        },
        {
         "name": "submenu",
         "type": "float",
         "value": 2.0
        },
        {
         "name": "bid",
         "type": "float",
         "value": 4.0
        }
       ]
      }
     ],
     "properties": [
      {
       "name": "depth",
       "type": "int",
       "value": -1000
      }
     ]
    },
    {
     "type": "objectgroup",
     "id": 33,
     "name": "OptionsControls",
     "draworder": "index",
     "opacity": 1.0,
     "visible": false,
     "x": 0,
     "y": 0,
     "objects": [
      {
       "id": 28,
       "name": "",
       "type": "obj_menu_button",
       "gid": 159,
       "x": 34.0,
       "y": 244.0,
       "width": 180.0,
       "height": 16.0,
       "rotation": -0.0,
       "visible": true,
       "properties": [
        {
         "name": "image_index",
         "type": "int",
         "value": 7
        },
        {
         "name": "submenu",
         "type": "float",
         "value": 3.0
        },
        {
         "name": "bid",
         "type": "float",
         "value": 9.0
        },
        {
         "name": "bcolumn",
         "type": "float",
         "value": 2.0
        }
       ]
      },
      {
       "id": 29,
       "name": "",
       "type": "obj_menu_button",
       "gid": 159,
       "x": 405.0,
       "y": 244.0,
       "width": 180.0,
       "height": 16.0,
       "rotation": -0.0,
       "visible": true,
       "properties": [
        {
         "name": "image_index",
         "type": "int",
         "value": 4
        },
        {
         "name": "submenu",
         "type": "float",
         "value": 3.0
        },
        {
         "name": "bid",
         "type": "float",
         "value": 10.0
        },
        {
         "name": "bcolumn",
         "type": "float",
         "value": 2.0
        }
       ]
      },
      {
       "id": 32,
       "name": "",
       "type": "obj_menu_button",
       "gid": 159,
       "x": 89.0,
       "y": 51.0,
       "width": 180.0,
       "height": 16.0,
       "rotation": -0.0,
       "visible": true,
       "properties": [
        {
         "name": "image_index",
         "type": "int",
         "value": 14
        },
        {
         "name": "submenu",
         "type": "float",
         "value": 3.0
        },
        {
         "name": "bcolumn",
         "type": "float",
         "value": 0.0
        }
       ]
      },
      {
       "id": 35,
       "name": "",
       "type": "obj_menu_button",
       "gid": 159,
       "x": 89.0,
       "y": 69.0,
       "width": 180.0,
       "height": 16.0,
       "rotation": -0.0,
       "visible": true,
       "properties": [
        {
         "name": "image_index",
         "type": "int",
         "value": 15
        },
        {
         "name": "submenu",
         "type": "float",
         "value": 3.0
        },
        {
         "name": "bid",
         "type": "float",
         "value": 1.0
        },
        {
         "name": "bcolumn",
         "type": "float",
         "value": 0.0
        }
       ]
      },
      {
       "id": 36,
       "name": "",
       "type": "obj_menu_button",
       "gid": 159,
       "x": 89.0,
       "y": 86.0,
       "width": 180.0,
       "height": 16.0,
       "rotation": -0.0,
       "visible": true,
       "properties": [
        {
         "name": "image_index",
         "type": "int",
         "value": 16
        },
        {
         "name": "submenu",
         "type": "float",
         "value": 3.0
        },
        {
         "name": "bid",
         "type": "float",
         "value": 2.0
        },
        {
         "name": "bcolumn",
         "type": "float",
         "value": 0.0
        }
       ]
      },
      {
       "id": 37,
       "name": "",
       "type": "obj_menu_button",
       "gid": 159,
       "x": 89.0,
       "y": 103.0,
       "width": 180.0,
       "height": 16.0,
       "rotation": -0.0,
       "visible": true,
       "properties": [
        {
         "name": "image_index",
         "type": "int",
         "value": 17
        },
        {
         "name": "submenu",
         "type": "float",
         "value": 3.0
        },
        {
         "name": "bid",
         "type": "float",
         "value": 3.0
        },
        {
         "name": "bcolumn",
         "type": "float",
         "value": 0.0
        }
       ]
      },
      {
       "id": 38,
       "name": "",
       "type": "obj_menu_button",
       "gid": 159,
       "x": 266.0,
       "y": 52.0,
       "width": 180.0,
       "height": 16.0,
       "rotation": -0.0,
       "visible": true,
       "properties": [
        {
         "name": "image_index",
         "type": "int",
         "value": 18
        },
        {
         "name": "submenu",
         "type": "float",
         "value": 3.0
        },
        {
         "name": "bcolumn",
         "type": "float",
         "value": 1.0
        }
       ]
      },
      {
       "id": 39,
       "name": "",
       "type": "obj_menu_button",
       "gid": 159,
       "x": 266.0,
       "y": 69.0,
       "width": 180.0,
       "height": 16.0,
       "rotation": -0.0,
       "visible": true,
       "properties": [
        {
         "name": "image_index",
         "type": "int",
         "value": 19
        },
        {
         "name": "submenu",
         "type": "float",
         "value": 3.0
        },
        {
         "name": "bcolumn",
         "type": "float",
         "value": 1.0
        },
        {
         "name": "bid",
         "type": "float",
         "value": 1.0
        }
       ]
      },
      {
       "id": 40,
       "name": "",
       "type": "obj_menu_button",
       "gid": 159,
       "x": 266.0,
       "y": 86.0,
       "width": 180.0,
       "height": 16.0,
       "rotation": -0.0,
       "visible": true,
       "properties": [
        {
         "name": "image_index",
         "type": "int",
         "value": 20
        },
        {
         "name": "submenu",
         "type": "float",
         "value": 3.0
        },
        {
         "name": "bcolumn",
         "type": "float",
         "value": 1.0
        },
        {
         "name": "bid",
         "type": "float",
         "value": 2.0
        }
       ]
      },
      {
       "id": 41,
       "name": "",
       "type": "obj_menu_button",
       "gid": 159,
       "x": 174.0,
       "y": 145.0,
       "width": 180.0,
       "height": 16.0,
       "rotation": -0.0,
       "visible": true,
       "properties": [
        {
         "name": "image_index",
         "type": "int",
         "value": 22
        },
        {
         "name": "submenu",
         "type": "float",
         "value": 3.0
        },
        {
         "name": "bid",
         "type": "float",
         "value": 5.0
        }
       ]
      },
      {
       "id": 42,
       "name": "",
       "type": "obj_menu_button",
       "gid": 159,
       "x": 174.0,
       "y": 162.0,
       "width": 180.0,
       "height": 16.0,
       "rotation": -0.0,
       "visible": true,
       "properties": [
        {
         "name": "image_index",
         "type": "int",
         "value": 23
        },
        {
         "name": "submenu",
         "type": "float",
         "value": 3.0
        },
        {
         "name": "bid",
         "type": "float",
         "value": 6.0
        }
       ]
      },
      {
       "id": 43,
       "name": "",
       "type": "obj_menu_button",
       "gid": 159,
       "x": 174.0,
       "y": 179.0,
       "width": 180.0,
       "height": 16.0,
       "rotation": -0.0,
       "visible": true,
       "properties": [
        {
         "name": "image_index",
         "type": "int",
         "value": 24
        },
        {
         "name": "submenu",
         "type": "float",
         "value": 3.0
        },
        {
         "name": "bid",
         "type": "float",
         "value": 7.0
        }
       ]
      },
      {
       "id": 44,
       "name": "",
       "type": "obj_menu_button",
       "gid": 159,
       "x": 266.0,
       "y": 103.0,
       "width": 180.0,
       "height": 16.0,
       "rotation": -0.0,
       "visible": true,
       "properties": [
        {
         "name": "image_index",
         "type": "int",
         "value": 25
        },
        {
         "name": "submenu",
         "type": "float",
         "value": 3.0
        },
        {
         "name": "bid",
         "type": "float",
         "value": 3.0
        },
        {
         "name": "bcolumn",
         "type": "float",
         "value": 1.0
        }
       ]
      },
      {
       "id": 45,
       "name": "",
       "type": "obj_menu_textpanel",
       "gid": 183,
       "x": 149.0,
       "y": 53.0,
       "width": 60.0,
       "height": 14.0,
       "rotation": -0.0,
       "visible": true,
       "properties": [
        {
         "name": "tid",
         "type": "string",
         "value": "up"
        }
       ]
      },
      {
       "id": 46,
       "name": "",
       "type": "obj_menu_textpanel",
       "gid": 183,
       "x": 149.0,
       "y": 70.0,
       "width": 60.0,
       "height": 14.0,
       "rotation": -0.0,
       "visible": true,
       "properties": [
        {
         "name": "tid",
         "type": "string",
         "value": "down"
        }
       ]
      },
      {
       "id": 47,
       "name": "",
       "type": "obj_menu_textpanel",
       "gid": 183,
       "x": 149.0,
       "y": 87.0,
       "width": 60.0,
       "height": 14.0,
       "rotation": -0.0,
       "visible": true,
       "properties": [
        {
         "name": "tid",
         "type": "string",
         "value": "left"
        }
       ]
      },
      {
       "id": 48,
       "name": "",
       "type": "obj_menu_textpanel",
       "gid": 183,
       "x": 149.0,
       "y": 104.0,
       "width": 60.0,
       "height": 14.0,
       "rotation": -0.0,
       "visible": true,
       "properties": [
        {
         "name": "tid",
         "type": "string",
         "value": "right"
        }
       ]
      },
      {
       "id": 49,
       "name": "",
       "type": "obj_menu_textpanel",
       "gid": 183,
       "x": 332.0,
       "y": 53.0,
       "width": 60.0,
       "height": 14.0,
       "rotation": -0.0,
       "visible": true,
       "properties": [
        {
         "name": "tid",
         "type": "string",
         "value": "jump"
        }
       ]
      },
      {
       "id": 50,
       "name": "",
       "type": "obj_menu_textpanel",
       "gid": 183,
       "x": 332.0,
       "y": 70.0,
       "width": 60.0,
       "height": 14.0,
       "rotation": -0.0,
       "visible": true,
       "properties": [
        {
         "name": "tid",
         "type": "string",
         "value": "special1"
        }
       ]
      },
      {
       "id": 51,
       "name": "",
       "type": "obj_menu_textpanel",
       "gid": 183,
       "x": 332.0,
       "y": 87.0,
       "width": 60.0,
       "height": 14.0,
       "rotation": -0.0,
       "visible": true,
       "properties": [
        {
         "name": "tid",
         "type": "string",
         "value": "special2"
        }
       ]
      },
      {
       "id": 52,
       "name": "",
       "type": "obj_menu_textpanel",
       "gid": 183,
       "x": 240.0,
       "y": 146.0,
       "width": 60.0,
       "height": 14.0,
       "rotation": -0.0,
       "visible": true,
       "properties": [
        {
         "name": "tid",
         "type": "string",
         "value": "emotion1"
        }
       ]
      },
      {
       "id": 53,
       "name": "",
       "type": "obj_menu_textpanel",
       "gid": 183,
       "x": 240.0,
       "y": 163.0,
       "width": 60.0,
       "height": 14.0,
       "rotation": -0.0,
       "visible": true,
       "properties": [
        {
         "name": "tid",
         "type": "string",
         "value": "emotion2"
        }
       ]
      },
      {
       "id": 54,
       "name": "",
       "type": "obj_menu_textpanel",
       "gid": 183,
       "x": 240.0,
       "y": 180.0,
       "width": 60.0,
       "height": 14.0,
       "rotation": -0.0,
       "visible": true,
       "properties": [
        {
         "name": "tid",
         "type": "string",
         "value": "emotion3"
        }
       ]
      },
      {
       "id": 55,
       "name": "",
       "type": "obj_menu_textpanel",
       "gid": 183,
       "x": 332.0,
       "y": 104.0,
       "width": 60.0,
       "height": 14.0,
       "rotation": -0.0,
       "visible": true,
       "properties": [
        {
         "name": "tid",
         "type": "string",
         "value": "hidegui"
        }
       ]
      },
      {
       "id": 430,
       "name": "",
       "type": "obj_menu_button",
       "gid": 159,
       "x": 209.0,
       "y": 244.0,
       "width": 180.0,
       "height": 16.0,
       "rotation": -0.0,
       "visible": true,
       "properties": [
        {
         "name": "image_index",
         "type": "int",
         "value": 8
        },
        {
         "name": "submenu",
         "type": "float",
         "value": 3.0
        },
        {
         "name": "bid",
         "type": "float",
         "value": 10.0
        }
       ]
      },
      {
       "id": 475,
       "name": "",
       "type": "obj_menu_button",
       "gid": 159,
       "x": 157.0,
       "y": 128.0,
       "width": 180.0,
       "height": 16.0,
       "rotation": -0.0,
       "visible": true,
       "properties": [
        {
         "name": "image_index",
         "type": "int",
         "value": 61
        },
        {
         "name": "submenu",
         "type": "float",
         "value": 3.0
        },
        {
         "name": "bid",
         "type": "float",
         "value": 4.0
        }
       ]
      },
      {
       "id": 476,
       "name": "",
       "type": "obj_menu_textpanel",
       "gid": 183,
       "x": 240.0,
       "y": 129.0,
       "width": 60.0,
       "height": 14.0,
       "rotation": -0.0,
       "visible": true,
       "properties": [
        {
         "name": "tid",
         "type": "string",
         "value": "playerlist"
        }
       ]
      },
      {
       "id": 483,
       "name": "",
       "type": "obj_menu_button",
       "gid": 159,
       "x": 209.0,
       "y": 213.0,
       "width": 180.0,
       "height": 16.0,
       "rotation": -0.0,
       "visible": true,
       "properties": [
        {
         "name": "image_index",
         "type": "int",
         "value": 27
        },
        {
         "name": "submenu",
         "type": "float",
         "value": 3.0
        },
        {
         "name": "bid",
         "type": "float",
         "value": 9.0
        }
       ]
      },
      {
       "id": 486,
       "name": "",
       "type": "obj_menu_button",
       "gid": 159,
       "x": 174.0,
       "y": 196.0,
       "width": 180.0,
       "height": 16.0,
       "rotation": -0.0,
       "visible": true,
       "properties": [
        {
         "name": "image_index",
         "type": "int",
         "value": 62
        },
        {
         "name": "submenu",
         "type": "float",
         "value": 3.0
        },
        {
         "name": "bid",
         "type": "float",
         "value": 8.0
        }
       ]
      },
      {
       "id": 487,
       "name": "",
       "type": "obj_menu_textpanel",
       "gid": 183,
       "x": 240.0,
       "y": 197.0,
       "width": 60.0,
       "height": 14.0,
       "rotation": -0.0,
       "visible": true,
       "properties": [
        {
         "name": "tid",
         "type": "string",
         "value": "emotion4"
        }
       ]
      }
     ],
     "properties": [
      {
       "name": "depth",
       "type": "int",
       "value": -1100
      }
     ]
    },
    {
     "type": "objectgroup",
     "id": 34,
     "name": "OptionsBack",
     "draworder": "index",
     "opacity": 1.0,
     "visible": false,
     "x": 0,
     "y": 0,
     "objects": [
      {
       "id": 31,
       "name": "",
       "type": "obj_menu_button",
       "gid": 159,
       "x": 405.0,
       "y": 244.0,
       "width": 180.0,
       "height": 16.0,
       "rotation": -0.0,
       "visible": true,
       "properties": [
        {
         "name": "image_index",
         "type": "int",
         "value": 4
        },
        {
         "name": "submenu",
         "type": "float",
         "value": 4.0
        },
        {
         "name": "bcolumn",
         "type": "float",
         "value": 0.0
        }
       ]
      },
      {
       "id": 33,
       "name": "",
       "type": "obj_menu_button",
       "gid": 159,
       "x": 34.0,
       "y": 244.0,
       "width": 180.0,
       "height": 16.0,
       "rotation": -0.0,
       "visible": true,
       "properties": [
        {
         "name": "image_index",
         "type": "int",
         "value": 7
        },
        {
         "name": "submenu",
         "type": "float",
         "value": 4.0
        },
        {
         "name": "bid",
         "type": "float",
         "value": 1.0
        },
        {
         "name": "bcolumn",
         "type": "float",
         "value": 0.0
        }
       ]
      },
      {
       "id": 34,
       "name": "",
       "type": "obj_menu_button",
       "gid": 159,
       "x": 209.0,
       "y": 244.0,
       "width": 180.0,
       "height": 16.0,
       "rotation": -0.0,
       "visible": true,
       "properties": [
        {
         "name": "image_index",
         "type": "int",
         "value": 8
        },
        {
         "name": "submenu",
         "type": "float",
         "value": 4.0
        },
        {
         "name": "bid",
         "type": "float",
         "value": 2.0
        }
       ]
      }
     ],
     "properties": [
      {
       "name": "depth",
       "type": "int",
       "value": -1200
      }
     ]
    },
    {
     "type": "objectgroup",
     "id": 35,
     "name": "OptionsControlsMobile",
     "draworder": "index",
     "opacity": 1.0,
     "visible": false,
     "x": 0,
     "y": 0,
     "objects": [
      {
       "id": 56,
       "name": "",
       "type": "obj_menu_mobiledpad",
       "gid": 171,
       "x": 4.0,
       "y": 123.0,
       "width": 128.0,
       "height": 128.0,
       "rotation": -0.0,
       "visible": true
      },
      {
       "id": 57,
       "name": "",
       "type": "obj_menu_mobilebutton",
       "gid": 169,
       "x": 354.0,
       "y": 197.0,
       "width": 48.0,
       "height": 48.0,
       "rotation": -0.0,
       "visible": true,
       "properties": [
        {
         "name": "bid",
         "type": "float",
         "value": 1.0
        }
       ]
      },
      {
       "id": 58,
       "name": "",
       "type": "obj_menu_mobilebutton",
       "gid": 169,
       "x": 392.0,
       "y": 147.0,
       "width": 48.0,
       "height": 48.0,
       "rotation": -0.0,
       "visible": true,
       "properties": [
        {
         "name": "image_index",
         "type": "int",
         "value": 2
        },
        {
         "name": "bid",
         "type": "float",
         "value": 2.0
        }
       ]
      },
      {
       "id": 59,
       "name": "",
       "type": "obj_menu_mobilebutton",
       "gid": 169,
       "x": 428.0,
       "y": 197.0,
       "width": 48.0,
       "height": 48.0,
       "rotation": -0.0,
       "visible": true,
       "properties": [
        {
         "name": "image_index",
         "type": "int",
         "value": 4
        },
        {
         "name": "bid",
         "type": "float",
         "value": 3.0
        }
       ]
      },
      {
       "id": 60,
       "name": "",
       "type": "obj_menu_mobilebutton2",
       "gid": 170,
       "x": 459.0,
       "y": 41.0,
       "width": 14.0,
       "height": 14.0,
       "rotation": -0.0,
       "visible": true,
       "properties": [
        {
         "name": "bid",
         "type": "float",
         "value": 4.0
        }
       ]
      },
      {
       "id": 61,
       "name": "",
       "type": "obj_menu_mobilebutton2",
       "gid": 170,
       "x": 459.0,
       "y": 73.0,
       "width": 14.0,
       "height": 14.0,
       "rotation": -0.0,
       "visible": true,
       "properties": [
        {
         "name": "image_index",
         "type": "int",
         "value": 2
        },
        {
         "name": "bid",
         "type": "float",
         "value": 5.0
        }
       ]
      },
      {
       "id": 62,
       "name": "",
       "type": "obj_menu_mobilebutton2",
       "gid": 170,
       "x": 459.0,
       "y": 105.0,
       "width": 14.0,
       "height": 14.0,
       "rotation": -0.0,
       "visible": true,
       "properties": [
        {
         "name": "image_index",
         "type": "int",
         "value": 4
        },
        {
         "name": "bid",
         "type": "float",
         "value": 6.0
        }
       ]
      },
      {
       "id": 63,
       "name": "",
       "type": "obj_menu_button",
       "gid": 159,
       "x": 32.0,
       "y": 4.0,
       "width": 180.0,
       "height": 16.0,
       "rotation": -0.0,
       "visible": true,
       "properties": [
        {
         "name": "image_index",
         "type": "int",
         "value": 26
        },
        {
         "name": "submenu",
         "type": "float",
         "value": 5.0
        }
       ]
      },
      {
       "id": 64,
       "name": "",
       "type": "obj_menu_button",
       "gid": 159,
       "x": 222.0,
       "y": 4.0,
       "width": 180.0,
       "height": 16.0,
       "rotation": -0.0,
       "visible": true,
       "properties": [
        {
         "name": "image_index",
         "type": "int",
         "value": 27
        },
        {
         "name": "submenu",
         "type": "float",
         "value": 5.0
        },
        {
         "name": "bid",
         "type": "float",
         "value": 1.0
        }
       ]
      },
      {
       "id": 65,
       "name": "",
       "type": "obj_menu_button",
       "gid": 159,
       "x": 417.0,
       "y": 4.0,
       "width": 180.0,
       "height": 16.0,
       "rotation": -0.0,
       "visible": true,
       "properties": [
        {
         "name": "image_index",
         "type": "int",
         "value": 4
        },
        {
         "name": "submenu",
         "type": "float",
         "value": 5.0
        },
        {
         "name": "bid",
         "type": "float",
         "value": 2.0
        }
       ]
      },
      {
       "id": 66,
       "name": "",
       "type": "obj_menu_slider",
       "gid": 180,
       "x": 24.0,
       "y": 24.0,
       "width": 68.0,
       "height": 6.0,
       "rotation": -0.0,
       "visible": true
      },
      {
       "id": 477,
       "name": "",
       "type": "obj_menu_mobilebutton2",
       "gid": 170,
       "x": 33.0,
       "y": 49.0,
       "width": 14.0,
       "height": 14.0,
       "rotation": -0.0,
       "visible": true,
       "properties": [
        {
         "name": "image_index",
         "type": "int",
         "value": 6
        },
        {
         "name": "bid",
         "type": "float",
         "value": 7.0
        }
       ]
      },
      {
       "id": 485,
       "name": "",
       "type": "obj_menu_mobilebutton2",
       "gid": 170,
       "x": 459.0,
       "y": 133.0,
       "width": 14.0,
       "height": 14.0,
       "rotation": -0.0,
       "visible": true,
       "properties": [
        {
         "name": "image_index",
         "type": "int",
         "value": 8
        },
        {
         "name": "bid",
         "type": "float",
         "value": 8.0
        }
       ]
      }
     ],
     "properties": [
      {
       "name": "depth",
       "type": "int",
       "value": -1300
      }
     ]
    }
   ],
   "properties": [
    {
     "name": "depth",
     "type": "int",
     "value": -1400
    }
   ]
  },
  {
   "type": "group",
   "id": 36,
   "name": "About",
   "opacity": 1.0,
   "visible": false,
   "x": 0,
   "y": 0,
   "layers": [
    {
     "type": "group",
     "id": 37,
     "name": "Mechanics",
     "opacity": 1.0,
     "visible": false,
     "x": 0,
     "y": 0,
     "layers": [
      {
       "type": "objectgroup",
       "id": 38,
       "name": "AboutEscape",
       "draworder": "index",
       "opacity": 1.0,
       "visible": false,
       "x": 0,
       "y": 0,
       "objects": [
        {
         "id": 129,
         "name": "",
         "type": "obj_menu_button",
         "gid": 159,
         "x": 36.0,
         "y": 245.0,
         "width": 180.0,
         "height": 16.0,
         "rotation": -0.0,
         "visible": true,
         "properties": [
          {
           "name": "image_index",
           "type": "int",
           "value": 29
          },
          {
           "name": "bid",
           "type": "float",
           "value": 1.0
          },
          {
           "name": "bcolumn",
           "type": "float",
           "value": 0.0
          },
          {
           "name": "submenu",
           "type": "float",
           "value": 15.0
          }
         ]
        },
        {
         "id": 130,
         "name": "",
         "type": "obj_menu_button",
         "gid": 159,
         "x": 182.0,
         "y": 245.0,
         "width": 180.0,
         "height": 16.0,
         "rotation": -0.0,
         "visible": true,
         "properties": [
          {
           "name": "image_index",
           "type": "int",
           "value": 30
          },
          {
           "name": "bcolumn",
           "type": "float",
           "value": 0.0
          },
          {
           "name": "bid",
           "type": "float",
           "value": 2.0
          },
          {
           "name": "submenu",
           "type": "float",
           "value": 15.0
          }
         ]
        },
        {
         "id": 131,
         "name": "",
         "type": "obj_menu_button",
         "gid": 159,
         "x": 324.0,
         "y": 245.0,
         "width": 180.0,
         "height": 16.0,
         "rotation": -0.0,
         "visible": true,
         "properties": [
          {
           "name": "image_index",
           "type": "int",
           "value": 31
          },
          {
           "name": "bcolumn",
           "type": "float",
           "value": 0.0
          },
          {
           "name": "bid",
           "type": "float",
           "value": 3.0
          },
          {
           "name": "submenu",
           "type": "float",
           "value": 15.0
          }
         ]
        },
        {
         "id": 132,
         "name": "",
         "type": "obj_menu_button",
         "gid": 159,
         "x": 412.0,
         "y": 245.0,
         "width": 180.0,
         "height": 16.0,
         "rotation": -0.0,
         "visible": true,
         "properties": [
          {
           "name": "image_index",
           "type": "int",
           "value": 4
          },
          {
           "name": "bcolumn",
           "type": "float",
           "value": 0.0
          },
          {
           "name": "bid",
           "type": "float",
           "value": 4.0
          },
          {
           "name": "submenu",
           "type": "float",
           "value": 15.0
          }
         ]
        },
        {
         "id": 133,
         "name": "",
         "type": "obj_menu_abouttext",
         "gid": 156,
         "x": 23.0,
         "y": 60.0,
         "width": 8.0,
         "height": 6.0,
         "rotation": -0.0,
         "visible": true,
         "properties": [
          {
           "name": "text",
           "type": "string",
           "value": "is game's last minute when\nyou have to find the green\nwarp ring or stop survivors \nfrom getting there,during\nthis time all post-damage \ninvincibility will fade away \nfaster,letting at least one \nsurvivor escape makes exe\nlose,unless time is not over\nexit is available at 50 sec."
          }
         ]
        },
        {
         "id": 134,
         "name": "",
         "type": "obj_menu_gif",
         "gid": 164,
         "x": 240.0,
         "y": 38.0,
         "width": 240.0,
         "height": 194.0,
         "rotation": -0.0,
         "visible": true,
         "properties": [
          {
           "name": "spr",
           "type": "string",
           "value": "spr_menu_escape"
          }
         ]
        },
        {
         "id": 150,
         "name": "",
         "type": "obj_menu_button",
         "gid": 159,
         "x": 10.0,
         "y": 10.0,
         "width": 180.0,
         "height": 16.0,
         "rotation": -0.0,
         "visible": true,
         "properties": [
          {
           "name": "image_index",
           "type": "int",
           "value": 40
          },
          {
           "name": "submenu",
           "type": "float",
           "value": 15.0
          },
          {
           "name": "bcolumn",
           "type": "float",
           "value": 1.0
          },
          {
           "name": "bid",
           "type": "float",
           "value": 0.0
          }
         ]
        },
        {
         "id": 151,
         "name": "",
         "type": "obj_menu_button",
         "gid": 159,
         "x": 198.0,
         "y": 10.0,
         "width": 180.0,
         "height": 16.0,
         "rotation": -0.0,
         "visible": true,
         "properties": [
          {
           "name": "image_index",
           "type": "int",
           "value": 41
          },
          {
           "name": "bcolumn",
           "type": "float",
           "value": 0.0
          },
          {
           "name": "submenu",
           "type": "float",
           "value": 15.0
          }
         ]
        },
        {
         "id": 152,
         "name": "",
         "type": "obj_menu_button",
         "gid": 159,
         "x": 396.0,
         "y": 10.0,
         "width": 180.0,
         "height": 16.0,
         "rotation": -0.0,
         "visible": true,
         "properties": [
          {
           "name": "image_index",
           "type": "int",
           "value": 42
          },
          {
           "name": "submenu",
           "type": "float",
           "value": 15.0
          },
          {
           "name": "bcolumn",
           "type": "float",
           "value": 1.0
          },
          {
           "name": "bid",
           "type": "float",
           "value": 1.0
          }
         ]
        }
       ],
       "properties": [
        {
         "name": "depth",
         "type": "int",
         "value": -1500
        }
       ]
      },
      {
       "type": "objectgroup",
       "id": 39,
       "name": "AboutSpin",
       "draworder": "index",
       "opacity": 1.0,
       "visible": false,
       "x": 0,
       "y": 0,
       "objects": [
        {
         "id": 68,
         "name": "",
         "type": "obj_menu_button",
         "gid": 159,
         "x": 36.0,
         "y": 245.0,
         "width": 180.0,
         "height": 16.0,
         "rotation": -0.0,
         "visible": true,
         "properties": [
          {
           "name": "image_index",
           "type": "int",
           "value": 29
          },
          {
           "name": "submenu",
           "type": "float",
           "value": 6.0
          },
          {
           "name": "bid",
           "type": "float",
           "value": 1.0
          },
          {
           "name": "bcolumn",
           "type": "float",
           "value": 0.0
          }
         ]
        },
        {
         "id": 69,
         "name": "",
         "type": "obj_menu_button",
         "gid": 159,
         "x": 182.0,
         "y": 245.0,
         "width": 180.0,
         "height": 16.0,
         "rotation": -0.0,
         "visible": true,
         "properties": [
          {
           "name": "image_index",
           "type": "int",
           "value": 30
          },
          {
           "name": "bcolumn",
           "type": "float",
           "value": 0.0
          },
          {
           "name": "bid",
           "type": "float",
           "value": 2.0
          },
          {
           "name": "submenu",
           "type": "float",
           "value": 6.0
          }
         ]
        },
        {
         "id": 70,
         "name": "",
         "type": "obj_menu_button",
         "gid": 159,
         "x": 324.0,
         "y": 245.0,
         "width": 180.0,
         "height": 16.0,
         "rotation": -0.0,
         "visible": true,
         "properties": [
          {
           "name": "image_index",
           "type": "int",
           "value": 31
          },
          {
           "name": "bid",
           "type": "float",
           "value": 3.0
          },
          {
           "name": "submenu",
           "type": "float",
           "value": 6.0
          },
          {
           "name": "bcolumn",
           "type": "float",
           "value": 0.0
          }
         ]
        },
        {
         "id": 71,
         "name": "",
         "type": "obj_menu_button",
         "gid": 159,
         "x": 412.0,
         "y": 245.0,
         "width": 180.0,
         "height": 16.0,
         "rotation": -0.0,
         "visible": true,
         "properties": [
          {
           "name": "image_index",
           "type": "int",
           "value": 4
          },
          {
           "name": "bid",
           "type": "float",
           "value": 4.0
          },
          {
           "name": "submenu",
           "type": "float",
           "value": 6.0
          },
          {
           "name": "bcolumn",
           "type": "float",
           "value": 0.0
          }
         ]
        },
        {
         "id": 72,
         "name": "",
         "type": "obj_menu_button",
         "gid": 159,
         "x": 224.0,
         "y": 10.0,
         "width": 180.0,
         "height": 16.0,
         "rotation": -0.0,
         "visible": true,
         "properties": [
          {
           "name": "image_index",
           "type": "int",
           "value": 32
          },
          {
           "name": "submenu",
           "type": "float",
           "value": 6.0
          },
          {
           "name": "bcolumn",
           "type": "float",
           "value": 0.0
          }
         ]
        },
        {
         "id": 73,
         "name": "",
         "type": "obj_menu_button",
         "gid": 159,
         "x": 447.0,
         "y": 10.0,
         "width": 180.0,
         "height": 16.0,
         "rotation": -0.0,
         "visible": true,
         "properties": [
          {
           "name": "image_index",
           "type": "int",
           "value": 33
          },
          {
           "name": "submenu",
           "type": "float",
           "value": 6.0
          },
          {
           "name": "bcolumn",
           "type": "float",
           "value": 1.0
          },
          {
           "name": "bid",
           "type": "float",
           "value": 1.0
          }
         ]
        },
        {
         "id": 74,
         "name": "",
         "type": "obj_menu_abouttext",
         "gid": 156,
         "x": 23.0,
         "y": 60.0,
         "width": 8.0,
         "height": 6.0,
         "rotation": -0.0,
         "visible": true,
         "properties": [
          {
           "name": "text",
           "type": "string",
           "value": "an ability of some characters \nthat is active during jumping\nand rolling,deals damage to  \nsurvivors,if two characters \ncollide in the spin state,   \nthey will push off from each \nother,cancelling spin for    \nsurvivors"
          }
         ]
        },
        {
         "id": 106,
         "name": "",
         "type": "obj_menu_gif",
         "gid": 164,
         "x": 240.0,
         "y": 38.0,
         "width": 240.0,
         "height": 194.0,
         "rotation": -0.0,
         "visible": true,
         "properties": [
          {
           "name": "spr",
           "type": "string",
           "value": "spr_menu_spin"
          }
         ]
        },
        {
         "id": 158,
         "name": "",
         "type": "obj_menu_button",
         "gid": 159,
         "x": 10.0,
         "y": 10.0,
         "width": 180.0,
         "height": 16.0,
         "rotation": -0.0,
         "visible": true,
         "properties": [
          {
           "name": "image_index",
           "type": "int",
           "value": 42
          },
          {
           "name": "bcolumn",
           "type": "float",
           "value": 1.0
          },
          {
           "name": "submenu",
           "type": "float",
           "value": 6.0
          },
          {
           "name": "bid",
           "type": "float",
           "value": 0.0
          }
         ]
        }
       ],
       "properties": [
        {
         "name": "depth",
         "type": "int",
         "value": -1600
        }
       ]
      },
      {
       "type": "objectgroup",
       "id": 40,
       "name": "AboutPar",
       "draworder": "index",
       "opacity": 1.0,
       "visible": false,
       "x": 0,
       "y": 0,
       "objects": [
        {
         "id": 75,
         "name": "",
         "type": "obj_menu_button",
         "gid": 159,
         "x": 36.0,
         "y": 245.0,
         "width": 180.0,
         "height": 16.0,
         "rotation": -0.0,
         "visible": true,
         "properties": [
          {
           "name": "image_index",
           "type": "int",
           "value": 29
          },
          {
           "name": "submenu",
           "type": "float",
           "value": 8.0
          },
          {
           "name": "bid",
           "type": "float",
           "value": 1.0
          },
          {
           "name": "bcolumn",
           "type": "float",
           "value": 0.0
          }
         ]
        },
        {
         "id": 76,
         "name": "",
         "type": "obj_menu_button",
         "gid": 159,
         "x": 182.0,
         "y": 245.0,
         "width": 180.0,
         "height": 16.0,
         "rotation": -0.0,
         "visible": true,
         "properties": [
          {
           "name": "image_index",
           "type": "int",
           "value": 30
          },
          {
           "name": "bcolumn",
           "type": "float",
           "value": 0.0
          },
          {
           "name": "bid",
           "type": "float",
           "value": 2.0
          },
          {
           "name": "submenu",
           "type": "float",
           "value": 8.0
          }
         ]
        },
        {
         "id": 77,
         "name": "",
         "type": "obj_menu_button",
         "gid": 159,
         "x": 324.0,
         "y": 245.0,
         "width": 180.0,
         "height": 16.0,
         "rotation": -0.0,
         "visible": true,
         "properties": [
          {
           "name": "image_index",
           "type": "int",
           "value": 31
          },
          {
           "name": "bcolumn",
           "type": "float",
           "value": 0.0
          },
          {
           "name": "bid",
           "type": "float",
           "value": 3.0
          },
          {
           "name": "submenu",
           "type": "float",
           "value": 8.0
          }
         ]
        },
        {
         "id": 78,
         "name": "",
         "type": "obj_menu_button",
         "gid": 159,
         "x": 412.0,
         "y": 245.0,
         "width": 180.0,
         "height": 16.0,
         "rotation": -0.0,
         "visible": true,
         "properties": [
          {
           "name": "image_index",
           "type": "int",
           "value": 4
          },
          {
           "name": "bcolumn",
           "type": "float",
           "value": 0.0
          },
          {
           "name": "bid",
           "type": "float",
           "value": 4.0
          },
          {
           "name": "submenu",
           "type": "float",
           "value": 8.0
          }
         ]
        },
        {
         "id": 79,
         "name": "",
         "type": "obj_menu_button",
         "gid": 159,
         "x": 10.0,
         "y": 10.0,
         "width": 180.0,
         "height": 16.0,
         "rotation": -0.0,
         "visible": true,
         "properties": [
          {
           "name": "image_index",
           "type": "int",
           "value": 33
          },
          {
           "name": "submenu",
           "type": "float",
           "value": 8.0
          },
          {
           "name": "bcolumn",
           "type": "float",
           "value": 1.0
          }
         ]
        },
        {
         "id": 80,
         "name": "",
         "type": "obj_menu_button",
         "gid": 159,
         "x": 210.0,
         "y": 10.0,
         "width": 180.0,
         "height": 16.0,
         "rotation": -0.0,
         "visible": true,
         "properties": [
          {
           "name": "image_index",
           "type": "int",
           "value": 34
          },
          {
           "name": "submenu",
           "type": "float",
           "value": 8.0
          },
          {
           "name": "bcolumn",
           "type": "float",
           "value": 0.0
          }
         ]
        },
        {
         "id": 81,
         "name": "",
         "type": "obj_menu_button",
         "gid": 159,
         "x": 416.0,
         "y": 10.0,
         "width": 180.0,
         "height": 16.0,
         "rotation": -0.0,
         "visible": true,
         "properties": [
          {
           "name": "image_index",
           "type": "int",
           "value": 35
          },
          {
           "name": "submenu",
           "type": "float",
           "value": 7.0
          },
          {
           "name": "bcolumn",
           "type": "float",
           "value": 1.0
          },
          {
           "name": "bid",
           "type": "float",
           "value": 1.0
          }
         ]
        },
        {
         "id": 82,
         "name": "",
         "type": "obj_menu_abouttext",
         "gid": 156,
         "x": 23.0,
         "y": 60.0,
         "width": 8.0,
         "height": 6.0,
         "rotation": -0.0,
         "visible": true,
         "properties": [
          {
           "name": "text",
           "type": "string",
           "value": "activates if two enemy players\nhit each other at once.in    \nthis case,both are thrown    \nback without being stunned or\ntaking damage,unless one of  \nthem hits too early"
          }
         ]
        },
        {
         "id": 107,
         "name": "",
         "type": "obj_menu_gif",
         "gid": 164,
         "x": 240.0,
         "y": 38.0,
         "width": 240.0,
         "height": 194.0,
         "rotation": -0.0,
         "visible": true,
         "properties": [
          {
           "name": "spr",
           "type": "string",
           "value": "spr_menu_par"
          }
         ]
        }
       ],
       "properties": [
        {
         "name": "depth",
         "type": "int",
         "value": -1700
        }
       ]
      },
      {
       "type": "objectgroup",
       "id": 41,
       "name": "AboutReb",
       "draworder": "index",
       "opacity": 1.0,
       "visible": false,
       "x": 0,
       "y": 0,
       "objects": [
        {
         "id": 83,
         "name": "",
         "type": "obj_menu_button",
         "gid": 159,
         "x": 36.0,
         "y": 245.0,
         "width": 180.0,
         "height": 16.0,
         "rotation": -0.0,
         "visible": true,
         "properties": [
          {
           "name": "image_index",
           "type": "int",
           "value": 29
          },
          {
           "name": "submenu",
           "type": "float",
           "value": 9.0
          },
          {
           "name": "bid",
           "type": "float",
           "value": 1.0
          },
          {
           "name": "bcolumn",
           "type": "float",
           "value": 0.0
          }
         ]
        },
        {
         "id": 84,
         "name": "",
         "type": "obj_menu_button",
         "gid": 159,
         "x": 182.0,
         "y": 245.0,
         "width": 180.0,
         "height": 16.0,
         "rotation": -0.0,
         "visible": true,
         "properties": [
          {
           "name": "image_index",
           "type": "int",
           "value": 30
          },
          {
           "name": "bcolumn",
           "type": "float",
           "value": 0.0
          },
          {
           "name": "bid",
           "type": "float",
           "value": 2.0
          },
          {
           "name": "submenu",
           "type": "float",
           "value": 9.0
          }
         ]
        },
        {
         "id": 85,
         "name": "",
         "type": "obj_menu_button",
         "gid": 159,
         "x": 324.0,
         "y": 245.0,
         "width": 180.0,
         "height": 16.0,
         "rotation": -0.0,
         "visible": true,
         "properties": [
          {
           "name": "image_index",
           "type": "int",
           "value": 31
          },
          {
           "name": "bcolumn",
           "type": "float",
           "value": 0.0
          },
          {
           "name": "bid",
           "type": "float",
           "value": 3.0
          },
          {
           "name": "submenu",
           "type": "float",
           "value": 9.0
          }
         ]
        },
        {
         "id": 86,
         "name": "",
         "type": "obj_menu_button",
         "gid": 159,
         "x": 412.0,
         "y": 245.0,
         "width": 180.0,
         "height": 16.0,
         "rotation": -0.0,
         "visible": true,
         "properties": [
          {
           "name": "image_index",
           "type": "int",
           "value": 4
          },
          {
           "name": "bcolumn",
           "type": "float",
           "value": 0.0
          },
          {
           "name": "bid",
           "type": "float",
           "value": 4.0
          },
          {
           "name": "submenu",
           "type": "float",
           "value": 9.0
          }
         ]
        },
        {
         "id": 87,
         "name": "",
         "type": "obj_menu_button",
         "gid": 159,
         "x": 10.0,
         "y": 10.0,
         "width": 180.0,
         "height": 16.0,
         "rotation": -0.0,
         "visible": true,
         "properties": [
          {
           "name": "image_index",
           "type": "int",
           "value": 34
          },
          {
           "name": "submenu",
           "type": "float",
           "value": 9.0
          },
          {
           "name": "bcolumn",
           "type": "float",
           "value": 1.0
          },
          {
           "name": "bid",
           "type": "float",
           "value": 0.0
          }
         ]
        },
        {
         "id": 88,
         "name": "",
         "type": "obj_menu_button",
         "gid": 159,
         "x": 214.0,
         "y": 10.0,
         "width": 180.0,
         "height": 16.0,
         "rotation": -0.0,
         "visible": true,
         "properties": [
          {
           "name": "image_index",
           "type": "int",
           "value": 35
          },
          {
           "name": "submenu",
           "type": "float",
           "value": 9.0
          },
          {
           "name": "bcolumn",
           "type": "float",
           "value": 0.0
          }
         ]
        },
        {
         "id": 89,
         "name": "",
         "type": "obj_menu_button",
         "gid": 159,
         "x": 415.0,
         "y": 10.0,
         "width": 180.0,
         "height": 16.0,
         "rotation": -0.0,
         "visible": true,
         "properties": [
          {
           "name": "image_index",
           "type": "int",
           "value": 36
          },
          {
           "name": "submenu",
           "type": "float",
           "value": 9.0
          },
          {
           "name": "bcolumn",
           "type": "float",
           "value": 1.0
          },
          {
           "name": "bid",
           "type": "float",
           "value": 1.0
          }
         ]
        },
        {
         "id": 90,
         "name": "",
         "type": "obj_menu_abouttext",
         "gid": 156,
         "x": 23.0,
         "y": 60.0,
         "width": 8.0,
         "height": 6.0,
         "rotation": -0.0,
         "visible": true,
         "properties": [
          {
           "name": "text",
           "type": "string",
           "value": "is survivor's ability to bring\nback other downed ones if they\nhave at least 3 rings and the\nmore rings you have - the faster\nthe revival is,each survivor\ncan be revived only once and\nregain two hp upon doing so,\nsurvivors have 30 seconds to\nget revived,timer will slow\ndown if exe is near to the body.\nseveral players can revive one\nplayer,in that case ressurection\nwill be faster and will take\naway required rings from all \nressurecting players.if several\nbodies are close to each other -\nthey can be revived at once"
          }
         ]
        },
        {
         "id": 108,
         "name": "",
         "type": "obj_menu_gif",
         "gid": 164,
         "x": 240.0,
         "y": 38.0,
         "width": 240.0,
         "height": 194.0,
         "rotation": -0.0,
         "visible": true,
         "properties": [
          {
           "name": "spr",
           "type": "string",
           "value": "spr_menu_reb"
          }
         ]
        }
       ],
       "properties": [
        {
         "name": "depth",
         "type": "int",
         "value": -1800
        }
       ]
      },
      {
       "type": "objectgroup",
       "id": 42,
       "name": "AboutSteal",
       "draworder": "index",
       "opacity": 1.0,
       "visible": false,
       "x": 0,
       "y": 0,
       "objects": [
        {
         "id": 91,
         "name": "",
         "type": "obj_menu_button",
         "gid": 159,
         "x": 36.0,
         "y": 245.0,
         "width": 180.0,
         "height": 16.0,
         "rotation": -0.0,
         "visible": true,
         "properties": [
          {
           "name": "image_index",
           "type": "int",
           "value": 29
          },
          {
           "name": "submenu",
           "type": "float",
           "value": 10.0
          },
          {
           "name": "bid",
           "type": "float",
           "value": 1.0
          },
          {
           "name": "bcolumn",
           "type": "float",
           "value": 0.0
          }
         ]
        },
        {
         "id": 92,
         "name": "",
         "type": "obj_menu_button",
         "gid": 159,
         "x": 182.0,
         "y": 245.0,
         "width": 180.0,
         "height": 16.0,
         "rotation": -0.0,
         "visible": true,
         "properties": [
          {
           "name": "image_index",
           "type": "int",
           "value": 30
          },
          {
           "name": "bcolumn",
           "type": "float",
           "value": 0.0
          },
          {
           "name": "bid",
           "type": "float",
           "value": 2.0
          },
          {
           "name": "submenu",
           "type": "float",
           "value": 10.0
          }
         ]
        },
        {
         "id": 93,
         "name": "",
         "type": "obj_menu_button",
         "gid": 159,
         "x": 324.0,
         "y": 245.0,
         "width": 180.0,
         "height": 16.0,
         "rotation": -0.0,
         "visible": true,
         "properties": [
          {
           "name": "image_index",
           "type": "int",
           "value": 31
          },
          {
           "name": "bcolumn",
           "type": "float",
           "value": 0.0
          },
          {
           "name": "bid",
           "type": "float",
           "value": 3.0
          },
          {
           "name": "submenu",
           "type": "float",
           "value": 10.0
          }
         ]
        },
        {
         "id": 94,
         "name": "",
         "type": "obj_menu_button",
         "gid": 159,
         "x": 412.0,
         "y": 245.0,
         "width": 180.0,
         "height": 16.0,
         "rotation": -0.0,
         "visible": true,
         "properties": [
          {
           "name": "image_index",
           "type": "int",
           "value": 4
          },
          {
           "name": "bcolumn",
           "type": "float",
           "value": 0.0
          },
          {
           "name": "bid",
           "type": "float",
           "value": 4.0
          },
          {
           "name": "submenu",
           "type": "float",
           "value": 10.0
          }
         ]
        },
        {
         "id": 95,
         "name": "",
         "type": "obj_menu_button",
         "gid": 159,
         "x": 10.0,
         "y": 10.0,
         "width": 180.0,
         "height": 16.0,
         "rotation": -0.0,
         "visible": true,
         "properties": [
          {
           "name": "image_index",
           "type": "int",
           "value": 35
          },
          {
           "name": "submenu",
           "type": "float",
           "value": 10.0
          },
          {
           "name": "bcolumn",
           "type": "float",
           "value": 1.0
          }
         ]
        },
        {
         "id": 96,
         "name": "",
         "type": "obj_menu_button",
         "gid": 159,
         "x": 214.0,
         "y": 10.0,
         "width": 180.0,
         "height": 16.0,
         "rotation": -0.0,
         "visible": true,
         "properties": [
          {
           "name": "image_index",
           "type": "int",
           "value": 36
          },
          {
           "name": "bcolumn",
           "type": "float",
           "value": 0.0
          },
          {
           "name": "submenu",
           "type": "float",
           "value": 10.0
          }
         ]
        },
        {
         "id": 97,
         "name": "",
         "type": "obj_menu_button",
         "gid": 159,
         "x": 430.0,
         "y": 10.0,
         "width": 180.0,
         "height": 16.0,
         "rotation": -0.0,
         "visible": true,
         "properties": [
          {
           "name": "image_index",
           "type": "int",
           "value": 37
          },
          {
           "name": "submenu",
           "type": "float",
           "value": 10.0
          },
          {
           "name": "bcolumn",
           "type": "float",
           "value": 1.0
          },
          {
           "name": "bid",
           "type": "float",
           "value": 1.0
          }
         ]
        },
        {
         "id": 98,
         "name": "",
         "type": "obj_menu_abouttext",
         "gid": 156,
         "x": 23.0,
         "y": 60.0,
         "width": 8.0,
         "height": 6.0,
         "rotation": -0.0,
         "visible": true,
         "properties": [
          {
           "name": "text",
           "type": "string",
           "value": "players can hide behind some  \nobjects, which covers them   \nbut disables their specials, \nplayers can still get hurt  \nwhile being hidden,press down \nbehind the object to get     \ncovered. however, standing in \none place for too long will \nslow the survivors down, so \nhiding for too long is \nnot reliable"
          }
         ]
        },
        {
         "id": 109,
         "name": "",
         "type": "obj_menu_gif",
         "gid": 164,
         "x": 240.0,
         "y": 38.0,
         "width": 240.0,
         "height": 194.0,
         "rotation": -0.0,
         "visible": true,
         "properties": [
          {
           "name": "spr",
           "type": "string",
           "value": "spr_menu_steal"
          }
         ]
        }
       ],
       "properties": [
        {
         "name": "depth",
         "type": "int",
         "value": -1900
        }
       ]
      },
      {
       "type": "objectgroup",
       "id": 43,
       "name": "AboutRings",
       "draworder": "index",
       "opacity": 1.0,
       "visible": false,
       "x": 0,
       "y": 0,
       "objects": [
        {
         "id": 99,
         "name": "",
         "type": "obj_menu_button",
         "gid": 159,
         "x": 36.0,
         "y": 245.0,
         "width": 180.0,
         "height": 16.0,
         "rotation": -0.0,
         "visible": true,
         "properties": [
          {
           "name": "image_index",
           "type": "int",
           "value": 29
          },
          {
           "name": "submenu",
           "type": "float",
           "value": 11.0
          },
          {
           "name": "bid",
           "type": "float",
           "value": 1.0
          },
          {
           "name": "bcolumn",
           "type": "float",
           "value": 0.0
          }
         ]
        },
        {
         "id": 100,
         "name": "",
         "type": "obj_menu_button",
         "gid": 159,
         "x": 182.0,
         "y": 245.0,
         "width": 180.0,
         "height": 16.0,
         "rotation": -0.0,
         "visible": true,
         "properties": [
          {
           "name": "image_index",
           "type": "int",
           "value": 30
          },
          {
           "name": "bcolumn",
           "type": "float",
           "value": 0.0
          },
          {
           "name": "bid",
           "type": "float",
           "value": 2.0
          },
          {
           "name": "submenu",
           "type": "float",
           "value": 11.0
          }
         ]
        },
        {
         "id": 101,
         "name": "",
         "type": "obj_menu_button",
         "gid": 159,
         "x": 324.0,
         "y": 245.0,
         "width": 180.0,
         "height": 16.0,
         "rotation": -0.0,
         "visible": true,
         "properties": [
          {
           "name": "image_index",
           "type": "int",
           "value": 31
          },
          {
           "name": "bcolumn",
           "type": "float",
           "value": 0.0
          },
          {
           "name": "bid",
           "type": "float",
           "value": 3.0
          },
          {
           "name": "submenu",
           "type": "float",
           "value": 11.0
          }
         ]
        },
        {
         "id": 102,
         "name": "",
         "type": "obj_menu_button",
         "gid": 159,
         "x": 412.0,
         "y": 245.0,
         "width": 180.0,
         "height": 16.0,
         "rotation": -0.0,
         "visible": true,
         "properties": [
          {
           "name": "image_index",
           "type": "int",
           "value": 4
          },
          {
           "name": "bcolumn",
           "type": "float",
           "value": 0.0
          },
          {
           "name": "bid",
           "type": "float",
           "value": 4.0
          },
          {
           "name": "submenu",
           "type": "float",
           "value": 11.0
          }
         ]
        },
        {
         "id": 103,
         "name": "",
         "type": "obj_menu_button",
         "gid": 159,
         "x": 10.0,
         "y": 10.0,
         "width": 180.0,
         "height": 16.0,
         "rotation": -0.0,
         "visible": true,
         "properties": [
          {
           "name": "image_index",
           "type": "int",
           "value": 36
          },
          {
           "name": "submenu",
           "type": "float",
           "value": 11.0
          },
          {
           "name": "bcolumn",
           "type": "float",
           "value": 1.0
          }
         ]
        },
        {
         "id": 104,
         "name": "",
         "type": "obj_menu_button",
         "gid": 159,
         "x": 219.0,
         "y": 10.0,
         "width": 180.0,
         "height": 16.0,
         "rotation": -0.0,
         "visible": true,
         "properties": [
          {
           "name": "image_index",
           "type": "int",
           "value": 37
          },
          {
           "name": "bcolumn",
           "type": "float",
           "value": 0.0
          },
          {
           "name": "submenu",
           "type": "float",
           "value": 11.0
          }
         ]
        },
        {
         "id": 105,
         "name": "",
         "type": "obj_menu_abouttext",
         "gid": 156,
         "x": 23.0,
         "y": 60.0,
         "width": 8.0,
         "height": 6.0,
         "rotation": -0.0,
         "visible": true,
         "properties": [
          {
           "name": "text",
           "type": "string",
           "value": "randomly appear on the map,      \ncollecting 10 rings will restore\none health point but taking     \ndamage will cause all collected \nrings to scatter,having 10 rings\nat full hp will allow healing   \ninjured survivor,exe can shatter\nthe rings"
          }
         ]
        },
        {
         "id": 110,
         "name": "",
         "type": "obj_menu_gif",
         "gid": 164,
         "x": 240.0,
         "y": 38.0,
         "width": 240.0,
         "height": 194.0,
         "rotation": -0.0,
         "visible": true,
         "properties": [
          {
           "name": "spr",
           "type": "string",
           "value": "spr_menu_rings"
          }
         ]
        },
        {
         "id": 153,
         "name": "",
         "type": "obj_menu_button",
         "gid": 159,
         "x": 403.0,
         "y": 10.0,
         "width": 180.0,
         "height": 16.0,
         "rotation": -0.0,
         "visible": true,
         "properties": [
          {
           "name": "image_index",
           "type": "int",
           "value": 38
          },
          {
           "name": "submenu",
           "type": "float",
           "value": 11.0
          },
          {
           "name": "bcolumn",
           "type": "float",
           "value": 1.0
          },
          {
           "name": "bid",
           "type": "float",
           "value": 1.0
          }
         ]
        }
       ],
       "properties": [
        {
         "name": "depth",
         "type": "int",
         "value": -2000
        }
       ]
      },
      {
       "type": "objectgroup",
       "id": 44,
       "name": "AboutRedRings",
       "draworder": "index",
       "opacity": 1.0,
       "visible": false,
       "x": 0,
       "y": 0,
       "objects": [
        {
         "id": 111,
         "name": "",
         "type": "obj_menu_button",
         "gid": 159,
         "x": 36.0,
         "y": 245.0,
         "width": 180.0,
         "height": 16.0,
         "rotation": -0.0,
         "visible": true,
         "properties": [
          {
           "name": "image_index",
           "type": "int",
           "value": 29
          },
          {
           "name": "submenu",
           "type": "float",
           "value": 12.0
          },
          {
           "name": "bid",
           "type": "float",
           "value": 1.0
          },
          {
           "name": "bcolumn",
           "type": "float",
           "value": 0.0
          }
         ]
        },
        {
         "id": 112,
         "name": "",
         "type": "obj_menu_button",
         "gid": 159,
         "x": 182.0,
         "y": 245.0,
         "width": 180.0,
         "height": 16.0,
         "rotation": -0.0,
         "visible": true,
         "properties": [
          {
           "name": "image_index",
           "type": "int",
           "value": 30
          },
          {
           "name": "bcolumn",
           "type": "float",
           "value": 0.0
          },
          {
           "name": "bid",
           "type": "float",
           "value": 2.0
          },
          {
           "name": "submenu",
           "type": "float",
           "value": 12.0
          }
         ]
        },
        {
         "id": 113,
         "name": "",
         "type": "obj_menu_button",
         "gid": 159,
         "x": 324.0,
         "y": 245.0,
         "width": 180.0,
         "height": 16.0,
         "rotation": -0.0,
         "visible": true,
         "properties": [
          {
           "name": "image_index",
           "type": "int",
           "value": 31
          },
          {
           "name": "bcolumn",
           "type": "float",
           "value": 0.0
          },
          {
           "name": "bid",
           "type": "float",
           "value": 3.0
          },
          {
           "name": "submenu",
           "type": "float",
           "value": 12.0
          }
         ]
        },
        {
         "id": 114,
         "name": "",
         "type": "obj_menu_button",
         "gid": 159,
         "x": 412.0,
         "y": 245.0,
         "width": 180.0,
         "height": 16.0,
         "rotation": -0.0,
         "visible": true,
         "properties": [
          {
           "name": "image_index",
           "type": "int",
           "value": 4
          },
          {
           "name": "bcolumn",
           "type": "float",
           "value": 0.0
          },
          {
           "name": "bid",
           "type": "float",
           "value": 4.0
          },
          {
           "name": "submenu",
           "type": "float",
           "value": 12.0
          }
         ]
        },
        {
         "id": 115,
         "name": "",
         "type": "obj_menu_abouttext",
         "gid": 156,
         "x": 23.0,
         "y": 60.0,
         "width": 8.0,
         "height": 6.0,
         "rotation": -0.0,
         "visible": true,
         "properties": [
          {
           "name": "text",
           "type": "string",
           "value": "can appear randomly instead of\nregular rings,collecting one \nwill disable survivor's      \nspecials and reveal their    \nlocation to exe during 10    \nseconds,getting red ring wont\nlet you escape until its     \neffect runs out.each collected\ngolden ring will reduce red\nring's effect for 0.5 sec.\nand 2 sec. during the escape \ntime"
          }
         ]
        },
        {
         "id": 116,
         "name": "",
         "type": "obj_menu_gif",
         "gid": 164,
         "x": 240.0,
         "y": 38.0,
         "width": 240.0,
         "height": 194.0,
         "rotation": -0.0,
         "visible": true,
         "properties": [
          {
           "name": "spr",
           "type": "string",
           "value": "spr_menu_redrings"
          }
         ]
        },
        {
         "id": 143,
         "name": "",
         "type": "obj_menu_button",
         "gid": 159,
         "x": 206.0,
         "y": 10.0,
         "width": 180.0,
         "height": 16.0,
         "rotation": -0.0,
         "visible": true,
         "properties": [
          {
           "name": "image_index",
           "type": "int",
           "value": 38
          },
          {
           "name": "bcolumn",
           "type": "float",
           "value": 0.0
          },
          {
           "name": "submenu",
           "type": "float",
           "value": 12.0
          }
         ]
        },
        {
         "id": 144,
         "name": "",
         "type": "obj_menu_button",
         "gid": 159,
         "x": 374.0,
         "y": 10.0,
         "width": 180.0,
         "height": 16.0,
         "rotation": -0.0,
         "visible": true,
         "properties": [
          {
           "name": "image_index",
           "type": "int",
           "value": 39
          },
          {
           "name": "submenu",
           "type": "float",
           "value": 12.0
          },
          {
           "name": "bcolumn",
           "type": "float",
           "value": 1.0
          },
          {
           "name": "bid",
           "type": "float",
           "value": 1.0
          }
         ]
        },
        {
         "id": 155,
         "name": "",
         "type": "obj_menu_button",
         "gid": 159,
         "x": 10.0,
         "y": 10.0,
         "width": 180.0,
         "height": 16.0,
         "rotation": -0.0,
         "visible": true,
         "properties": [
          {
           "name": "image_index",
           "type": "int",
           "value": 37
          },
          {
           "name": "submenu",
           "type": "float",
           "value": 12.0
          },
          {
           "name": "bcolumn",
           "type": "float",
           "value": 1.0
          },
          {
           "name": "bid",
           "type": "float",
           "value": 0.0
          }
         ]
        }
       ],
       "properties": [
        {
         "name": "depth",
         "type": "int",
         "value": -2100
        }
       ]
      },
      {
       "type": "objectgroup",
       "id": 45,
       "name": "AboutDemon",
       "draworder": "index",
       "opacity": 1.0,
       "visible": false,
       "x": 0,
       "y": 0,
       "objects": [
        {
         "id": 117,
         "name": "",
         "type": "obj_menu_button",
         "gid": 159,
         "x": 36.0,
         "y": 245.0,
         "width": 180.0,
         "height": 16.0,
         "rotation": -0.0,
         "visible": true,
         "properties": [
          {
           "name": "image_index",
           "type": "int",
           "value": 29
          },
          {
           "name": "submenu",
           "type": "float",
           "value": 13.0
          },
          {
           "name": "bid",
           "type": "float",
           "value": 1.0
          },
          {
           "name": "bcolumn",
           "type": "float",
           "value": 0.0
          }
         ]
        },
        {
         "id": 118,
         "name": "",
         "type": "obj_menu_button",
         "gid": 159,
         "x": 182.0,
         "y": 245.0,
         "width": 180.0,
         "height": 16.0,
         "rotation": -0.0,
         "visible": true,
         "properties": [
          {
           "name": "image_index",
           "type": "int",
           "value": 30
          },
          {
           "name": "bcolumn",
           "type": "float",
           "value": 0.0
          },
          {
           "name": "bid",
           "type": "float",
           "value": 2.0
          },
          {
           "name": "submenu",
           "type": "float",
           "value": 13.0
          }
         ]
        },
        {
         "id": 119,
         "name": "",
         "type": "obj_menu_button",
         "gid": 159,
         "x": 324.0,
         "y": 245.0,
         "width": 180.0,
         "height": 16.0,
         "rotation": -0.0,
         "visible": true,
         "properties": [
          {
           "name": "image_index",
           "type": "int",
           "value": 31
          },
          {
           "name": "bcolumn",
           "type": "float",
           "value": 0.0
          },
          {
           "name": "bid",
           "type": "float",
           "value": 3.0
          },
          {
           "name": "submenu",
           "type": "float",
           "value": 13.0
          }
         ]
        },
        {
         "id": 120,
         "name": "",
         "type": "obj_menu_button",
         "gid": 159,
         "x": 412.0,
         "y": 245.0,
         "width": 180.0,
         "height": 16.0,
         "rotation": -0.0,
         "visible": true,
         "properties": [
          {
           "name": "image_index",
           "type": "int",
           "value": 4
          },
          {
           "name": "bcolumn",
           "type": "float",
           "value": 0.0
          },
          {
           "name": "bid",
           "type": "float",
           "value": 4.0
          },
          {
           "name": "submenu",
           "type": "float",
           "value": 13.0
          }
         ]
        },
        {
         "id": 121,
         "name": "",
         "type": "obj_menu_abouttext",
         "gid": 156,
         "x": 23.0,
         "y": 60.0,
         "width": 8.0,
         "height": 6.0,
         "rotation": -0.0,
         "visible": true,
         "properties": [
          {
           "name": "text",
           "type": "string",
           "value": "first half of killed survivors\nbecomes corrupted after death\ncorrupted victims have no    \nhealth restriction,have lower\ncooldown on some abilities to\ndamage survivors"
          }
         ]
        },
        {
         "id": 122,
         "name": "",
         "type": "obj_menu_gif",
         "gid": 164,
         "x": 240.0,
         "y": 38.0,
         "width": 240.0,
         "height": 194.0,
         "rotation": -0.0,
         "visible": true,
         "properties": [
          {
           "name": "spr",
           "type": "string",
           "value": "spr_menu_demon"
          }
         ]
        },
        {
         "id": 145,
         "name": "",
         "type": "obj_menu_button",
         "gid": 159,
         "x": 10.0,
         "y": 10.0,
         "width": 180.0,
         "height": 16.0,
         "rotation": -0.0,
         "visible": true,
         "properties": [
          {
           "name": "image_index",
           "type": "int",
           "value": 38
          },
          {
           "name": "submenu",
           "type": "float",
           "value": 13.0
          },
          {
           "name": "bcolumn",
           "type": "float",
           "value": 1.0
          },
          {
           "name": "bid",
           "type": "float",
           "value": 0.0
          }
         ]
        },
        {
         "id": 146,
         "name": "",
         "type": "obj_menu_button",
         "gid": 159,
         "x": 194.0,
         "y": 10.0,
         "width": 180.0,
         "height": 16.0,
         "rotation": -0.0,
         "visible": true,
         "properties": [
          {
           "name": "image_index",
           "type": "int",
           "value": 39
          },
          {
           "name": "bcolumn",
           "type": "float",
           "value": 0.0
          },
          {
           "name": "submenu",
           "type": "float",
           "value": 13.0
          }
         ]
        },
        {
         "id": 147,
         "name": "",
         "type": "obj_menu_button",
         "gid": 159,
         "x": 377.0,
         "y": 10.0,
         "width": 180.0,
         "height": 16.0,
         "rotation": -0.0,
         "visible": true,
         "properties": [
          {
           "name": "image_index",
           "type": "int",
           "value": 40
          },
          {
           "name": "submenu",
           "type": "float",
           "value": 13.0
          },
          {
           "name": "bcolumn",
           "type": "float",
           "value": 1.0
          },
          {
           "name": "bid",
           "type": "float",
           "value": 1.0
          }
         ]
        }
       ],
       "properties": [
        {
         "name": "depth",
         "type": "int",
         "value": -2200
        }
       ]
      },
      {
       "type": "objectgroup",
       "id": 46,
       "name": "AboutSudden",
       "draworder": "index",
       "opacity": 1.0,
       "visible": false,
       "x": 0,
       "y": 0,
       "objects": [
        {
         "id": 123,
         "name": "",
         "type": "obj_menu_button",
         "gid": 159,
         "x": 36.0,
         "y": 245.0,
         "width": 180.0,
         "height": 16.0,
         "rotation": -0.0,
         "visible": true,
         "properties": [
          {
           "name": "image_index",
           "type": "int",
           "value": 29
          },
          {
           "name": "submenu",
           "type": "float",
           "value": 14.0
          },
          {
           "name": "bid",
           "type": "float",
           "value": 1.0
          },
          {
           "name": "bcolumn",
           "type": "float",
           "value": 0.0
          }
         ]
        },
        {
         "id": 124,
         "name": "",
         "type": "obj_menu_button",
         "gid": 159,
         "x": 182.0,
         "y": 245.0,
         "width": 180.0,
         "height": 16.0,
         "rotation": -0.0,
         "visible": true,
         "properties": [
          {
           "name": "image_index",
           "type": "int",
           "value": 30
          },
          {
           "name": "bcolumn",
           "type": "float",
           "value": 0.0
          },
          {
           "name": "bid",
           "type": "float",
           "value": 2.0
          },
          {
           "name": "submenu",
           "type": "float",
           "value": 14.0
          }
         ]
        },
        {
         "id": 125,
         "name": "",
         "type": "obj_menu_button",
         "gid": 159,
         "x": 324.0,
         "y": 245.0,
         "width": 180.0,
         "height": 16.0,
         "rotation": -0.0,
         "visible": true,
         "properties": [
          {
           "name": "image_index",
           "type": "int",
           "value": 31
          },
          {
           "name": "bcolumn",
           "type": "float",
           "value": 0.0
          },
          {
           "name": "bid",
           "type": "float",
           "value": 3.0
          },
          {
           "name": "submenu",
           "type": "float",
           "value": 14.0
          }
         ]
        },
        {
         "id": 126,
         "name": "",
         "type": "obj_menu_button",
         "gid": 159,
         "x": 412.0,
         "y": 245.0,
         "width": 180.0,
         "height": 16.0,
         "rotation": -0.0,
         "visible": true,
         "properties": [
          {
           "name": "image_index",
           "type": "int",
           "value": 4
          },
          {
           "name": "bcolumn",
           "type": "float",
           "value": 0.0
          },
          {
           "name": "bid",
           "type": "float",
           "value": 4.0
          },
          {
           "name": "submenu",
           "type": "float",
           "value": 14.0
          }
         ]
        },
        {
         "id": 127,
         "name": "",
         "type": "obj_menu_abouttext",
         "gid": 156,
         "x": 23.0,
         "y": 60.0,
         "width": 8.0,
         "height": 6.0,
         "rotation": -0.0,
         "visible": true,
         "properties": [
          {
           "name": "text",
           "type": "string",
           "value": "is active when game timer is  \non two or less minutes,during\nthis time rebirth is no      \nlonger available"
          }
         ]
        },
        {
         "id": 128,
         "name": "",
         "type": "obj_menu_gif",
         "gid": 164,
         "x": 240.0,
         "y": 38.0,
         "width": 240.0,
         "height": 194.0,
         "rotation": -0.0,
         "visible": true,
         "properties": [
          {
           "name": "spr",
           "type": "string",
           "value": "spr_menu_sudden"
          }
         ]
        },
        {
         "id": 148,
         "name": "",
         "type": "obj_menu_button",
         "gid": 159,
         "x": 194.0,
         "y": 10.0,
         "width": 180.0,
         "height": 16.0,
         "rotation": -0.0,
         "visible": true,
         "properties": [
          {
           "name": "image_index",
           "type": "int",
           "value": 40
          },
          {
           "name": "bcolumn",
           "type": "float",
           "value": 0.0
          },
          {
           "name": "submenu",
           "type": "float",
           "value": 14.0
          }
         ]
        },
        {
         "id": 149,
         "name": "",
         "type": "obj_menu_button",
         "gid": 159,
         "x": 388.0,
         "y": 10.0,
         "width": 180.0,
         "height": 16.0,
         "rotation": -0.0,
         "visible": true,
         "properties": [
          {
           "name": "image_index",
           "type": "int",
           "value": 41
          },
          {
           "name": "submenu",
           "type": "float",
           "value": 14.0
          },
          {
           "name": "bcolumn",
           "type": "float",
           "value": 1.0
          },
          {
           "name": "bid",
           "type": "float",
           "value": 1.0
          }
         ]
        },
        {
         "id": 156,
         "name": "",
         "type": "obj_menu_button",
         "gid": 159,
         "x": 10.0,
         "y": 10.0,
         "width": 180.0,
         "height": 16.0,
         "rotation": -0.0,
         "visible": true,
         "properties": [
          {
           "name": "image_index",
           "type": "int",
           "value": 39
          },
          {
           "name": "submenu",
           "type": "float",
           "value": 14.0
          },
          {
           "name": "bcolumn",
           "type": "float",
           "value": 1.0
          }
         ]
        }
       ],
       "properties": [
        {
         "name": "depth",
         "type": "int",
         "value": -2300
        }
       ]
      },
      {
       "type": "objectgroup",
       "id": 47,
       "name": "AboutDiff",
       "draworder": "index",
       "opacity": 1.0,
       "visible": false,
       "x": 0,
       "y": 0,
       "objects": [
        {
         "id": 135,
         "name": "",
         "type": "obj_menu_button",
         "gid": 159,
         "x": 36.0,
         "y": 245.0,
         "width": 180.0,
         "height": 16.0,
         "rotation": -0.0,
         "visible": true,
         "properties": [
          {
           "name": "image_index",
           "type": "int",
           "value": 29
          },
          {
           "name": "bid",
           "type": "float",
           "value": 1.0
          },
          {
           "name": "bcolumn",
           "type": "float",
           "value": 0.0
          },
          {
           "name": "submenu",
           "type": "float",
           "value": 16.0
          }
         ]
        },
        {
         "id": 136,
         "name": "",
         "type": "obj_menu_button",
         "gid": 159,
         "x": 182.0,
         "y": 245.0,
         "width": 180.0,
         "height": 16.0,
         "rotation": -0.0,
         "visible": true,
         "properties": [
          {
           "name": "image_index",
           "type": "int",
           "value": 30
          },
          {
           "name": "bcolumn",
           "type": "float",
           "value": 0.0
          },
          {
           "name": "bid",
           "type": "float",
           "value": 2.0
          },
          {
           "name": "submenu",
           "type": "float",
           "value": 16.0
          }
         ]
        },
        {
         "id": 137,
         "name": "",
         "type": "obj_menu_button",
         "gid": 159,
         "x": 324.0,
         "y": 245.0,
         "width": 180.0,
         "height": 16.0,
         "rotation": -0.0,
         "visible": true,
         "properties": [
          {
           "name": "image_index",
           "type": "int",
           "value": 31
          },
          {
           "name": "bcolumn",
           "type": "float",
           "value": 0.0
          },
          {
           "name": "bid",
           "type": "float",
           "value": 3.0
          },
          {
           "name": "submenu",
           "type": "float",
           "value": 16.0
          }
         ]
        },
        {
         "id": 138,
         "name": "",
         "type": "obj_menu_button",
         "gid": 159,
         "x": 412.0,
         "y": 245.0,
         "width": 180.0,
         "height": 16.0,
         "rotation": -0.0,
         "visible": true,
         "properties": [
          {
           "name": "image_index",
           "type": "int",
           "value": 4
          },
          {
           "name": "bcolumn",
           "type": "float",
           "value": 0.0
          },
          {
           "name": "bid",
           "type": "float",
           "value": 4.0
          },
          {
           "name": "submenu",
           "type": "float",
           "value": 16.0
          }
         ]
        },
        {
         "id": 139,
         "name": "",
         "type": "obj_menu_abouttext",
         "gid": 156,
         "x": 23.0,
         "y": 60.0,
         "width": 8.0,
         "height": 6.0,
         "rotation": -0.0,
         "visible": true,
         "properties": [
          {
           "name": "text",
           "type": "string",
           "value": "is decided by the size,amount \nof traps and branching of the\nmap,\u2116medium maps ~have 180   \nseconds of minimal time.@easy\nmaps ~have a lot of space and\nmore ways to escape,but      \nsurvivors have to survive for\n25 seconds longer.\\hard maps \n~take 25 seconds less,but    \nusually are small or filled  \nwith traps.&madness maps     \n~also have shorten minimal   \ntime but also shorten time  \nbonus for each new player"
          }
         ]
        },
        {
         "id": 140,
         "name": "",
         "type": "obj_menu_gif",
         "gid": 164,
         "x": 240.0,
         "y": 38.0,
         "width": 240.0,
         "height": 194.0,
         "rotation": -0.0,
         "visible": true,
         "properties": [
          {
           "name": "spr",
           "type": "string",
           "value": "spr_menu_diff"
          }
         ]
        },
        {
         "id": 141,
         "name": "",
         "type": "obj_menu_button",
         "gid": 159,
         "x": 10.0,
         "y": 10.0,
         "width": 180.0,
         "height": 16.0,
         "rotation": -0.0,
         "visible": true,
         "properties": [
          {
           "name": "image_index",
           "type": "int",
           "value": 41
          },
          {
           "name": "submenu",
           "type": "float",
           "value": 16.0
          },
          {
           "name": "bcolumn",
           "type": "float",
           "value": 1.0
          }
         ]
        },
        {
         "id": 142,
         "name": "",
         "type": "obj_menu_button",
         "gid": 159,
         "x": 202.0,
         "y": 10.0,
         "width": 180.0,
         "height": 16.0,
         "rotation": -0.0,
         "visible": true,
         "properties": [
          {
           "name": "image_index",
           "type": "int",
           "value": 42
          },
          {
           "name": "bcolumn",
           "type": "float",
           "value": 0.0
          },
          {
           "name": "submenu",
           "type": "float",
           "value": 16.0
          }
         ]
        },
        {
         "id": 157,
         "name": "",
         "type": "obj_menu_button",
         "gid": 159,
         "x": 438.0,
         "y": 10.0,
         "width": 180.0,
         "height": 16.0,
         "rotation": -0.0,
         "visible": true,
         "properties": [
          {
           "name": "image_index",
           "type": "int",
           "value": 32
          },
          {
           "name": "submenu",
           "type": "float",
           "value": 16.0
          },
          {
           "name": "bcolumn",
           "type": "float",
           "value": 1.0
          },
          {
           "name": "bid",
           "type": "float",
           "value": 1.0
          }
         ]
        }
       ],
       "properties": [
        {
         "name": "depth",
         "type": "int",
         "value": -2400
        }
       ]
      },
      {
       "type": "objectgroup",
       "id": 48,
       "name": "AboutHit",
       "draworder": "index",
       "opacity": 1.0,
       "visible": false,
       "x": 0,
       "y": 0,
       "objects": [
        {
         "id": 163,
         "name": "",
         "type": "obj_menu_button",
         "gid": 159,
         "x": 36.0,
         "y": 245.0,
         "width": 180.0,
         "height": 16.0,
         "rotation": -0.0,
         "visible": true,
         "properties": [
          {
           "name": "image_index",
           "type": "int",
           "value": 29
          },
          {
           "name": "submenu",
           "type": "float",
           "value": 7.0
          },
          {
           "name": "bid",
           "type": "float",
           "value": 1.0
          },
          {
           "name": "bcolumn",
           "type": "float",
           "value": 0.0
          }
         ]
        },
        {
         "id": 164,
         "name": "",
         "type": "obj_menu_button",
         "gid": 159,
         "x": 182.0,
         "y": 245.0,
         "width": 180.0,
         "height": 16.0,
         "rotation": -0.0,
         "visible": true,
         "properties": [
          {
           "name": "image_index",
           "type": "int",
           "value": 30
          },
          {
           "name": "bcolumn",
           "type": "float",
           "value": 0.0
          },
          {
           "name": "bid",
           "type": "float",
           "value": 2.0
          },
          {
           "name": "submenu",
           "type": "float",
           "value": 7.0
          }
         ]
        },
        {
         "id": 165,
         "name": "",
         "type": "obj_menu_button",
         "gid": 159,
         "x": 324.0,
         "y": 245.0,
         "width": 180.0,
         "height": 16.0,
         "rotation": -0.0,
         "visible": true,
         "properties": [
          {
           "name": "image_index",
           "type": "int",
           "value": 31
          },
          {
           "name": "bcolumn",
           "type": "float",
           "value": 0.0
          },
          {
           "name": "bid",
           "type": "float",
           "value": 3.0
          },
          {
           "name": "submenu",
           "type": "float",
           "value": 7.0
          }
         ]
        },
        {
         "id": 166,
         "name": "",
         "type": "obj_menu_button",
         "gid": 159,
         "x": 412.0,
         "y": 245.0,
         "width": 180.0,
         "height": 16.0,
         "rotation": -0.0,
         "visible": true,
         "properties": [
          {
           "name": "image_index",
           "type": "int",
           "value": 4
          },
          {
           "name": "bcolumn",
           "type": "float",
           "value": 0.0
          },
          {
           "name": "bid",
           "type": "float",
           "value": 4.0
          },
          {
           "name": "submenu",
           "type": "float",
           "value": 7.0
          }
         ]
        },
        {
         "id": 167,
         "name": "",
         "type": "obj_menu_button",
         "gid": 159,
         "x": 10.0,
         "y": 10.0,
         "width": 180.0,
         "height": 16.0,
         "rotation": -0.0,
         "visible": true,
         "properties": [
          {
           "name": "image_index",
           "type": "int",
           "value": 32
          },
          {
           "name": "submenu",
           "type": "float",
           "value": 7.0
          },
          {
           "name": "bcolumn",
           "type": "float",
           "value": 1.0
          }
         ]
        },
        {
         "id": 168,
         "name": "",
         "type": "obj_menu_button",
         "gid": 159,
         "x": 229.0,
         "y": 10.0,
         "width": 180.0,
         "height": 16.0,
         "rotation": -0.0,
         "visible": true,
         "properties": [
          {
           "name": "image_index",
           "type": "int",
           "value": 33
          },
          {
           "name": "bcolumn",
           "type": "float",
           "value": 0.0
          },
          {
           "name": "submenu",
           "type": "float",
           "value": 7.0
          }
         ]
        },
        {
         "id": 169,
         "name": "",
         "type": "obj_menu_button",
         "gid": 159,
         "x": 406.0,
         "y": 10.0,
         "width": 180.0,
         "height": 16.0,
         "rotation": -0.0,
         "visible": true,
         "properties": [
          {
           "name": "image_index",
           "type": "int",
           "value": 34
          },
          {
           "name": "submenu",
           "type": "float",
           "value": 7.0
          },
          {
           "name": "bcolumn",
           "type": "float",
           "value": 1.0
          },
          {
           "name": "bid",
           "type": "float",
           "value": 1.0
          }
         ]
        },
        {
         "id": 170,
         "name": "",
         "type": "obj_menu_abouttext",
         "gid": 156,
         "x": 23.0,
         "y": 60.0,
         "width": 8.0,
         "height": 6.0,
         "rotation": -0.0,
         "visible": true,
         "properties": [
          {
           "name": "text",
           "type": "string",
           "value": "an ability of most characters \nthat is capable of dealing \ndamage through spinning.if a \nsurvivor hits an enemy - they\nstun them,while survivors get\ndamage from enemy hits"
          }
         ]
        },
        {
         "id": 171,
         "name": "",
         "type": "obj_menu_gif",
         "gid": 164,
         "x": 240.0,
         "y": 38.0,
         "width": 240.0,
         "height": 194.0,
         "rotation": -0.0,
         "visible": true,
         "properties": [
          {
           "name": "spr",
           "type": "string",
           "value": "spr_menu_hit"
          }
         ]
        }
       ],
       "properties": [
        {
         "name": "depth",
         "type": "int",
         "value": -2500
        }
       ]
      }
     ],
     "properties": [
      {
       "name": "depth",
       "type": "int",
       "value": -2600
      }
     ]
    },
    {
     "type": "group",
     "id": 49,
     "name": "Characters",
     "opacity": 1.0,
     "visible": false,
     "x": 0,
     "y": 0,
     "layers": [
      {
       "type": "objectgroup",
       "id": 50,
       "name": "AboutTails",
       "draworder": "index",
       "opacity": 1.0,
       "visible": false,
       "x": 0,
       "y": 0,
       "objects": [
        {
         "id": 248,
         "name": "",
         "type": "obj_menu_button",
         "gid": 159,
         "x": 36.0,
         "y": 245.0,
         "width": 180.0,
         "height": 16.0,
         "rotation": -0.0,
         "visible": true,
         "properties": [
          {
           "name": "image_index",
           "type": "int",
           "value": 29
          },
          {
           "name": "submenu",
           "type": "float",
           "value": 19.0
          },
          {
           "name": "bcolumn",
           "type": "float",
           "value": 0.0
          },
          {
           "name": "bid",
           "type": "float",
           "value": 2.0
          }
         ]
        },
        {
         "id": 249,
         "name": "",
         "type": "obj_menu_button",
         "gid": 159,
         "x": 182.0,
         "y": 245.0,
         "width": 180.0,
         "height": 16.0,
         "rotation": -0.0,
         "visible": true,
         "properties": [
          {
           "name": "image_index",
           "type": "int",
           "value": 30
          },
          {
           "name": "bcolumn",
           "type": "float",
           "value": 0.0
          },
          {
           "name": "bid",
           "type": "float",
           "value": 1.0
          },
          {
           "name": "submenu",
           "type": "float",
           "value": 19.0
          }
         ]
        },
        {
         "id": 250,
         "name": "",
         "type": "obj_menu_button",
         "gid": 159,
         "x": 324.0,
         "y": 245.0,
         "width": 180.0,
         "height": 16.0,
         "rotation": -0.0,
         "visible": true,
         "properties": [
          {
           "name": "image_index",
           "type": "int",
           "value": 31
          },
          {
           "name": "bid",
           "type": "float",
           "value": 3.0
          },
          {
           "name": "submenu",
           "type": "float",
           "value": 19.0
          },
          {
           "name": "bcolumn",
           "type": "float",
           "value": 0.0
          }
         ]
        },
        {
         "id": 251,
         "name": "",
         "type": "obj_menu_button",
         "gid": 159,
         "x": 412.0,
         "y": 245.0,
         "width": 180.0,
         "height": 16.0,
         "rotation": -0.0,
         "visible": true,
         "properties": [
          {
           "name": "image_index",
           "type": "int",
           "value": 4
          },
          {
           "name": "bid",
           "type": "float",
           "value": 4.0
          },
          {
           "name": "submenu",
           "type": "float",
           "value": 19.0
          },
          {
           "name": "bcolumn",
           "type": "float",
           "value": 0.0
          }
         ]
        },
        {
         "id": 252,
         "name": "",
         "type": "obj_menu_button",
         "gid": 159,
         "x": 224.0,
         "y": 10.0,
         "width": 180.0,
         "height": 16.0,
         "rotation": -0.0,
         "visible": true,
         "properties": [
          {
           "name": "image_index",
           "type": "int",
           "value": 43
          },
          {
           "name": "submenu",
           "type": "float",
           "value": 19.0
          },
          {
           "name": "bcolumn",
           "type": "float",
           "value": 0.0
          }
         ]
        },
        {
         "id": 253,
         "name": "",
         "type": "obj_menu_button",
         "gid": 159,
         "x": 406.0,
         "y": 10.0,
         "width": 180.0,
         "height": 16.0,
         "rotation": -0.0,
         "visible": true,
         "properties": [
          {
           "name": "image_index",
           "type": "int",
           "value": 44
          },
          {
           "name": "submenu",
           "type": "float",
           "value": 19.0
          },
          {
           "name": "bcolumn",
           "type": "float",
           "value": 1.0
          },
          {
           "name": "bid",
           "type": "float",
           "value": 1.0
          }
         ]
        },
        {
         "id": 254,
         "name": "",
         "type": "obj_menu_abouttext",
         "gid": 156,
         "x": 23.0,
         "y": 60.0,
         "width": 8.0,
         "height": 6.0,
         "rotation": -0.0,
         "visible": true,
         "properties": [
          {
           "name": "text",
           "type": "string",
           "value": "tails has long-ranged attack  \nwhich stuns longer with each \nsecond of being charged,can  \nfly and moves fast which    \nprovides him with decent     \nmobility,charging the     \nprojectile in exe form allows\nhim to take away up to 3 hp  \nwhich makes him dangerous,   \nhowever longer charge makes  \nit harder to shoot somebody  \ndown"
          }
         ]
        },
        {
         "id": 255,
         "name": "",
         "type": "obj_menu_button",
         "gid": 159,
         "x": 10.0,
         "y": 10.0,
         "width": 180.0,
         "height": 16.0,
         "rotation": -0.0,
         "visible": true,
         "properties": [
          {
           "name": "image_index",
           "type": "int",
           "value": 51
          },
          {
           "name": "bcolumn",
           "type": "float",
           "value": 1.0
          },
          {
           "name": "submenu",
           "type": "float",
           "value": 19.0
          },
          {
           "name": "bid",
           "type": "float",
           "value": 0.0
          }
         ]
        }
       ],
       "properties": [
        {
         "name": "depth",
         "type": "int",
         "value": -2700
        }
       ]
      },
      {
       "type": "objectgroup",
       "id": 51,
       "name": "AboutKnux",
       "draworder": "index",
       "opacity": 1.0,
       "visible": false,
       "x": 0,
       "y": 0,
       "objects": [
        {
         "id": 240,
         "name": "",
         "type": "obj_menu_button",
         "gid": 159,
         "x": 36.0,
         "y": 245.0,
         "width": 180.0,
         "height": 16.0,
         "rotation": -0.0,
         "visible": true,
         "properties": [
          {
           "name": "image_index",
           "type": "int",
           "value": 29
          },
          {
           "name": "submenu",
           "type": "float",
           "value": 20.0
          },
          {
           "name": "bcolumn",
           "type": "float",
           "value": 0.0
          },
          {
           "name": "bid",
           "type": "float",
           "value": 2.0
          }
         ]
        },
        {
         "id": 241,
         "name": "",
         "type": "obj_menu_button",
         "gid": 159,
         "x": 182.0,
         "y": 245.0,
         "width": 180.0,
         "height": 16.0,
         "rotation": -0.0,
         "visible": true,
         "properties": [
          {
           "name": "image_index",
           "type": "int",
           "value": 30
          },
          {
           "name": "bcolumn",
           "type": "float",
           "value": 0.0
          },
          {
           "name": "bid",
           "type": "float",
           "value": 1.0
          },
          {
           "name": "submenu",
           "type": "float",
           "value": 20.0
          }
         ]
        },
        {
         "id": 242,
         "name": "",
         "type": "obj_menu_button",
         "gid": 159,
         "x": 324.0,
         "y": 245.0,
         "width": 180.0,
         "height": 16.0,
         "rotation": -0.0,
         "visible": true,
         "properties": [
          {
           "name": "image_index",
           "type": "int",
           "value": 31
          },
          {
           "name": "bid",
           "type": "float",
           "value": 3.0
          },
          {
           "name": "submenu",
           "type": "float",
           "value": 20.0
          },
          {
           "name": "bcolumn",
           "type": "float",
           "value": 0.0
          }
         ]
        },
        {
         "id": 243,
         "name": "",
         "type": "obj_menu_button",
         "gid": 159,
         "x": 412.0,
         "y": 245.0,
         "width": 180.0,
         "height": 16.0,
         "rotation": -0.0,
         "visible": true,
         "properties": [
          {
           "name": "image_index",
           "type": "int",
           "value": 4
          },
          {
           "name": "bid",
           "type": "float",
           "value": 4.0
          },
          {
           "name": "submenu",
           "type": "float",
           "value": 20.0
          },
          {
           "name": "bcolumn",
           "type": "float",
           "value": 0.0
          }
         ]
        },
        {
         "id": 244,
         "name": "",
         "type": "obj_menu_button",
         "gid": 159,
         "x": 214.0,
         "y": 10.0,
         "width": 180.0,
         "height": 16.0,
         "rotation": -0.0,
         "visible": true,
         "properties": [
          {
           "name": "image_index",
           "type": "int",
           "value": 44
          },
          {
           "name": "submenu",
           "type": "float",
           "value": 20.0
          },
          {
           "name": "bcolumn",
           "type": "float",
           "value": 0.0
          }
         ]
        },
        {
         "id": 245,
         "name": "",
         "type": "obj_menu_button",
         "gid": 159,
         "x": 406.0,
         "y": 10.0,
         "width": 180.0,
         "height": 16.0,
         "rotation": -0.0,
         "visible": true,
         "properties": [
          {
           "name": "image_index",
           "type": "int",
           "value": 45
          },
          {
           "name": "submenu",
           "type": "float",
           "value": 20.0
          },
          {
           "name": "bcolumn",
           "type": "float",
           "value": 1.0
          },
          {
           "name": "bid",
           "type": "float",
           "value": 1.0
          }
         ]
        },
        {
         "id": 246,
         "name": "",
         "type": "obj_menu_abouttext",
         "gid": 156,
         "x": 23.0,
         "y": 60.0,
         "width": 8.0,
         "height": 6.0,
         "rotation": -0.0,
         "visible": true,
         "properties": [
          {
           "name": "text",
           "type": "string",
           "value": "knuckles is protective        \ncharacter whose spin and     \npunch allow him to deter exe,\nhowever his speed and jump   \nheight make it harder to     \nescape or catch up with      \nsurvivors in his exe form,can\nglide for long enough to fly \nover an obstacle"
          }
         ]
        },
        {
         "id": 247,
         "name": "",
         "type": "obj_menu_button",
         "gid": 159,
         "x": 10.0,
         "y": 10.0,
         "width": 180.0,
         "height": 16.0,
         "rotation": -0.0,
         "visible": true,
         "properties": [
          {
           "name": "image_index",
           "type": "int",
           "value": 43
          },
          {
           "name": "bcolumn",
           "type": "float",
           "value": 1.0
          },
          {
           "name": "submenu",
           "type": "float",
           "value": 20.0
          },
          {
           "name": "bid",
           "type": "float",
           "value": 0.0
          }
         ]
        }
       ],
       "properties": [
        {
         "name": "depth",
         "type": "int",
         "value": -2800
        }
       ]
      },
      {
       "type": "objectgroup",
       "id": 52,
       "name": "AboutEgg",
       "draworder": "index",
       "opacity": 1.0,
       "visible": false,
       "x": 0,
       "y": 0,
       "objects": [
        {
         "id": 232,
         "name": "",
         "type": "obj_menu_button",
         "gid": 159,
         "x": 36.0,
         "y": 245.0,
         "width": 180.0,
         "height": 16.0,
         "rotation": -0.0,
         "visible": true,
         "properties": [
          {
           "name": "image_index",
           "type": "int",
           "value": 29
          },
          {
           "name": "submenu",
           "type": "float",
           "value": 21.0
          },
          {
           "name": "bcolumn",
           "type": "float",
           "value": 0.0
          },
          {
           "name": "bid",
           "type": "float",
           "value": 2.0
          }
         ]
        },
        {
         "id": 233,
         "name": "",
         "type": "obj_menu_button",
         "gid": 159,
         "x": 182.0,
         "y": 245.0,
         "width": 180.0,
         "height": 16.0,
         "rotation": -0.0,
         "visible": true,
         "properties": [
          {
           "name": "image_index",
           "type": "int",
           "value": 30
          },
          {
           "name": "bcolumn",
           "type": "float",
           "value": 0.0
          },
          {
           "name": "bid",
           "type": "float",
           "value": 1.0
          },
          {
           "name": "submenu",
           "type": "float",
           "value": 21.0
          }
         ]
        },
        {
         "id": 234,
         "name": "",
         "type": "obj_menu_button",
         "gid": 159,
         "x": 324.0,
         "y": 245.0,
         "width": 180.0,
         "height": 16.0,
         "rotation": -0.0,
         "visible": true,
         "properties": [
          {
           "name": "image_index",
           "type": "int",
           "value": 31
          },
          {
           "name": "bid",
           "type": "float",
           "value": 3.0
          },
          {
           "name": "submenu",
           "type": "float",
           "value": 21.0
          },
          {
           "name": "bcolumn",
           "type": "float",
           "value": 0.0
          }
         ]
        },
        {
         "id": 235,
         "name": "",
         "type": "obj_menu_button",
         "gid": 159,
         "x": 412.0,
         "y": 245.0,
         "width": 180.0,
         "height": 16.0,
         "rotation": -0.0,
         "visible": true,
         "properties": [
          {
           "name": "image_index",
           "type": "int",
           "value": 4
          },
          {
           "name": "bid",
           "type": "float",
           "value": 4.0
          },
          {
           "name": "submenu",
           "type": "float",
           "value": 21.0
          },
          {
           "name": "bcolumn",
           "type": "float",
           "value": 0.0
          }
         ]
        },
        {
         "id": 236,
         "name": "",
         "type": "obj_menu_button",
         "gid": 159,
         "x": 218.0,
         "y": 10.0,
         "width": 180.0,
         "height": 16.0,
         "rotation": -0.0,
         "visible": true,
         "properties": [
          {
           "name": "image_index",
           "type": "int",
           "value": 45
          },
          {
           "name": "submenu",
           "type": "float",
           "value": 21.0
          },
          {
           "name": "bcolumn",
           "type": "float",
           "value": 0.0
          }
         ]
        },
        {
         "id": 237,
         "name": "",
         "type": "obj_menu_button",
         "gid": 159,
         "x": 406.0,
         "y": 10.0,
         "width": 180.0,
         "height": 16.0,
         "rotation": -0.0,
         "visible": true,
         "properties": [
          {
           "name": "image_index",
           "type": "int",
           "value": 46
          },
          {
           "name": "submenu",
           "type": "float",
           "value": 21.0
          },
          {
           "name": "bcolumn",
           "type": "float",
           "value": 1.0
          },
          {
           "name": "bid",
           "type": "float",
           "value": 1.0
          }
         ]
        },
        {
         "id": 238,
         "name": "",
         "type": "obj_menu_abouttext",
         "gid": 156,
         "x": 23.0,
         "y": 60.0,
         "width": 8.0,
         "height": 6.0,
         "rotation": -0.0,
         "visible": true,
         "properties": [
          {
           "name": "text",
           "type": "string",
           "value": "eggman is low-mobile character\nhe may seem too vulnerable,  \nbut his electric field can   \nprotect him better than any  \nother attack.has double jump \nwhich allows him to access   \nshortcuts or jump over exe.  \nhis trackers make him useful \nas support as they reveal    \nlocation and slow down those \nwho stepped on them, electric\nfield slows survivors down in\nhis exe form"
          }
         ]
        },
        {
         "id": 239,
         "name": "",
         "type": "obj_menu_button",
         "gid": 159,
         "x": 10.0,
         "y": 10.0,
         "width": 180.0,
         "height": 16.0,
         "rotation": -0.0,
         "visible": true,
         "properties": [
          {
           "name": "image_index",
           "type": "int",
           "value": 44
          },
          {
           "name": "bcolumn",
           "type": "float",
           "value": 1.0
          },
          {
           "name": "submenu",
           "type": "float",
           "value": 21.0
          },
          {
           "name": "bid",
           "type": "float",
           "value": 0.0
          }
         ]
        }
       ],
       "properties": [
        {
         "name": "depth",
         "type": "int",
         "value": -2900
        }
       ]
      },
      {
       "type": "objectgroup",
       "id": 53,
       "name": "AboutAmy",
       "draworder": "index",
       "opacity": 1.0,
       "visible": false,
       "x": 0,
       "y": 0,
       "objects": [
        {
         "id": 224,
         "name": "",
         "type": "obj_menu_button",
         "gid": 159,
         "x": 36.0,
         "y": 245.0,
         "width": 180.0,
         "height": 16.0,
         "rotation": -0.0,
         "visible": true,
         "properties": [
          {
           "name": "image_index",
           "type": "int",
           "value": 29
          },
          {
           "name": "submenu",
           "type": "float",
           "value": 22.0
          },
          {
           "name": "bcolumn",
           "type": "float",
           "value": 0.0
          },
          {
           "name": "bid",
           "type": "float",
           "value": 2.0
          }
         ]
        },
        {
         "id": 225,
         "name": "",
         "type": "obj_menu_button",
         "gid": 159,
         "x": 182.0,
         "y": 245.0,
         "width": 180.0,
         "height": 16.0,
         "rotation": -0.0,
         "visible": true,
         "properties": [
          {
           "name": "image_index",
           "type": "int",
           "value": 30
          },
          {
           "name": "bcolumn",
           "type": "float",
           "value": 0.0
          },
          {
           "name": "bid",
           "type": "float",
           "value": 1.0
          },
          {
           "name": "submenu",
           "type": "float",
           "value": 22.0
          }
         ]
        },
        {
         "id": 226,
         "name": "",
         "type": "obj_menu_button",
         "gid": 159,
         "x": 324.0,
         "y": 245.0,
         "width": 180.0,
         "height": 16.0,
         "rotation": -0.0,
         "visible": true,
         "properties": [
          {
           "name": "image_index",
           "type": "int",
           "value": 31
          },
          {
           "name": "bid",
           "type": "float",
           "value": 3.0
          },
          {
           "name": "submenu",
           "type": "float",
           "value": 22.0
          },
          {
           "name": "bcolumn",
           "type": "float",
           "value": 0.0
          }
         ]
        },
        {
         "id": 227,
         "name": "",
         "type": "obj_menu_button",
         "gid": 159,
         "x": 412.0,
         "y": 245.0,
         "width": 180.0,
         "height": 16.0,
         "rotation": -0.0,
         "visible": true,
         "properties": [
          {
           "name": "image_index",
           "type": "int",
           "value": 4
          },
          {
           "name": "bid",
           "type": "float",
           "value": 4.0
          },
          {
           "name": "submenu",
           "type": "float",
           "value": 22.0
          },
          {
           "name": "bcolumn",
           "type": "float",
           "value": 0.0
          }
         ]
        },
        {
         "id": 228,
         "name": "",
         "type": "obj_menu_button",
         "gid": 159,
         "x": 218.0,
         "y": 10.0,
         "width": 180.0,
         "height": 16.0,
         "rotation": -0.0,
         "visible": true,
         "properties": [
          {
           "name": "image_index",
           "type": "int",
           "value": 46
          },
          {
           "name": "submenu",
           "type": "float",
           "value": 22.0
          },
          {
           "name": "bcolumn",
           "type": "float",
           "value": 0.0
          }
         ]
        },
        {
         "id": 229,
         "name": "",
         "type": "obj_menu_button",
         "gid": 159,
         "x": 406.0,
         "y": 10.0,
         "width": 180.0,
         "height": 16.0,
         "rotation": -0.0,
         "visible": true,
         "properties": [
          {
           "name": "image_index",
           "type": "int",
           "value": 47
          },
          {
           "name": "submenu",
           "type": "float",
           "value": 22.0
          },
          {
           "name": "bcolumn",
           "type": "float",
           "value": 1.0
          },
          {
           "name": "bid",
           "type": "float",
           "value": 1.0
          }
         ]
        },
        {
         "id": 230,
         "name": "",
         "type": "obj_menu_abouttext",
         "gid": 156,
         "x": 23.0,
         "y": 60.0,
         "width": 8.0,
         "height": 6.0,
         "rotation": -0.0,
         "visible": true,
         "properties": [
          {
           "name": "text",
           "type": "string",
           "value": "amy's specials provide her    \nwith good defence and \nmobility,however not having  \nthem charged makes her very \nvulnerable.her attacks can't \nbe parried,she's pretty fast \nby herself,but also has the  \nhammer jump which allows her \nto access shortcuts and hit  \nenemies on jump's start"
          }
         ]
        },
        {
         "id": 231,
         "name": "",
         "type": "obj_menu_button",
         "gid": 159,
         "x": 10.0,
         "y": 10.0,
         "width": 180.0,
         "height": 16.0,
         "rotation": -0.0,
         "visible": true,
         "properties": [
          {
           "name": "image_index",
           "type": "int",
           "value": 45
          },
          {
           "name": "bcolumn",
           "type": "float",
           "value": 1.0
          },
          {
           "name": "submenu",
           "type": "float",
           "value": 22.0
          },
          {
           "name": "bid",
           "type": "float",
           "value": 0.0
          }
         ]
        }
       ],
       "properties": [
        {
         "name": "depth",
         "type": "int",
         "value": -3000
        }
       ]
      },
      {
       "type": "objectgroup",
       "id": 54,
       "name": "AboutCream",
       "draworder": "index",
       "opacity": 1.0,
       "visible": false,
       "x": 0,
       "y": 0,
       "objects": [
        {
         "id": 216,
         "name": "",
         "type": "obj_menu_button",
         "gid": 159,
         "x": 36.0,
         "y": 245.0,
         "width": 180.0,
         "height": 16.0,
         "rotation": -0.0,
         "visible": true,
         "properties": [
          {
           "name": "image_index",
           "type": "int",
           "value": 29
          },
          {
           "name": "submenu",
           "type": "float",
           "value": 23.0
          },
          {
           "name": "bcolumn",
           "type": "float",
           "value": 0.0
          },
          {
           "name": "bid",
           "type": "float",
           "value": 2.0
          }
         ]
        },
        {
         "id": 217,
         "name": "",
         "type": "obj_menu_button",
         "gid": 159,
         "x": 182.0,
         "y": 245.0,
         "width": 180.0,
         "height": 16.0,
         "rotation": -0.0,
         "visible": true,
         "properties": [
          {
           "name": "image_index",
           "type": "int",
           "value": 30
          },
          {
           "name": "bcolumn",
           "type": "float",
           "value": 0.0
          },
          {
           "name": "bid",
           "type": "float",
           "value": 1.0
          },
          {
           "name": "submenu",
           "type": "float",
           "value": 23.0
          }
         ]
        },
        {
         "id": 218,
         "name": "",
         "type": "obj_menu_button",
         "gid": 159,
         "x": 324.0,
         "y": 245.0,
         "width": 180.0,
         "height": 16.0,
         "rotation": -0.0,
         "visible": true,
         "properties": [
          {
           "name": "image_index",
           "type": "int",
           "value": 31
          },
          {
           "name": "bid",
           "type": "float",
           "value": 3.0
          },
          {
           "name": "submenu",
           "type": "float",
           "value": 23.0
          },
          {
           "name": "bcolumn",
           "type": "float",
           "value": 0.0
          }
         ]
        },
        {
         "id": 219,
         "name": "",
         "type": "obj_menu_button",
         "gid": 159,
         "x": 412.0,
         "y": 245.0,
         "width": 180.0,
         "height": 16.0,
         "rotation": -0.0,
         "visible": true,
         "properties": [
          {
           "name": "image_index",
           "type": "int",
           "value": 4
          },
          {
           "name": "bid",
           "type": "float",
           "value": 4.0
          },
          {
           "name": "submenu",
           "type": "float",
           "value": 23.0
          },
          {
           "name": "bcolumn",
           "type": "float",
           "value": 0.0
          }
         ]
        },
        {
         "id": 220,
         "name": "",
         "type": "obj_menu_button",
         "gid": 159,
         "x": 218.0,
         "y": 10.0,
         "width": 180.0,
         "height": 16.0,
         "rotation": -0.0,
         "visible": true,
         "properties": [
          {
           "name": "image_index",
           "type": "int",
           "value": 47
          },
          {
           "name": "submenu",
           "type": "float",
           "value": 23.0
          },
          {
           "name": "bcolumn",
           "type": "float",
           "value": 0.0
          }
         ]
        },
        {
         "id": 221,
         "name": "",
         "type": "obj_menu_button",
         "gid": 159,
         "x": 406.0,
         "y": 10.0,
         "width": 180.0,
         "height": 16.0,
         "rotation": -0.0,
         "visible": true,
         "properties": [
          {
           "name": "image_index",
           "type": "int",
           "value": 48
          },
          {
           "name": "submenu",
           "type": "float",
           "value": 23.0
          },
          {
           "name": "bcolumn",
           "type": "float",
           "value": 1.0
          },
          {
           "name": "bid",
           "type": "float",
           "value": 1.0
          }
         ]
        },
        {
         "id": 222,
         "name": "",
         "type": "obj_menu_abouttext",
         "gid": 156,
         "x": 23.0,
         "y": 60.0,
         "width": 8.0,
         "height": 6.0,
         "rotation": -0.0,
         "visible": true,
         "properties": [
          {
           "name": "text",
           "type": "string",
           "value": "cream has very high mobility  \nthanks to her general speed  \nand faster acceleration.her  \ninstant boost and glide give \nher better control on her    \nspeed.she can't fight back   \naside from bouncing exe off. \nher ability to spawn 3 rings \n(2 red rings in exe form)    \nmakes her a good support"
          }
         ]
        },
        {
         "id": 223,
         "name": "",
         "type": "obj_menu_button",
         "gid": 159,
         "x": 10.0,
         "y": 10.0,
         "width": 180.0,
         "height": 16.0,
         "rotation": -0.0,
         "visible": true,
         "properties": [
          {
           "name": "image_index",
           "type": "int",
           "value": 46
          },
          {
           "name": "bcolumn",
           "type": "float",
           "value": 1.0
          },
          {
           "name": "submenu",
           "type": "float",
           "value": 23.0
          },
          {
           "name": "bid",
           "type": "float",
           "value": 0.0
          }
         ]
        }
       ],
       "properties": [
        {
         "name": "depth",
         "type": "int",
         "value": -3100
        }
       ]
      },
      {
       "type": "objectgroup",
       "id": 55,
       "name": "AboutSally",
       "draworder": "index",
       "opacity": 1.0,
       "visible": false,
       "x": 0,
       "y": 0,
       "objects": [
        {
         "id": 208,
         "name": "",
         "type": "obj_menu_button",
         "gid": 159,
         "x": 36.0,
         "y": 245.0,
         "width": 180.0,
         "height": 16.0,
         "rotation": -0.0,
         "visible": true,
         "properties": [
          {
           "name": "image_index",
           "type": "int",
           "value": 29
          },
          {
           "name": "submenu",
           "type": "float",
           "value": 24.0
          },
          {
           "name": "bcolumn",
           "type": "float",
           "value": 0.0
          },
          {
           "name": "bid",
           "type": "float",
           "value": 2.0
          }
         ]
        },
        {
         "id": 209,
         "name": "",
         "type": "obj_menu_button",
         "gid": 159,
         "x": 182.0,
         "y": 245.0,
         "width": 180.0,
         "height": 16.0,
         "rotation": -0.0,
         "visible": true,
         "properties": [
          {
           "name": "image_index",
           "type": "int",
           "value": 30
          },
          {
           "name": "bcolumn",
           "type": "float",
           "value": 0.0
          },
          {
           "name": "bid",
           "type": "float",
           "value": 1.0
          },
          {
           "name": "submenu",
           "type": "float",
           "value": 24.0
          }
         ]
        },
        {
         "id": 210,
         "name": "",
         "type": "obj_menu_button",
         "gid": 159,
         "x": 324.0,
         "y": 245.0,
         "width": 180.0,
         "height": 16.0,
         "rotation": -0.0,
         "visible": true,
         "properties": [
          {
           "name": "image_index",
           "type": "int",
           "value": 31
          },
          {
           "name": "bid",
           "type": "float",
           "value": 3.0
          },
          {
           "name": "submenu",
           "type": "float",
           "value": 24.0
          },
          {
           "name": "bcolumn",
           "type": "float",
           "value": 0.0
          }
         ]
        },
        {
         "id": 211,
         "name": "",
         "type": "obj_menu_button",
         "gid": 159,
         "x": 412.0,
         "y": 245.0,
         "width": 180.0,
         "height": 16.0,
         "rotation": -0.0,
         "visible": true,
         "properties": [
          {
           "name": "image_index",
           "type": "int",
           "value": 4
          },
          {
           "name": "bid",
           "type": "float",
           "value": 4.0
          },
          {
           "name": "submenu",
           "type": "float",
           "value": 24.0
          },
          {
           "name": "bcolumn",
           "type": "float",
           "value": 0.0
          }
         ]
        },
        {
         "id": 212,
         "name": "",
         "type": "obj_menu_button",
         "gid": 159,
         "x": 218.0,
         "y": 10.0,
         "width": 180.0,
         "height": 16.0,
         "rotation": -0.0,
         "visible": true,
         "properties": [
          {
           "name": "image_index",
           "type": "int",
           "value": 48
          },
          {
           "name": "submenu",
           "type": "float",
           "value": 24.0
          },
          {
           "name": "bcolumn",
           "type": "float",
           "value": 0.0
          }
         ]
        },
        {
         "id": 213,
         "name": "",
         "type": "obj_menu_button",
         "gid": 159,
         "x": 406.0,
         "y": 10.0,
         "width": 180.0,
         "height": 16.0,
         "rotation": -0.0,
         "visible": true,
         "properties": [
          {
           "name": "image_index",
           "type": "int",
           "value": 49
          },
          {
           "name": "submenu",
           "type": "float",
           "value": 24.0
          },
          {
           "name": "bcolumn",
           "type": "float",
           "value": 1.0
          },
          {
           "name": "bid",
           "type": "float",
           "value": 1.0
          }
         ]
        },
        {
         "id": 214,
         "name": "",
         "type": "obj_menu_abouttext",
         "gid": 156,
         "x": 23.0,
         "y": 60.0,
         "width": 8.0,
         "height": 6.0,
         "rotation": -0.0,
         "visible": true,
         "properties": [
          {
           "name": "text",
           "type": "string",
           "value": "despite having medium speed, \nsally can accelerate really \nfast using her slide,which \nalso provides her with\nmaneuverability.for defence \nshe has a kick that can be\nperformed only in the air, \nthe shield to ignore one hit.\nshattering shield with spin or    \nhit will throw her back.for \nher exe form,shards can  \nalso damage near survivors"
          }
         ]
        },
        {
         "id": 215,
         "name": "",
         "type": "obj_menu_button",
         "gid": 159,
         "x": 10.0,
         "y": 10.0,
         "width": 180.0,
         "height": 16.0,
         "rotation": -0.0,
         "visible": true,
         "properties": [
          {
           "name": "image_index",
           "type": "int",
           "value": 47
          },
          {
           "name": "bcolumn",
           "type": "float",
           "value": 1.0
          },
          {
           "name": "submenu",
           "type": "float",
           "value": 24.0
          },
          {
           "name": "bid",
           "type": "float",
           "value": 0.0
          }
         ]
        }
       ],
       "properties": [
        {
         "name": "depth",
         "type": "int",
         "value": -3200
        }
       ]
      },
      {
       "type": "objectgroup",
       "id": 56,
       "name": "AboutExe",
       "draworder": "index",
       "opacity": 1.0,
       "visible": false,
       "x": 0,
       "y": 0,
       "objects": [
        {
         "id": 200,
         "name": "",
         "type": "obj_menu_button",
         "gid": 159,
         "x": 36.0,
         "y": 245.0,
         "width": 180.0,
         "height": 16.0,
         "rotation": -0.0,
         "visible": true,
         "properties": [
          {
           "name": "image_index",
           "type": "int",
           "value": 29
          },
          {
           "name": "submenu",
           "type": "float",
           "value": 25.0
          },
          {
           "name": "bcolumn",
           "type": "float",
           "value": 0.0
          },
          {
           "name": "bid",
           "type": "float",
           "value": 2.0
          }
         ]
        },
        {
         "id": 201,
         "name": "",
         "type": "obj_menu_button",
         "gid": 159,
         "x": 182.0,
         "y": 245.0,
         "width": 180.0,
         "height": 16.0,
         "rotation": -0.0,
         "visible": true,
         "properties": [
          {
           "name": "image_index",
           "type": "int",
           "value": 30
          },
          {
           "name": "bcolumn",
           "type": "float",
           "value": 0.0
          },
          {
           "name": "bid",
           "type": "float",
           "value": 1.0
          },
          {
           "name": "submenu",
           "type": "float",
           "value": 25.0
          }
         ]
        },
        {
         "id": 202,
         "name": "",
         "type": "obj_menu_button",
         "gid": 159,
         "x": 324.0,
         "y": 245.0,
         "width": 180.0,
         "height": 16.0,
         "rotation": -0.0,
         "visible": true,
         "properties": [
          {
           "name": "image_index",
           "type": "int",
           "value": 31
          },
          {
           "name": "bid",
           "type": "float",
           "value": 3.0
          },
          {
           "name": "submenu",
           "type": "float",
           "value": 25.0
          },
          {
           "name": "bcolumn",
           "type": "float",
           "value": 0.0
          }
         ]
        },
        {
         "id": 203,
         "name": "",
         "type": "obj_menu_button",
         "gid": 159,
         "x": 412.0,
         "y": 245.0,
         "width": 180.0,
         "height": 16.0,
         "rotation": -0.0,
         "visible": true,
         "properties": [
          {
           "name": "image_index",
           "type": "int",
           "value": 4
          },
          {
           "name": "bid",
           "type": "float",
           "value": 4.0
          },
          {
           "name": "submenu",
           "type": "float",
           "value": 25.0
          },
          {
           "name": "bcolumn",
           "type": "float",
           "value": 0.0
          }
         ]
        },
        {
         "id": 204,
         "name": "",
         "type": "obj_menu_button",
         "gid": 159,
         "x": 218.0,
         "y": 10.0,
         "width": 180.0,
         "height": 16.0,
         "rotation": -0.0,
         "visible": true,
         "properties": [
          {
           "name": "image_index",
           "type": "int",
           "value": 49
          },
          {
           "name": "submenu",
           "type": "float",
           "value": 25.0
          },
          {
           "name": "bcolumn",
           "type": "float",
           "value": 0.0
          }
         ]
        },
        {
         "id": 205,
         "name": "",
         "type": "obj_menu_button",
         "gid": 159,
         "x": 406.0,
         "y": 10.0,
         "width": 180.0,
         "height": 16.0,
         "rotation": -0.0,
         "visible": true,
         "properties": [
          {
           "name": "image_index",
           "type": "int",
           "value": 52
          },
          {
           "name": "submenu",
           "type": "float",
           "value": 25.0
          },
          {
           "name": "bcolumn",
           "type": "float",
           "value": 1.0
          },
          {
           "name": "bid",
           "type": "float",
           "value": 1.0
          }
         ]
        },
        {
         "id": 206,
         "name": "",
         "type": "obj_menu_abouttext",
         "gid": 156,
         "x": 23.0,
         "y": 60.0,
         "width": 8.0,
         "height": 6.0,
         "rotation": -0.0,
         "visible": true,
         "properties": [
          {
           "name": "text",
           "type": "string",
           "value": "\\sonic.exe~ can become        \n\\invisible~ for survivors,   \nduring this ability he is    \nconstantly tracking nearest \nsurvivor and is immune to all\nincoming damage. he can also\ncancel his spin, this will   \nallow him to avoid bouncing  \noff of survivors. all killers\ncan do that. \n \nsonic.exe~ is a collective  \nimage of all takes on        \nsonic.exe creepypasta. he is \nthe original, his moveset \nmostly draws from original   \nsonic.exe the disaster."
          }
         ]
        },
        {
         "id": 207,
         "name": "",
         "type": "obj_menu_button",
         "gid": 159,
         "x": 10.0,
         "y": 10.0,
         "width": 180.0,
         "height": 16.0,
         "rotation": -0.0,
         "visible": true,
         "properties": [
          {
           "name": "image_index",
           "type": "int",
           "value": 48
          },
          {
           "name": "bcolumn",
           "type": "float",
           "value": 1.0
          },
          {
           "name": "submenu",
           "type": "float",
           "value": 25.0
          },
          {
           "name": "bid",
           "type": "float",
           "value": 0.0
          }
         ]
        }
       ],
       "properties": [
        {
         "name": "depth",
         "type": "int",
         "value": -3300
        }
       ]
      },
      {
       "type": "objectgroup",
       "id": 57,
       "name": "AboutChaos",
       "draworder": "index",
       "opacity": 1.0,
       "visible": false,
       "x": 0,
       "y": 0,
       "objects": [
        {
         "id": 192,
         "name": "",
         "type": "obj_menu_button",
         "gid": 159,
         "x": 36.0,
         "y": 245.0,
         "width": 180.0,
         "height": 16.0,
         "rotation": -0.0,
         "visible": true,
         "properties": [
          {
           "name": "image_index",
           "type": "int",
           "value": 29
          },
          {
           "name": "submenu",
           "type": "float",
           "value": 26.0
          },
          {
           "name": "bcolumn",
           "type": "float",
           "value": 0.0
          },
          {
           "name": "bid",
           "type": "float",
           "value": 2.0
          }
         ]
        },
        {
         "id": 193,
         "name": "",
         "type": "obj_menu_button",
         "gid": 159,
         "x": 182.0,
         "y": 245.0,
         "width": 180.0,
         "height": 16.0,
         "rotation": -0.0,
         "visible": true,
         "properties": [
          {
           "name": "image_index",
           "type": "int",
           "value": 30
          },
          {
           "name": "bcolumn",
           "type": "float",
           "value": 0.0
          },
          {
           "name": "bid",
           "type": "float",
           "value": 1.0
          },
          {
           "name": "submenu",
           "type": "float",
           "value": 26.0
          }
         ]
        },
        {
         "id": 194,
         "name": "",
         "type": "obj_menu_button",
         "gid": 159,
         "x": 324.0,
         "y": 245.0,
         "width": 180.0,
         "height": 16.0,
         "rotation": -0.0,
         "visible": true,
         "properties": [
          {
           "name": "image_index",
           "type": "int",
           "value": 31
          },
          {
           "name": "bid",
           "type": "float",
           "value": 3.0
          },
          {
           "name": "submenu",
           "type": "float",
           "value": 26.0
          },
          {
           "name": "bcolumn",
           "type": "float",
           "value": 0.0
          }
         ]
        },
        {
         "id": 195,
         "name": "",
         "type": "obj_menu_button",
         "gid": 159,
         "x": 412.0,
         "y": 245.0,
         "width": 180.0,
         "height": 16.0,
         "rotation": -0.0,
         "visible": true,
         "properties": [
          {
           "name": "image_index",
           "type": "int",
           "value": 4
          },
          {
           "name": "bid",
           "type": "float",
           "value": 4.0
          },
          {
           "name": "submenu",
           "type": "float",
           "value": 26.0
          },
          {
           "name": "bcolumn",
           "type": "float",
           "value": 0.0
          }
         ]
        },
        {
         "id": 196,
         "name": "",
         "type": "obj_menu_button",
         "gid": 159,
         "x": 218.0,
         "y": 10.0,
         "width": 180.0,
         "height": 16.0,
         "rotation": -0.0,
         "visible": true,
         "properties": [
          {
           "name": "image_index",
           "type": "int",
           "value": 52
          },
          {
           "name": "submenu",
           "type": "float",
           "value": 26.0
          },
          {
           "name": "bcolumn",
           "type": "float",
           "value": 0.0
          }
         ]
        },
        {
         "id": 197,
         "name": "",
         "type": "obj_menu_button",
         "gid": 159,
         "x": 406.0,
         "y": 10.0,
         "width": 180.0,
         "height": 16.0,
         "rotation": -0.0,
         "visible": true,
         "properties": [
          {
           "name": "image_index",
           "type": "int",
           "value": 50
          },
          {
           "name": "submenu",
           "type": "float",
           "value": 26.0
          },
          {
           "name": "bcolumn",
           "type": "float",
           "value": 1.0
          },
          {
           "name": "bid",
           "type": "float",
           "value": 1.0
          }
         ]
        },
        {
         "id": 198,
         "name": "",
         "type": "obj_menu_abouttext",
         "gid": 156,
         "x": 23.0,
         "y": 60.0,
         "width": 8.0,
         "height": 6.0,
         "rotation": -0.0,
         "visible": true,
         "properties": [
          {
           "name": "text",
           "type": "string",
           "value": "/chaos~ has medium range attacks\nthat deal low damage. his air\nattack is a /dash~, that can be\naimed and /redirected~ by dashing\nagain in the direction he's\nfacing upon impacting with a\nsurface. chaos' special is the\n/form of liquid~, which allows\nhim accelerating faster and\ntracking nearest survivors.\ngetting hit cancels this form.\nhe can also cancel his spin,\nthis will allow him to avoid\nbouncing off of survivors.\nall killers can do that. \n\nchaos is an antagonist of    \nsonic.exe the stone of\ndarkness, which originally   \ncame to be in 2018, and was\ndeveloped by \u2116hamster man"
          }
         ]
        },
        {
         "id": 199,
         "name": "",
         "type": "obj_menu_button",
         "gid": 159,
         "x": 10.0,
         "y": 10.0,
         "width": 180.0,
         "height": 16.0,
         "rotation": -0.0,
         "visible": true,
         "properties": [
          {
           "name": "image_index",
           "type": "int",
           "value": 49
          },
          {
           "name": "bcolumn",
           "type": "float",
           "value": 1.0
          },
          {
           "name": "submenu",
           "type": "float",
           "value": 26.0
          },
          {
           "name": "bid",
           "type": "float",
           "value": 0.0
          }
         ]
        }
       ],
       "properties": [
        {
         "name": "depth",
         "type": "int",
         "value": -3400
        }
       ]
      },
      {
       "type": "objectgroup",
       "id": 58,
       "name": "AboutExetior",
       "draworder": "index",
       "opacity": 1.0,
       "visible": false,
       "x": 0,
       "y": 0,
       "objects": [
        {
         "id": 184,
         "name": "",
         "type": "obj_menu_button",
         "gid": 159,
         "x": 36.0,
         "y": 245.0,
         "width": 180.0,
         "height": 16.0,
         "rotation": -0.0,
         "visible": true,
         "properties": [
          {
           "name": "image_index",
           "type": "int",
           "value": 29
          },
          {
           "name": "submenu",
           "type": "float",
           "value": 27.0
          },
          {
           "name": "bcolumn",
           "type": "float",
           "value": 0.0
          },
          {
           "name": "bid",
           "type": "float",
           "value": 2.0
          }
         ]
        },
        {
         "id": 185,
         "name": "",
         "type": "obj_menu_button",
         "gid": 159,
         "x": 182.0,
         "y": 245.0,
         "width": 180.0,
         "height": 16.0,
         "rotation": -0.0,
         "visible": true,
         "properties": [
          {
           "name": "image_index",
           "type": "int",
           "value": 30
          },
          {
           "name": "bcolumn",
           "type": "float",
           "value": 0.0
          },
          {
           "name": "bid",
           "type": "float",
           "value": 1.0
          },
          {
           "name": "submenu",
           "type": "float",
           "value": 27.0
          }
         ]
        },
        {
         "id": 186,
         "name": "",
         "type": "obj_menu_button",
         "gid": 159,
         "x": 324.0,
         "y": 245.0,
         "width": 180.0,
         "height": 16.0,
         "rotation": -0.0,
         "visible": true,
         "properties": [
          {
           "name": "image_index",
           "type": "int",
           "value": 31
          },
          {
           "name": "bid",
           "type": "float",
           "value": 3.0
          },
          {
           "name": "submenu",
           "type": "float",
           "value": 27.0
          },
          {
           "name": "bcolumn",
           "type": "float",
           "value": 0.0
          }
         ]
        },
        {
         "id": 187,
         "name": "",
         "type": "obj_menu_button",
         "gid": 159,
         "x": 412.0,
         "y": 245.0,
         "width": 180.0,
         "height": 16.0,
         "rotation": -0.0,
         "visible": true,
         "properties": [
          {
           "name": "image_index",
           "type": "int",
           "value": 4
          },
          {
           "name": "bid",
           "type": "float",
           "value": 4.0
          },
          {
           "name": "submenu",
           "type": "float",
           "value": 27.0
          },
          {
           "name": "bcolumn",
           "type": "float",
           "value": 0.0
          }
         ]
        },
        {
         "id": 188,
         "name": "",
         "type": "obj_menu_button",
         "gid": 159,
         "x": 218.0,
         "y": 10.0,
         "width": 180.0,
         "height": 16.0,
         "rotation": -0.0,
         "visible": true,
         "properties": [
          {
           "name": "image_index",
           "type": "int",
           "value": 50
          },
          {
           "name": "submenu",
           "type": "float",
           "value": 27.0
          },
          {
           "name": "bcolumn",
           "type": "float",
           "value": 0.0
          }
         ]
        },
        {
         "id": 189,
         "name": "",
         "type": "obj_menu_button",
         "gid": 159,
         "x": 406.0,
         "y": 10.0,
         "width": 180.0,
         "height": 16.0,
         "rotation": -0.0,
         "visible": true,
         "properties": [
          {
           "name": "image_index",
           "type": "int",
           "value": 51
          },
          {
           "name": "submenu",
           "type": "float",
           "value": 27.0
          },
          {
           "name": "bcolumn",
           "type": "float",
           "value": 1.0
          },
          {
           "name": "bid",
           "type": "float",
           "value": 1.0
          }
         ]
        },
        {
         "id": 190,
         "name": "",
         "type": "obj_menu_abouttext",
         "gid": 156,
         "x": 23.0,
         "y": 60.0,
         "width": 8.0,
         "height": 6.0,
         "rotation": -0.0,
         "visible": true,
         "properties": [
          {
           "name": "text",
           "type": "string",
           "value": "\\exetior~ is slightly slower  \nthan the other killers, but  \nhe is capable of making that \nup with his great offense.he\nhas a \\stomp~, it sends out \na shockwave upon landing,  \ndealing damage. his special  \nis placing down a \\black ring~,\nthat allows him to track    \nnearest survivors. however,  \nblack rings can be countered \nby taking them with 5 rings  \nin stock. he can also cancel \nhis spin, this will allow him\nto avoid bouncing off of     \nsurvivors. all killers can do\nthat. \n \nexetior is an antagonist of   \nsonic.exe nightmare universe,\nmade by @j\u0430izkoys~ in 2017"
          }
         ]
        },
        {
         "id": 191,
         "name": "",
         "type": "obj_menu_button",
         "gid": 159,
         "x": 10.0,
         "y": 10.0,
         "width": 180.0,
         "height": 16.0,
         "rotation": -0.0,
         "visible": true,
         "properties": [
          {
           "name": "image_index",
           "type": "int",
           "value": 52
          },
          {
           "name": "bcolumn",
           "type": "float",
           "value": 1.0
          },
          {
           "name": "submenu",
           "type": "float",
           "value": 27.0
          },
          {
           "name": "bid",
           "type": "float",
           "value": 0.0
          }
         ]
        }
       ],
       "properties": [
        {
         "name": "depth",
         "type": "int",
         "value": -3500
        }
       ]
      },
      {
       "type": "objectgroup",
       "id": 59,
       "name": "AboutExeller",
       "draworder": "index",
       "opacity": 1.0,
       "visible": false,
       "x": 0,
       "y": 0,
       "objects": [
        {
         "id": 176,
         "name": "",
         "type": "obj_menu_button",
         "gid": 159,
         "x": 36.0,
         "y": 245.0,
         "width": 180.0,
         "height": 16.0,
         "rotation": -0.0,
         "visible": true,
         "properties": [
          {
           "name": "image_index",
           "type": "int",
           "value": 29
          },
          {
           "name": "submenu",
           "type": "float",
           "value": 28.0
          },
          {
           "name": "bcolumn",
           "type": "float",
           "value": 0.0
          },
          {
           "name": "bid",
           "type": "float",
           "value": 2.0
          }
         ]
        },
        {
         "id": 177,
         "name": "",
         "type": "obj_menu_button",
         "gid": 159,
         "x": 182.0,
         "y": 245.0,
         "width": 180.0,
         "height": 16.0,
         "rotation": -0.0,
         "visible": true,
         "properties": [
          {
           "name": "image_index",
           "type": "int",
           "value": 30
          },
          {
           "name": "bcolumn",
           "type": "float",
           "value": 0.0
          },
          {
           "name": "bid",
           "type": "float",
           "value": 1.0
          },
          {
           "name": "submenu",
           "type": "float",
           "value": 28.0
          }
         ]
        },
        {
         "id": 178,
         "name": "",
         "type": "obj_menu_button",
         "gid": 159,
         "x": 324.0,
         "y": 245.0,
         "width": 180.0,
         "height": 16.0,
         "rotation": -0.0,
         "visible": true,
         "properties": [
          {
           "name": "image_index",
           "type": "int",
           "value": 31
          },
          {
           "name": "bid",
           "type": "float",
           "value": 3.0
          },
          {
           "name": "submenu",
           "type": "float",
           "value": 28.0
          },
          {
           "name": "bcolumn",
           "type": "float",
           "value": 0.0
          }
         ]
        },
        {
         "id": 179,
         "name": "",
         "type": "obj_menu_button",
         "gid": 159,
         "x": 412.0,
         "y": 245.0,
         "width": 180.0,
         "height": 16.0,
         "rotation": -0.0,
         "visible": true,
         "properties": [
          {
           "name": "image_index",
           "type": "int",
           "value": 4
          },
          {
           "name": "bid",
           "type": "float",
           "value": 4.0
          },
          {
           "name": "submenu",
           "type": "float",
           "value": 28.0
          },
          {
           "name": "bcolumn",
           "type": "float",
           "value": 0.0
          }
         ]
        },
        {
         "id": 180,
         "name": "",
         "type": "obj_menu_button",
         "gid": 159,
         "x": 218.0,
         "y": 10.0,
         "width": 180.0,
         "height": 16.0,
         "rotation": -0.0,
         "visible": true,
         "properties": [
          {
           "name": "image_index",
           "type": "int",
           "value": 51
          },
          {
           "name": "submenu",
           "type": "float",
           "value": 28.0
          },
          {
           "name": "bcolumn",
           "type": "float",
           "value": 0.0
          }
         ]
        },
        {
         "id": 181,
         "name": "",
         "type": "obj_menu_button",
         "gid": 159,
         "x": 406.0,
         "y": 10.0,
         "width": 180.0,
         "height": 16.0,
         "rotation": -0.0,
         "visible": true,
         "properties": [
          {
           "name": "image_index",
           "type": "int",
           "value": 43
          },
          {
           "name": "submenu",
           "type": "float",
           "value": 28.0
          },
          {
           "name": "bcolumn",
           "type": "float",
           "value": 1.0
          },
          {
           "name": "bid",
           "type": "float",
           "value": 1.0
          }
         ]
        },
        {
         "id": 182,
         "name": "",
         "type": "obj_menu_abouttext",
         "gid": 156,
         "x": 23.0,
         "y": 60.0,
         "width": 8.0,
         "height": 6.0,
         "rotation": -0.0,
         "visible": true,
         "properties": [
          {
           "name": "text",
           "type": "string",
           "value": "\\exeller~ can create \\clones~ that \nreveal the location of survivors \nwithin their field of view, up \nto two and \\teleport~ to each one, \nreplacing them and allowing \nhim to track nearest survivors\nthis ability provides exeller \ngreat strategic potential in \nall eniviorments. he can also \ncancel his spin, this will \nallow him to avoid bouncing \noff of survivors.all killers \ncan do that. \n \nexeller is an antagonist of  \nsonic.exe spirits of hell and \nits sequel, sally.exe whisper \nof soul, by \u2116dan the patient \nbear~  in 2018 and 2021 \nrespectively"
          }
         ]
        },
        {
         "id": 183,
         "name": "",
         "type": "obj_menu_button",
         "gid": 159,
         "x": 10.0,
         "y": 10.0,
         "width": 180.0,
         "height": 16.0,
         "rotation": -0.0,
         "visible": true,
         "properties": [
          {
           "name": "image_index",
           "type": "int",
           "value": 50
          },
          {
           "name": "bcolumn",
           "type": "float",
           "value": 1.0
          },
          {
           "name": "submenu",
           "type": "float",
           "value": 28.0
          },
          {
           "name": "bid",
           "type": "float",
           "value": 0.0
          }
         ]
        }
       ],
       "properties": [
        {
         "name": "depth",
         "type": "int",
         "value": -3600
        }
       ]
      }
     ],
     "properties": [
      {
       "name": "depth",
       "type": "int",
       "value": -3700
      }
     ]
    },
    {
     "type": "objectgroup",
     "id": 60,
     "name": "AboutCredits",
     "draworder": "index",
     "opacity": 1.0,
     "visible": false,
     "x": 0,
     "y": 0,
     "objects": [
      {
       "id": 172,
       "name": "",
       "type": "obj_menu_button",
       "gid": 159,
       "x": 36.0,
       "y": 245.0,
       "width": 180.0,
       "height": 16.0,
       "rotation": -0.0,
       "visible": true,
       "properties": [
        {
         "name": "image_index",
         "type": "int",
         "value": 29
        },
        {
         "name": "bid",
         "type": "float",
         "value": 3.0
        },
        {
         "name": "bcolumn",
         "type": "float",
         "value": 0.0
        },
        {
         "name": "submenu",
         "type": "float",
         "value": 17.0
        }
       ]
      },
      {
       "id": 173,
       "name": "",
       "type": "obj_menu_button",
       "gid": 159,
       "x": 182.0,
       "y": 245.0,
       "width": 180.0,
       "height": 16.0,
       "rotation": -0.0,
       "visible": true,
       "properties": [
        {
         "name": "image_index",
         "type": "int",
         "value": 30
        },
        {
         "name": "bcolumn",
         "type": "float",
         "value": 0.0
        },
        {
         "name": "submenu",
         "type": "float",
         "value": 17.0
        },
        {
         "name": "bid",
         "type": "float",
         "value": 2.0
        }
       ]
      },
      {
       "id": 174,
       "name": "",
       "type": "obj_menu_button",
       "gid": 159,
       "x": 324.0,
       "y": 245.0,
       "width": 180.0,
       "height": 16.0,
       "rotation": -0.0,
       "visible": true,
       "properties": [
        {
         "name": "image_index",
         "type": "int",
         "value": 31
        },
        {
         "name": "bcolumn",
         "type": "float",
         "value": 0.0
        },
        {
         "name": "submenu",
         "type": "float",
         "value": 17.0
        }
       ]
      },
      {
       "id": 175,
       "name": "",
       "type": "obj_menu_button",
       "gid": 159,
       "x": 412.0,
       "y": 245.0,
       "width": 180.0,
       "height": 16.0,
       "rotation": -0.0,
       "visible": true,
       "properties": [
        {
         "name": "image_index",
         "type": "int",
         "value": 4
        },
        {
         "name": "bid",
         "type": "float",
         "value": 1.0
        },
        {
         "name": "bcolumn",
         "type": "float",
         "value": 0.0
        },
        {
         "name": "submenu",
         "type": "float",
         "value": 17.0
        }
       ]
      }
     ],
     "properties": [
      {
       "name": "depth",
       "type": "int",
       "value": -3800
      }
     ]
    },
    {
     "type": "objectgroup",
     "id": 61,
     "name": "AboutBack",
     "draworder": "index",
     "opacity": 1.0,
     "visible": false,
     "x": 0,
     "y": 0,
     "objects": [
      {
       "id": 159,
       "name": "",
       "type": "obj_menu_button",
       "gid": 159,
       "x": 36.0,
       "y": 245.0,
       "width": 180.0,
       "height": 16.0,
       "rotation": -0.0,
       "visible": true,
       "properties": [
        {
         "name": "image_index",
         "type": "int",
         "value": 29
        },
        {
         "name": "bcolumn",
         "type": "float",
         "value": 0.0
        },
        {
         "name": "submenu",
         "type": "float",
         "value": 18.0
        },
        {
         "name": "bid",
         "type": "float",
         "value": 3.0
        }
       ]
      },
      {
       "id": 160,
       "name": "",
       "type": "obj_menu_button",
       "gid": 159,
       "x": 182.0,
       "y": 245.0,
       "width": 180.0,
       "height": 16.0,
       "rotation": -0.0,
       "visible": true,
       "properties": [
        {
         "name": "image_index",
         "type": "int",
         "value": 30
        },
        {
         "name": "bid",
         "type": "float",
         "value": 2.0
        },
        {
         "name": "bcolumn",
         "type": "float",
         "value": 0.0
        },
        {
         "name": "submenu",
         "type": "float",
         "value": 18.0
        }
       ]
      },
      {
       "id": 161,
       "name": "",
       "type": "obj_menu_button",
       "gid": 159,
       "x": 324.0,
       "y": 245.0,
       "width": 180.0,
       "height": 16.0,
       "rotation": -0.0,
       "visible": true,
       "properties": [
        {
         "name": "image_index",
         "type": "int",
         "value": 31
        },
        {
         "name": "submenu",
         "type": "float",
         "value": 18.0
        },
        {
         "name": "bcolumn",
         "type": "float",
         "value": 0.0
        },
        {
         "name": "bid",
         "type": "float",
         "value": 1.0
        }
       ]
      },
      {
       "id": 162,
       "name": "",
       "type": "obj_menu_button",
       "gid": 159,
       "x": 412.0,
       "y": 245.0,
       "width": 180.0,
       "height": 16.0,
       "rotation": -0.0,
       "visible": true,
       "properties": [
        {
         "name": "image_index",
         "type": "int",
         "value": 4
        },
        {
         "name": "bcolumn",
         "type": "float",
         "value": 0.0
        },
        {
         "name": "submenu",
         "type": "float",
         "value": 18.0
        }
       ]
      }
     ],
     "properties": [
      {
       "name": "depth",
       "type": "int",
       "value": -3900
      }
     ]
    }
   ],
   "properties": [
    {
     "name": "depth",
     "type": "int",
     "value": -4000
    }
   ]
  },
  {
   "type": "objectgroup",
   "id": 62,
   "name": "Fade",
   "draworder": "index",
   "opacity": 1.0,
   "visible": false,
   "x": 0,
   "y": 0,
   "objects": [
    {
     "id": 4,
     "name": "",
     "type": "obj_lobby_white",
     "gid": 139,
     "x": 0.0,
     "y": 0.0,
     "width": 480.0,
     "height": 270.0,
     "rotation": -0.0,
     "visible": true
    }
   ],
   "properties": [
    {
     "name": "depth",
     "type": "int",
     "value": -4100
    }
   ]
  }
 ]
}