{
  "type": "map",
  "version": "1.10",
  "orientation": "orthogonal",
  "renderorder": "right-down",
  "infinite": false,
  "width": 690,
  "height": 342,
  "tilewidth": 8,
  "tileheight": 8,
  "nextlayerid": 12,
  "nextobjectid": 434,
  "properties": [
    {
      "name": "persistent",
      "type": "bool",
      "value": false
    },
    {
      "name": "views_enabled",
      "type": "bool",
      "value": false
    },
    {
      "name": "clear_view_background",
      "type": "bool",
      "value": false
    },
    {
      "name": "view_visible",
      "type": "bool",
      "value": false
    },
    {
      "name": "view_x",
      "type": "int",
      "value": 0
    },
    {
      "name": "view_y",
      "type": "int",
      "value": 0
    },
    {
      "name": "view_width",
      "type": "int",
      "value": 1366
    },
    {
      "name": "view_height",
      "type": "int",
      "value": 768
    },
    {
      "name": "port_x",
      "type": "int",
      "value": 0
    },
    {
      "name": "port_y",
      "type": "int",
      "value": 0
    },
    {
      "name": "port_width",
      "type": "int",
      "value": 1366
    },
    {
      "name": "port_height",
      "type": "int",
      "value": 768
    }
  ],
  "tilesets": [
    {
      "firstgid": 1,
      "source": "Tilesets/objects.tsj"
    },
    {
      "firstgid": 10000,
      "source": "Tilesets/sprites.tsj"
    }
  ],
  "layers": [
    {
      "type": "imagelayer",
      "id": 1,
      "name": "Colour",
      "image": "",
      "imagewidth": 0,
      "imageheight": 0,
      "repeatx": false,
      "repeaty": false,
      "offsetx": 0.0,
      "offsety": 0.0,
      "opacity": 1.0,
      "visible": true,
      "tintcolor": "#ff00003f",
      "x": 0,
      "y": 0,
      "properties": [
        {
          "name": "depth",
          "type": "int",
          "value": 300
        }
      ]
    },
    {
      "type": "imagelayer",
      "id": 2,
      "name": "Background",
      "image": "../Textures/Zones/NotPerfect/notperf.apng",
      "imagewidth": 128,
      "imageheight": 128,
      "repeatx": true,
      "repeaty": true,
      "offsetx": 0.0,
      "offsety": 0.0,
      "opacity": 1.0,
      "visible": true,
      "x": 0,
      "y": 0,
      "properties": [
        {
          "name": "depth",
          "type": "int",
          "value": 200
        },
        {
          "name": "effect",
          "type": "string",
          "value": "_filter_tintfilter"
        },
        {
          "name": "effect.g_TintCol",
          "type": "string",
          "value": "#FFFFFFFF"
        }
      ]
    },
    {
      "type": "objectgroup",
      "id": 3,
      "name": "Tiles",
      "draworder": "index",
      "opacity": 1.0,
      "visible": true,
      "x": 0,
      "y": 0,
      "objects": [
        {
          "id": 409,
          "name": "",
          "type": "obj_np_controller",
          "gid": 207,
          "x": 0.0,
          "y": -32.0,
          "width": 16.0,
          "height": 16.0,
          "rotation": -0.0,
          "visible": true
        }
      ],
      "properties": [
        {
          "name": "depth",
          "type": "int",
          "value": 92
        },
        {
          "name": "effect",
          "type": "string",
          "value": "_filter_greyscale"
        },
        {
          "name": "effect.g_Intensity",
          "type": "float",
          "value": 0.0
        }
      ]
    },
    {
      "type": "objectgroup",
      "id": 11,
      "name": "LevelArt notperfect_p2",
      "draworder": "index",
      "opacity": 1.0,
      "visible": true,
      "x": 0,
      "y": 0,
      "objects": [
        {
          "id": 430,
          "name": "",
          "type": "",
          "gid": 10624,
          "x": 0.0,
          "y": 1368.0,
          "width": 1380.0,
          "height": 1368.0,
          "rotation": -0.0,
          "visible": true,
          "properties": [
            {
              "name": "animation_speed",
              "type": "float",
              "value": 0.0
            }
          ]
        },
        {
          "id": 431,
          "name": "",
          "type": "",
          "gid": 10624,
          "x": 1380.0,
          "y": 1368.0,
          "width": 1380.0,
          "height": 1368.0,
          "rotation": -0.0,
          "visible": true,
          "properties": [
            {
              "name": "animation_speed",
              "type": "float",
              "value": 0.0
            },
            {
              "name": "frame",
              "type": "float",
              "value": 1.0
            }
          ]
        },
        {
          "id": 432,
          "name": "",
          "type": "",
          "gid": 10624,
          "x": 2760.0,
          "y": 1368.0,
          "width": 1380.0,
          "height": 1368.0,
          "rotation": -0.0,
          "visible": true,
          "properties": [
            {
              "name": "animation_speed",
              "type": "float",
              "value": 0.0
            },
            {
              "name": "frame",
              "type": "float",
              "value": 2.0
            }
          ]
        },
        {
          "id": 433,
          "name": "",
          "type": "",
          "gid": 10624,
          "x": 4140.0,
          "y": 1368.0,
          "width": 1380.0,
          "height": 1368.0,
          "rotation": -0.0,
          "visible": true,
          "properties": [
            {
              "name": "animation_speed",
              "type": "float",
              "value": 0.0
            },
            {
              "name": "frame",
              "type": "float",
              "value": 3.0
            }
          ]
        }
      ],
      "properties": [
        {
          "name": "depth",
          "type": "int",
          "value": 92
        },
        {
          "name": "asset_layer",
          "type": "bool",
          "value": true
        }
      ]
    },
    {
      "type": "objectgroup",
      "id": 9,
      "name": "LevelArt notperfect",
      "draworder": "index",
      "opacity": 1.0,
      "visible": true,
      "x": 0,
      "y": 0,
      "objects": [
        {
          "id": 422,
          "name": "",
          "type": "",
          "gid": 10621,
          "x": 0.0,
          "y": 0.0,
          "width": 1380.0,
          "height": 1368.0,
          "rotation": -0.0,
          "visible": true,
          "properties": [
            {
              "name": "animation_speed",
              "type": "float",
              "value": 0.0
            }
          ]
        },
        {
          "id": 423,
          "name": "",
          "type": "",
          "gid": 10621,
          "x": 1380.0,
          "y": 0.0,
          "width": 1380.0,
          "height": 1368.0,
          "rotation": -0.0,
          "visible": true,
          "properties": [
            {
              "name": "animation_speed",
              "type": "float",
              "value": 0.0
            },
            {
              "name": "frame",
              "type": "float",
              "value": 1.0
            }
          ]
        },
        {
          "id": 424,
          "name": "",
          "type": "",
          "gid": 10621,
          "x": 2760.0,
          "y": 0.0,
          "width": 1380.0,
          "height": 1368.0,
          "rotation": -0.0,
          "visible": true,
          "properties": [
            {
              "name": "animation_speed",
              "type": "float",
              "value": 0.0
            },
            {
              "name": "frame",
              "type": "float",
              "value": 2.0
            }
          ]
        },
        {
          "id": 425,
          "name": "",
          "type": "",
          "gid": 10621,
          "x": 4140.0,
          "y": 0.0,
          "width": 1380.0,
          "height": 1368.0,
          "rotation": -0.0,
          "visible": true,
          "properties": [
            {
              "name": "animation_speed",
              "type": "float",
              "value": 0.0
            },
            {
              "name": "frame",
              "type": "float",
              "value": 3.0
            }
          ]
        }
      ],
      "properties": [
        {
          "name": "depth",
          "type": "int",
          "value": 92
        },
        {
          "name": "asset_layer",
          "type": "bool",
          "value": true
        }
      ]
    },
    {
      "type": "objectgroup",
      "id": 4,
      "name": "ShadowTiles",
      "draworder": "index",
      "opacity": 1.0,
      "visible": true,
      "x": 0,
      "y": 0,
      "objects": [],
      "properties": [
        {
          "name": "depth",
          "type": "int",
          "value": 90
        },
        {
          "name": "effect",
          "type": "string",
          "value": "_filter_greyscale"
        },
        {
          "name": "effect.g_Intensity",
          "type": "float",
          "value": 0.0
        }
      ]
    },
    {
      "type": "objectgroup",
      "id": 10,
      "name": "LevelArt notperfect2_p2",
      "draworder": "index",
      "opacity": 1.0,
      "visible": true,
      "x": 0,
      "y": 0,
      "objects": [
        {
          "id": 426,
          "name": "",
          "type": "",
          "gid": 10623,
          "x": 0.0,
          "y": 1368.0,
          "width": 1380.0,
          "height": 1368.0,
          "rotation": -0.0,
          "visible": true,
          "properties": [
            {
              "name": "animation_speed",
              "type": "float",
              "value": 0.0
            }
          ]
        },
        {
          "id": 427,
          "name": "",
          "type": "",
          "gid": 10623,
          "x": 1380.0,
          "y": 1368.0,
          "width": 1380.0,
          "height": 1368.0,
          "rotation": -0.0,
          "visible": true,
          "properties": [
            {
              "name": "animation_speed",
              "type": "float",
              "value": 0.0
            },
            {
              "name": "frame",
              "type": "float",
              "value": 1.0
            }
          ]
        },
        {
          "id": 428,
          "name": "",
          "type": "",
          "gid": 10623,
          "x": 2760.0,
          "y": 1368.0,
          "width": 1380.0,
          "height": 1368.0,
          "rotation": -0.0,
          "visible": true,
          "properties": [
            {
              "name": "animation_speed",
              "type": "float",
              "value": 0.0
            },
            {
              "name": "frame",
              "type": "float",
              "value": 2.0
            }
          ]
        },
        {
          "id": 429,
          "name": "",
          "type": "",
          "gid": 10623,
          "x": 4140.0,
          "y": 1368.0,
          "width": 1380.0,
          "height": 1368.0,
          "rotation": -0.0,
          "visible": true,
          "properties": [
            {
              "name": "animation_speed",
              "type": "float",
              "value": 0.0
            },
            {
              "name": "frame",
              "type": "float",
              "value": 3.0
            }
          ]
        }
      ],
      "properties": [
        {
          "name": "depth",
          "type": "int",
          "value": 90
        },
        {
          "name": "asset_layer",
          "type": "bool",
          "value": true
        }
      ]
    },
    {
      "type": "objectgroup",
      "id": 8,
      "name": "LevelArt notperfect2",
      "draworder": "index",
      "opacity": 1.0,
      "visible": true,
      "x": 0,
      "y": 0,
      "objects": [
        {
          "id": 418,
          "name": "",
          "type": "",
          "gid": 10622,
          "x": 0.0,
          "y": 0.0,
          "width": 1380.0,
          "height": 1368.0,
          "rotation": -0.0,
          "visible": true,
          "properties": [
            {
              "name": "animation_speed",
              "type": "float",
              "value": 0.0
            }
          ]
        },
        {
          "id": 419,
          "name": "",
          "type": "",
          "gid": 10622,
          "x": 1380.0,
          "y": 0.0,
          "width": 1380.0,
          "height": 1368.0,
          "rotation": -0.0,
          "visible": true,
          "properties": [
            {
              "name": "animation_speed",
              "type": "float",
              "value": 0.0
            },
            {
              "name": "frame",
              "type": "float",
              "value": 1.0
            }
          ]
        },
        {
          "id": 420,
          "name": "",
          "type": "",
          "gid": 10622,
          "x": 2760.0,
          "y": 0.0,
          "width": 1380.0,
          "height": 1368.0,
          "rotation": -0.0,
          "visible": true,
          "properties": [
            {
              "name": "animation_speed",
              "type": "float",
              "value": 0.0
            },
            {
              "name": "frame",
              "type": "float",
              "value": 2.0
            }
          ]
        },
        {
          "id": 421,
          "name": "",
          "type": "",
          "gid": 10622,
          "x": 4140.0,
          "y": 0.0,
          "width": 1380.0,
          "height": 1368.0,
          "rotation": -0.0,
          "visible": true,
          "properties": [
            {
              "name": "animation_speed",
              "type": "float",
              "value": 0.0
            },
            {
              "name": "frame",
              "type": "float",
              "value": 3.0
            }
          ]
        }
      ],
      "properties": [
        {
          "name": "depth",
          "type": "int",
          "value": 90
        },
        {
          "name": "asset_layer",
          "type": "bool",
          "value": true
        }
      ]
    },
    {
      "type": "objectgroup",
      "id": 5,
      "name": "Instances",
      "draworder": "index",
      "opacity": 1.0,
      "visible": true,
      "x": 0,
      "y": 0,
      "objects": [
        {
          "id": 1,
          "name": "",
          "type": "obj_solid_block",
          "gid": 255,
          "x": 0.0,
          "y": 2376.0,
          "width": 240.0,
          "height": 360.0,
          "rotation": -0.0,
          "visible": true
        },
        {
          "id": 2,
          "name": "",
          "type": "obj_solid_block",
          "gid": 255,
          "x": 240.0,
          "y": 2424.0,
          "width": 1920.0,
          "height": 312.0,
          "rotation": -0.0,
          "visible": true
        },
        {
          "id": 3,
          "name": "",
          "type": "obj_solid_block",
          "gid": 255,
          "x": 2160.0,
          "y": 2328.0,
          "width": 96.0,
          "height": 408.0,
          "rotation": -0.0,
          "visible": true
        },
        {
          "id": 4,
          "name": "",
          "type": "obj_solid_block",
          "gid": 255,
          "x": 2256.0,
          "y": 2352.0,
          "width": 72.0,
          "height": 384.0,
          "rotation": -0.0,
          "visible": true
        },
        {
          "id": 5,
          "name": "",
          "type": "obj_solid_block",
          "gid": 255,
          "x": 2328.0,
          "y": 2376.0,
          "width": 72.0,
          "height": 360.0,
          "rotation": -0.0,
          "visible": true
        },
        {
          "id": 6,
          "name": "",
          "type": "obj_solid_block",
          "gid": 255,
          "x": 2400.0,
          "y": 2424.0,
          "width": 3120.0,
          "height": 312.0,
          "rotation": -0.0,
          "visible": true
        },
        {
          "id": 7,
          "name": "",
          "type": "obj_solid_block",
          "gid": 255,
          "x": 2016.0,
          "y": 2280.0,
          "width": 96.0,
          "height": 72.0,
          "rotation": -0.0,
          "visible": true
        },
        {
          "id": 8,
          "name": "",
          "type": "obj_solid_block",
          "gid": 255,
          "x": 2112.0,
          "y": 2304.0,
          "width": 72.0,
          "height": 48.0,
          "rotation": -0.0,
          "visible": true
        },
        {
          "id": 9,
          "name": "",
          "type": "obj_solid_block",
          "gid": 255,
          "x": 1824.0,
          "y": 2352.0,
          "width": 72.0,
          "height": 72.0,
          "rotation": -0.0,
          "visible": true
        },
        {
          "id": 10,
          "name": "",
          "type": "obj_solid_block",
          "gid": 255,
          "x": 1656.0,
          "y": 2280.0,
          "width": 72.0,
          "height": 72.0,
          "rotation": -0.0,
          "visible": true
        },
        {
          "id": 11,
          "name": "",
          "type": "obj_solid_block",
          "gid": 255,
          "x": 1512.0,
          "y": 2208.0,
          "width": 72.0,
          "height": 72.0,
          "rotation": -0.0,
          "visible": true
        },
        {
          "id": 12,
          "name": "",
          "type": "obj_solid_block",
          "gid": 255,
          "x": 1368.0,
          "y": 2280.0,
          "width": 72.0,
          "height": 72.0,
          "rotation": -0.0,
          "visible": true
        },
        {
          "id": 13,
          "name": "",
          "type": "obj_solid_block",
          "gid": 255,
          "x": 1152.0,
          "y": 2280.0,
          "width": 72.0,
          "height": 72.0,
          "rotation": -0.0,
          "visible": true
        },
        {
          "id": 14,
          "name": "",
          "type": "obj_solid_block",
          "gid": 255,
          "x": 1008.0,
          "y": 2352.0,
          "width": 72.0,
          "height": 72.0,
          "rotation": -0.0,
          "visible": true
        },
        {
          "id": 15,
          "name": "",
          "type": "obj_solid_block",
          "gid": 255,
          "x": 1272.0,
          "y": 2376.0,
          "width": 48.0,
          "height": 48.0,
          "rotation": -0.0,
          "visible": true
        },
        {
          "id": 16,
          "name": "",
          "type": "obj_solid_block",
          "gid": 255,
          "x": 768.0,
          "y": 2328.0,
          "width": 96.0,
          "height": 24.0,
          "rotation": -0.0,
          "visible": true
        },
        {
          "id": 17,
          "name": "",
          "type": "obj_solid_block",
          "gid": 255,
          "x": 600.0,
          "y": 2304.0,
          "width": 72.0,
          "height": 24.0,
          "rotation": -0.0,
          "visible": true
        },
        {
          "id": 18,
          "name": "",
          "type": "obj_solid_block",
          "gid": 255,
          "x": 504.0,
          "y": 2280.0,
          "width": 24.0,
          "height": 24.0,
          "rotation": -0.0,
          "visible": true
        },
        {
          "id": 19,
          "name": "",
          "type": "obj_solid_block",
          "gid": 255,
          "x": 312.0,
          "y": 2328.0,
          "width": 72.0,
          "height": 24.0,
          "rotation": -0.0,
          "visible": true
        },
        {
          "id": 20,
          "name": "",
          "type": "obj_solid_block",
          "gid": 255,
          "x": 336.0,
          "y": 2064.0,
          "width": 120.0,
          "height": 96.0,
          "rotation": -0.0,
          "visible": true
        },
        {
          "id": 21,
          "name": "",
          "type": "obj_solid_block",
          "gid": 255,
          "x": 576.0,
          "y": 2136.0,
          "width": 384.0,
          "height": 24.0,
          "rotation": -0.0,
          "visible": true
        },
        {
          "id": 22,
          "name": "",
          "type": "obj_solid_block",
          "gid": 255,
          "x": 672.0,
          "y": 2112.0,
          "width": 288.0,
          "height": 24.0,
          "rotation": -0.0,
          "visible": true
        },
        {
          "id": 23,
          "name": "",
          "type": "obj_solid_block",
          "gid": 255,
          "x": 744.0,
          "y": 2088.0,
          "width": 216.0,
          "height": 24.0,
          "rotation": -0.0,
          "visible": true
        },
        {
          "id": 24,
          "name": "",
          "type": "obj_solid_block",
          "gid": 255,
          "x": 816.0,
          "y": 2064.0,
          "width": 144.0,
          "height": 24.0,
          "rotation": -0.0,
          "visible": true
        },
        {
          "id": 25,
          "name": "",
          "type": "obj_solid_block",
          "gid": 255,
          "x": 888.0,
          "y": 2040.0,
          "width": 72.0,
          "height": 24.0,
          "rotation": -0.0,
          "visible": true
        },
        {
          "id": 26,
          "name": "",
          "type": "obj_platform_jumptrough",
          "gid": 221,
          "x": 456.0,
          "y": 2136.0,
          "width": 120.0,
          "height": 8.0,
          "rotation": -0.0,
          "visible": true
        },
        {
          "id": 27,
          "name": "",
          "type": "obj_solid_block",
          "gid": 255,
          "x": 960.0,
          "y": 2136.0,
          "width": 360.0,
          "height": 24.0,
          "rotation": -0.0,
          "visible": true
        },
        {
          "id": 28,
          "name": "",
          "type": "obj_solid_block",
          "gid": 255,
          "x": 1080.0,
          "y": 2112.0,
          "width": 48.00000384,
          "height": 24.0,
          "rotation": -0.0,
          "visible": true
        },
        {
          "id": 29,
          "name": "",
          "type": "obj_solid_block",
          "gid": 255,
          "x": 1320.0,
          "y": 1992.0,
          "width": 120.0,
          "height": 168.0,
          "rotation": -0.0,
          "visible": true
        },
        {
          "id": 30,
          "name": "",
          "type": "obj_solid_block",
          "gid": 255,
          "x": 1440.0,
          "y": 1992.0,
          "width": 120.0,
          "height": 48.00000384,
          "rotation": -0.0,
          "visible": true
        },
        {
          "id": 31,
          "name": "",
          "type": "obj_solid_block",
          "gid": 255,
          "x": 504.0,
          "y": 1992.0,
          "width": 168.0,
          "height": 24.0,
          "rotation": -0.0,
          "visible": true
        },
        {
          "id": 32,
          "name": "",
          "type": "obj_solid_block",
          "gid": 255,
          "x": 624.0,
          "y": 1848.0,
          "width": 432.0,
          "height": 24.0,
          "rotation": -0.0,
          "visible": true
        },
        {
          "id": 33,
          "name": "",
          "type": "obj_solid_block",
          "gid": 255,
          "x": 744.0,
          "y": 1824.0,
          "width": 96.0,
          "height": 24.0,
          "rotation": -0.0,
          "visible": true
        },
        {
          "id": 34,
          "name": "",
          "type": "obj_solid_block",
          "gid": 255,
          "x": 936.0,
          "y": 1752.0,
          "width": 120.0,
          "height": 96.0,
          "rotation": -0.0,
          "visible": true
        },
        {
          "id": 35,
          "name": "",
          "type": "obj_solid_block",
          "gid": 255,
          "x": 1152.0,
          "y": 1680.0,
          "width": 168.0,
          "height": 48.0,
          "rotation": -0.0,
          "visible": true
        },
        {
          "id": 36,
          "name": "",
          "type": "obj_solid_block",
          "gid": 255,
          "x": 1320.0,
          "y": 1704.0,
          "width": 96.00000768,
          "height": 24.0,
          "rotation": -0.0,
          "visible": true
        },
        {
          "id": 37,
          "name": "",
          "type": "obj_solid_block",
          "gid": 255,
          "x": 1320.0,
          "y": 1848.0,
          "width": 528.0,
          "height": 24.0,
          "rotation": -0.0,
          "visible": true
        },
        {
          "id": 38,
          "name": "",
          "type": "obj_solid_block",
          "gid": 255,
          "x": 1080.0,
          "y": 1992.0,
          "width": 144.0,
          "height": 24.0,
          "rotation": -0.0,
          "visible": true
        },
        {
          "id": 39,
          "name": "",
          "type": "obj_solid_block",
          "gid": 255,
          "x": 1128.0,
          "y": 1920.0,
          "width": 96.0,
          "height": 72.0,
          "rotation": -0.0,
          "visible": true
        },
        {
          "id": 40,
          "name": "",
          "type": "obj_solid_block",
          "gid": 255,
          "x": 1704.0,
          "y": 1992.0,
          "width": 72.0,
          "height": 72.0,
          "rotation": -0.0,
          "visible": true
        },
        {
          "id": 41,
          "name": "",
          "type": "obj_solid_block",
          "gid": 255,
          "x": 1824.0,
          "y": 2088.0,
          "width": 48.0,
          "height": 48.0,
          "rotation": -0.0,
          "visible": true
        },
        {
          "id": 42,
          "name": "",
          "type": "obj_solid_block",
          "gid": 255,
          "x": 1920.0,
          "y": 1992.0,
          "width": 72.0,
          "height": 72.0,
          "rotation": -0.0,
          "visible": true
        },
        {
          "id": 43,
          "name": "",
          "type": "obj_solid_block",
          "gid": 255,
          "x": 2064.0,
          "y": 2064.0,
          "width": 72.0,
          "height": 72.0,
          "rotation": -0.0,
          "visible": true
        },
        {
          "id": 44,
          "name": "",
          "type": "obj_solid_block",
          "gid": 255,
          "x": 1656.0,
          "y": 2136.0,
          "width": 480.0,
          "height": 24.0,
          "rotation": -0.0,
          "visible": true
        },
        {
          "id": 45,
          "name": "",
          "type": "obj_solid_block",
          "gid": 255,
          "x": 1488.0,
          "y": 1776.0,
          "width": 96.0,
          "height": 72.0,
          "rotation": -0.0,
          "visible": true
        },
        {
          "id": 46,
          "name": "",
          "type": "obj_solid_block",
          "gid": 255,
          "x": 1656.0,
          "y": 1704.0,
          "width": 120.0,
          "height": 72.0,
          "rotation": -0.0,
          "visible": true
        },
        {
          "id": 47,
          "name": "",
          "type": "obj_solid_block",
          "gid": 255,
          "x": 1848.0,
          "y": 1776.0,
          "width": 144.0,
          "height": 96.0,
          "rotation": -0.0,
          "visible": true
        },
        {
          "id": 48,
          "name": "",
          "type": "obj_solid_block",
          "gid": 255,
          "x": 2544.0,
          "y": 1368.0,
          "width": 432.0,
          "height": 1056.0,
          "rotation": -0.0,
          "visible": true
        },
        {
          "id": 49,
          "name": "",
          "type": "obj_solid_block",
          "gid": 255,
          "x": 2232.0,
          "y": 1368.0,
          "width": 312.0,
          "height": 744.0,
          "rotation": -0.0,
          "visible": true
        },
        {
          "id": 50,
          "name": "",
          "type": "obj_solid_block",
          "gid": 255,
          "x": 2208.0,
          "y": 1368.0,
          "width": 24.0,
          "height": 432.0,
          "rotation": -0.0,
          "visible": true
        },
        {
          "id": 51,
          "name": "",
          "type": "obj_solid_block",
          "gid": 255,
          "x": 2232.0,
          "y": 2112.0,
          "width": 48.0,
          "height": 48.0,
          "rotation": -0.0,
          "visible": true
        },
        {
          "id": 52,
          "name": "",
          "type": "obj_solid_block",
          "gid": 255,
          "x": 2520.0,
          "y": 2112.0,
          "width": 24.0,
          "height": 216.0,
          "rotation": -0.0,
          "visible": true
        },
        {
          "id": 53,
          "name": "",
          "type": "obj_solid_block",
          "gid": 255,
          "x": 0.0,
          "y": 1368.0,
          "width": 480.0,
          "height": 432.0,
          "rotation": -0.0,
          "visible": true
        },
        {
          "id": 54,
          "name": "",
          "type": "obj_solid_block",
          "gid": 255,
          "x": 336.0,
          "y": 1800.0,
          "width": 144.0,
          "height": 72.0,
          "rotation": -0.0,
          "visible": true
        },
        {
          "id": 55,
          "name": "",
          "type": "obj_solid_block",
          "gid": 255,
          "x": 0.0,
          "y": 1800.0,
          "width": 144.0,
          "height": 336.0,
          "rotation": -0.0,
          "visible": true
        },
        {
          "id": 56,
          "name": "",
          "type": "obj_solid_block",
          "gid": 255,
          "x": 0.0,
          "y": 2136.0,
          "width": 72.0,
          "height": 240.0,
          "rotation": -0.0,
          "visible": true
        },
        {
          "id": 57,
          "name": "",
          "type": "obj_solid_block",
          "gid": 255,
          "x": 0.0,
          "y": 1104.0,
          "width": 5520.0,
          "height": 264.0,
          "rotation": -0.0,
          "visible": true
        },
        {
          "id": 58,
          "name": "",
          "type": "obj_solid_block",
          "gid": 255,
          "x": 3768.0,
          "y": 2016.0,
          "width": 96.0,
          "height": 72.0,
          "rotation": -0.0,
          "visible": true
        },
        {
          "id": 59,
          "name": "",
          "type": "obj_solid_block",
          "gid": 255,
          "x": 3696.0,
          "y": 2088.0,
          "width": 288.0,
          "height": 72.0,
          "rotation": -0.0,
          "visible": true
        },
        {
          "id": 60,
          "name": "",
          "type": "obj_solid_block",
          "gid": 255,
          "x": 3576.0,
          "y": 2136.0,
          "width": 120.0,
          "height": 24.0,
          "rotation": -0.0,
          "visible": true
        },
        {
          "id": 61,
          "name": "",
          "type": "obj_solid_block",
          "gid": 255,
          "x": 3984.0,
          "y": 2136.0,
          "width": 911.999936,
          "height": 24.0,
          "rotation": -0.0,
          "visible": true
        },
        {
          "id": 62,
          "name": "",
          "type": "obj_solid_block",
          "gid": 255,
          "x": 4176.0,
          "y": 2016.0,
          "width": 192.0,
          "height": 24.0,
          "rotation": -0.0,
          "visible": true
        },
        {
          "id": 63,
          "name": "",
          "type": "obj_solid_block",
          "gid": 255,
          "x": 4320.0,
          "y": 2040.0,
          "width": 48.0,
          "height": 96.0,
          "rotation": -0.0,
          "visible": true
        },
        {
          "id": 64,
          "name": "",
          "type": "obj_solid_block",
          "gid": 255,
          "x": 4464.0,
          "y": 1368.0,
          "width": 96.0,
          "height": 696.0,
          "rotation": -0.0,
          "visible": true
        },
        {
          "id": 65,
          "name": "",
          "type": "obj_solid_block",
          "gid": 255,
          "x": 4560.0,
          "y": 1968.0,
          "width": 96.0,
          "height": 48.0,
          "rotation": -0.0,
          "visible": true
        },
        {
          "id": 66,
          "name": "",
          "type": "obj_solid_block",
          "gid": 255,
          "x": 4680.0,
          "y": 2088.0,
          "width": 96.0,
          "height": 48.0,
          "rotation": -0.0,
          "visible": true
        },
        {
          "id": 67,
          "name": "",
          "type": "obj_solid_block",
          "gid": 255,
          "x": 4776.0,
          "y": 2016.0,
          "width": 120.0,
          "height": 120.0,
          "rotation": -0.0,
          "visible": true
        },
        {
          "id": 68,
          "name": "",
          "type": "obj_solid_block",
          "gid": 255,
          "x": 4344.0,
          "y": 2160.0,
          "width": 120.0,
          "height": 168.0,
          "rotation": -0.0,
          "visible": true
        },
        {
          "id": 69,
          "name": "",
          "type": "obj_solid_block",
          "gid": 255,
          "x": 4056.0,
          "y": 2304.0,
          "width": 192.0,
          "height": 120.0,
          "rotation": -0.0,
          "visible": true
        },
        {
          "id": 70,
          "name": "",
          "type": "obj_solid_block",
          "gid": 255,
          "x": 3624.0,
          "y": 2376.0,
          "width": 264.0,
          "height": 48.0,
          "rotation": -0.0,
          "visible": true
        },
        {
          "id": 71,
          "name": "",
          "type": "obj_solid_block",
          "gid": 255,
          "x": 3336.0,
          "y": 2280.0,
          "width": 120.0,
          "height": 48.0,
          "rotation": -0.0,
          "visible": true
        },
        {
          "id": 72,
          "name": "",
          "type": "obj_solid_block",
          "gid": 255,
          "x": 3168.0,
          "y": 2280.0,
          "width": 72.0,
          "height": 48.0,
          "rotation": -0.0,
          "visible": true
        },
        {
          "id": 73,
          "name": "",
          "type": "obj_solid_block",
          "gid": 255,
          "x": 3120.0,
          "y": 2328.0,
          "width": 120.0,
          "height": 24.0,
          "rotation": -0.0,
          "visible": true
        },
        {
          "id": 74,
          "name": "",
          "type": "obj_solid_block",
          "gid": 255,
          "x": 3192.0,
          "y": 2136.0,
          "width": 144.0,
          "height": 24.0,
          "rotation": -0.0,
          "visible": true
        },
        {
          "id": 75,
          "name": "",
          "type": "obj_solid_block",
          "gid": 255,
          "x": 3432.0,
          "y": 2136.0,
          "width": 24.0,
          "height": 144.0,
          "rotation": -0.0,
          "visible": true
        },
        {
          "id": 76,
          "name": "",
          "type": "obj_platform_jumptrough",
          "gid": 221,
          "x": 3336.0,
          "y": 2136.0,
          "width": 96.0,
          "height": 8.0,
          "rotation": -0.0,
          "visible": true
        },
        {
          "id": 77,
          "name": "",
          "type": "obj_solid_block",
          "gid": 255,
          "x": 2976.0,
          "y": 2088.0,
          "width": 48.0,
          "height": 216.0,
          "rotation": -0.0,
          "visible": true
        },
        {
          "id": 78,
          "name": "",
          "type": "obj_solid_block",
          "gid": 255,
          "x": 2976.0,
          "y": 2400.0,
          "width": 48.0,
          "height": 24.0,
          "rotation": -0.0,
          "visible": true
        },
        {
          "id": 79,
          "name": "",
          "type": "obj_solid_block",
          "gid": 255,
          "x": 2976.0,
          "y": 1368.0,
          "width": 264.0,
          "height": 720.0,
          "rotation": -0.0,
          "visible": true
        },
        {
          "id": 80,
          "name": "",
          "type": "obj_solid_block",
          "gid": 255,
          "x": 3240.0,
          "y": 1368.0,
          "width": 312.0,
          "height": 384.0000256,
          "rotation": -0.0,
          "visible": true
        },
        {
          "id": 81,
          "name": "",
          "type": "obj_solid_block",
          "gid": 255,
          "x": 3552.0,
          "y": 1368.0,
          "width": 72.0,
          "height": 312.0000256,
          "rotation": -0.0,
          "visible": true
        },
        {
          "id": 82,
          "name": "",
          "type": "obj_solid_block",
          "gid": 255,
          "x": 3624.0,
          "y": 1368.0,
          "width": 72.0,
          "height": 240.0000256,
          "rotation": -0.0,
          "visible": true
        },
        {
          "id": 83,
          "name": "",
          "type": "obj_solid_block",
          "gid": 255,
          "x": 3240.0,
          "y": 1752.0,
          "width": 48.0,
          "height": 192.0000128,
          "rotation": -0.0,
          "visible": true
        },
        {
          "id": 84,
          "name": "",
          "type": "obj_solid_block",
          "gid": 255,
          "x": 3192.0,
          "y": 2088.0,
          "width": 48.0,
          "height": 48.00001536,
          "rotation": -0.0,
          "visible": true
        },
        {
          "id": 85,
          "name": "",
          "type": "obj_solid_block",
          "gid": 255,
          "x": 4584.0,
          "y": 2352.0,
          "width": 240.0,
          "height": 72.0,
          "rotation": -0.0,
          "visible": true
        },
        {
          "id": 86,
          "name": "",
          "type": "obj_solid_block",
          "gid": 255,
          "x": 4656.0,
          "y": 2280.0,
          "width": 168.0,
          "height": 72.0,
          "rotation": -0.0,
          "visible": true
        },
        {
          "id": 87,
          "name": "",
          "type": "obj_solid_block",
          "gid": 255,
          "x": 4944.0,
          "y": 2352.0,
          "width": 216.0,
          "height": 72.0,
          "rotation": -0.0,
          "visible": true
        },
        {
          "id": 88,
          "name": "",
          "type": "obj_solid_block",
          "gid": 255,
          "x": 5088.0,
          "y": 1368.0,
          "width": 432.0,
          "height": 792.0,
          "rotation": -0.0,
          "visible": true
        },
        {
          "id": 89,
          "name": "",
          "type": "obj_solid_block",
          "gid": 255,
          "x": 4776.0,
          "y": 1368.0,
          "width": 312.0,
          "height": 191.9999872,
          "rotation": -0.0,
          "visible": true
        },
        {
          "id": 90,
          "name": "",
          "type": "obj_solid_block",
          "gid": 255,
          "x": 4872.0,
          "y": 1560.0,
          "width": 216.0,
          "height": 199.9999872,
          "rotation": -0.0,
          "visible": true
        },
        {
          "id": 91,
          "name": "",
          "type": "obj_solid_block",
          "gid": 255,
          "x": 4872.0,
          "y": 1760.0,
          "width": 216.0,
          "height": 111.9999744,
          "rotation": -0.0,
          "visible": true
        },
        {
          "id": 92,
          "name": "",
          "type": "obj_solid_block",
          "gid": 255,
          "x": 4848.0,
          "y": 1656.0,
          "width": 24.0,
          "height": 96.0,
          "rotation": -0.0,
          "visible": true
        },
        {
          "id": 93,
          "name": "",
          "type": "obj_solid_block",
          "gid": 255,
          "x": 5016.0,
          "y": 1872.0,
          "width": 72.0,
          "height": 120.0,
          "rotation": -0.0,
          "visible": true
        },
        {
          "id": 94,
          "name": "",
          "type": "obj_solid_block",
          "gid": 255,
          "x": 5352.0,
          "y": 2160.0,
          "width": 168.0,
          "height": 24.0,
          "rotation": -0.0,
          "visible": true
        },
        {
          "id": 95,
          "name": "",
          "type": "obj_solid_block",
          "gid": 255,
          "x": 5400.0,
          "y": 2184.0,
          "width": 120.0,
          "height": 240.0,
          "rotation": -0.0,
          "visible": true
        },
        {
          "id": 96,
          "name": "",
          "type": "obj_solid_block",
          "gid": 255,
          "x": 456.0,
          "y": 912.0,
          "width": 120.0,
          "height": 144.0,
          "rotation": -0.0,
          "visible": true
        },
        {
          "id": 97,
          "name": "",
          "type": "obj_solid_block",
          "gid": 255,
          "x": 192.0,
          "y": 984.0,
          "width": 120.0,
          "height": 72.0,
          "rotation": -0.0,
          "visible": true
        },
        {
          "id": 98,
          "name": "",
          "type": "obj_solid_block",
          "gid": 255,
          "x": 744.0,
          "y": 912.0,
          "width": 216.0,
          "height": 48.0,
          "rotation": -0.0,
          "visible": true
        },
        {
          "id": 99,
          "name": "",
          "type": "obj_solid_block",
          "gid": 255,
          "x": 1032.0,
          "y": 984.0,
          "width": 72.0,
          "height": 72.0,
          "rotation": -0.0,
          "visible": true
        },
        {
          "id": 100,
          "name": "",
          "type": "obj_solid_block",
          "gid": 255,
          "x": 672.0,
          "y": 696.0,
          "width": 120.0,
          "height": 72.0,
          "rotation": -0.0,
          "visible": true
        },
        {
          "id": 101,
          "name": "",
          "type": "obj_solid_block",
          "gid": 255,
          "x": 576.0,
          "y": 768.0,
          "width": 720.0,
          "height": 24.0,
          "rotation": -0.0,
          "visible": true
        },
        {
          "id": 102,
          "name": "",
          "type": "obj_solid_block",
          "gid": 255,
          "x": 336.0,
          "y": 768.0,
          "width": 120.0,
          "height": 24.0,
          "rotation": -0.0,
          "visible": true
        },
        {
          "id": 103,
          "name": "",
          "type": "obj_solid_block",
          "gid": 255,
          "x": 336.0,
          "y": 600.0,
          "width": 24.0,
          "height": 168.0,
          "rotation": -0.0,
          "visible": true
        },
        {
          "id": 104,
          "name": "",
          "type": "obj_solid_block",
          "gid": 255,
          "x": 456.0,
          "y": 648.0,
          "width": 120.0,
          "height": 24.0,
          "rotation": -0.0,
          "visible": true
        },
        {
          "id": 105,
          "name": "",
          "type": "obj_solid_block",
          "gid": 255,
          "x": 624.0,
          "y": 480.0,
          "width": 408.0,
          "height": 24.0,
          "rotation": -0.0,
          "visible": true
        },
        {
          "id": 106,
          "name": "",
          "type": "obj_solid_block",
          "gid": 255,
          "x": 936.0,
          "y": 624.0,
          "width": 264.0,
          "height": 24.0,
          "rotation": -0.0,
          "visible": true
        },
        {
          "id": 107,
          "name": "",
          "type": "obj_solid_block",
          "gid": 255,
          "x": 864.0,
          "y": 408.0,
          "width": 96.0,
          "height": 72.0,
          "rotation": -0.0,
          "visible": true
        },
        {
          "id": 108,
          "name": "",
          "type": "obj_solid_block",
          "gid": 255,
          "x": 1104.0,
          "y": 552.0,
          "width": 96.0,
          "height": 72.0,
          "rotation": -0.0,
          "visible": true
        },
        {
          "id": 109,
          "name": "",
          "type": "obj_solid_block",
          "gid": 255,
          "x": 1272.0,
          "y": 408.0,
          "width": 144.0,
          "height": 72.0,
          "rotation": -0.0,
          "visible": true
        },
        {
          "id": 110,
          "name": "",
          "type": "obj_solid_block",
          "gid": 255,
          "x": 1272.0,
          "y": 480.0,
          "width": 600.0,
          "height": 24.0,
          "rotation": -0.0,
          "visible": true
        },
        {
          "id": 111,
          "name": "",
          "type": "obj_solid_block",
          "gid": 255,
          "x": 1272.0,
          "y": 504.0,
          "width": 96.0,
          "height": 24.0,
          "rotation": -0.0,
          "visible": true
        },
        {
          "id": 112,
          "name": "",
          "type": "obj_solid_block",
          "gid": 255,
          "x": 1272.0,
          "y": 528.0,
          "width": 48.0,
          "height": 24.0,
          "rotation": -0.0,
          "visible": true
        },
        {
          "id": 113,
          "name": "",
          "type": "obj_solid_block",
          "gid": 255,
          "x": 1464.0,
          "y": 696.0,
          "width": 144.0,
          "height": 96.0,
          "rotation": -0.0,
          "visible": true
        },
        {
          "id": 114,
          "name": "",
          "type": "obj_solid_block",
          "gid": 255,
          "x": 1608.0,
          "y": 768.0,
          "width": 72.0,
          "height": 24.0,
          "rotation": -0.0,
          "visible": true
        },
        {
          "id": 115,
          "name": "",
          "type": "obj_platform_jumptrough",
          "gid": 221,
          "x": 456.0,
          "y": 768.0,
          "width": 120.0,
          "height": 8.0,
          "rotation": -0.0,
          "visible": true
        },
        {
          "id": 116,
          "name": "",
          "type": "obj_solid_block",
          "gid": 255,
          "x": 1896.0,
          "y": 744.0,
          "width": 168.0,
          "height": 96.0,
          "rotation": -0.0,
          "visible": true
        },
        {
          "id": 117,
          "name": "",
          "type": "obj_solid_block",
          "gid": 255,
          "x": 1776.0,
          "y": 816.0,
          "width": 120.0,
          "height": 24.0,
          "rotation": -0.0,
          "visible": true
        },
        {
          "id": 118,
          "name": "",
          "type": "obj_solid_block",
          "gid": 255,
          "x": 2064.0,
          "y": 792.0,
          "width": 192.0,
          "height": 48.0,
          "rotation": -0.0,
          "visible": true
        },
        {
          "id": 119,
          "name": "",
          "type": "obj_solid_block",
          "gid": 255,
          "x": 1680.0,
          "y": 888.0,
          "width": 96.0,
          "height": 96.0,
          "rotation": -0.0,
          "visible": true
        },
        {
          "id": 120,
          "name": "",
          "type": "obj_solid_block",
          "gid": 255,
          "x": 1776.0,
          "y": 936.0,
          "width": 72.0,
          "height": 48.0,
          "rotation": -0.0,
          "visible": true
        },
        {
          "id": 121,
          "name": "",
          "type": "obj_solid_block",
          "gid": 255,
          "x": 1608.0,
          "y": 960.0,
          "width": 72.0,
          "height": 24.0,
          "rotation": 359.3580604,
          "visible": true
        },
        {
          "id": 122,
          "name": "",
          "type": "obj_solid_block",
          "gid": 255,
          "x": 1920.0,
          "y": 1008.0,
          "width": 288.0,
          "height": 48.0,
          "rotation": -0.0,
          "visible": true
        },
        {
          "id": 123,
          "name": "",
          "type": "obj_solid_block",
          "gid": 255,
          "x": 2016.0,
          "y": 960.0,
          "width": 192.0,
          "height": 48.0,
          "rotation": -0.0,
          "visible": true
        },
        {
          "id": 124,
          "name": "",
          "type": "obj_solid_block",
          "gid": 255,
          "x": 2112.0,
          "y": 936.0,
          "width": 96.0,
          "height": 24.0,
          "rotation": -0.0,
          "visible": true
        },
        {
          "id": 125,
          "name": "",
          "type": "obj_solid_block",
          "gid": 255,
          "x": 2328.0,
          "y": 1008.0,
          "width": 96.0,
          "height": 48.0,
          "rotation": -0.0,
          "visible": true
        },
        {
          "id": 126,
          "name": "",
          "type": "obj_solid_block",
          "gid": 255,
          "x": 1512.0,
          "y": 1032.0,
          "width": 48.0,
          "height": 24.0,
          "rotation": -0.0,
          "visible": true
        },
        {
          "id": 127,
          "name": "",
          "type": "obj_solid_block",
          "gid": 255,
          "x": 2520.0,
          "y": 1008.0,
          "width": 24.0,
          "height": 48.0,
          "rotation": -0.0,
          "visible": true
        },
        {
          "id": 128,
          "name": "",
          "type": "obj_solid_block",
          "gid": 255,
          "x": 2544.0,
          "y": 0.0,
          "width": 432.0,
          "height": 1056.0,
          "rotation": -0.0,
          "visible": true
        },
        {
          "id": 129,
          "name": "",
          "type": "obj_solid_block",
          "gid": 255,
          "x": 1656.0,
          "y": 408.0,
          "width": 144.0,
          "height": 72.0,
          "rotation": -0.0,
          "visible": true
        },
        {
          "id": 130,
          "name": "",
          "type": "obj_solid_block",
          "gid": 255,
          "x": 1656.0,
          "y": 336.0,
          "width": 72.0,
          "height": 72.0,
          "rotation": -0.0,
          "visible": true
        },
        {
          "id": 131,
          "name": "",
          "type": "obj_solid_block",
          "gid": 255,
          "x": 1536.0,
          "y": 336.0,
          "width": 120.0,
          "height": 24.0,
          "rotation": -0.0,
          "visible": true
        },
        {
          "id": 132,
          "name": "",
          "type": "obj_solid_block",
          "gid": 255,
          "x": 0.0,
          "y": 0.0,
          "width": 503.9999744,
          "height": 480.0000256,
          "rotation": -0.0,
          "visible": true
        },
        {
          "id": 133,
          "name": "",
          "type": "obj_solid_block",
          "gid": 255,
          "x": 0.0,
          "y": 480.0,
          "width": 167.9999744,
          "height": 384.0000256,
          "rotation": -0.0,
          "visible": true
        },
        {
          "id": 134,
          "name": "",
          "type": "obj_solid_block",
          "gid": 255,
          "x": 168.0,
          "y": 480.0,
          "width": 167.9999744,
          "height": 120.00003072,
          "rotation": -0.0,
          "visible": true
        },
        {
          "id": 135,
          "name": "",
          "type": "obj_solid_block",
          "gid": 255,
          "x": 336.0,
          "y": 480.0,
          "width": 23.99996928,
          "height": 120.00003072,
          "rotation": -0.0,
          "visible": true
        },
        {
          "id": 136,
          "name": "",
          "type": "obj_solid_block",
          "gid": 255,
          "x": 360.0,
          "y": 480.0,
          "width": 23.99996928,
          "height": 120.00003072,
          "rotation": -0.0,
          "visible": true
        },
        {
          "id": 137,
          "name": "",
          "type": "obj_solid_block",
          "gid": 255,
          "x": 384.0,
          "y": 480.0,
          "width": 23.99996928,
          "height": 96.00003072,
          "rotation": -0.0,
          "visible": true
        },
        {
          "id": 138,
          "name": "",
          "type": "obj_solid_block",
          "gid": 255,
          "x": 408.0,
          "y": 480.0,
          "width": 23.99996928,
          "height": 72.00003072,
          "rotation": -0.0,
          "visible": true
        },
        {
          "id": 139,
          "name": "",
          "type": "obj_solid_block",
          "gid": 255,
          "x": 432.0,
          "y": 480.0,
          "width": 23.99996928,
          "height": 48.00003072,
          "rotation": -0.0,
          "visible": true
        },
        {
          "id": 140,
          "name": "",
          "type": "obj_solid_block",
          "gid": 255,
          "x": 456.0,
          "y": 480.0,
          "width": 23.99996928,
          "height": 24.00003072,
          "rotation": -0.0,
          "visible": true
        },
        {
          "id": 141,
          "name": "",
          "type": "obj_solid_block",
          "gid": 255,
          "x": 0.0,
          "y": 864.0,
          "width": 167.9999744,
          "height": 0.00003051757824,
          "rotation": -0.0,
          "visible": true
        },
        {
          "id": 142,
          "name": "",
          "type": "obj_solid_block",
          "gid": 255,
          "x": 0.0,
          "y": 864.0,
          "width": 143.9999744,
          "height": 48.00003072,
          "rotation": -0.0,
          "visible": true
        },
        {
          "id": 143,
          "name": "",
          "type": "obj_solid_block",
          "gid": 255,
          "x": 0.0,
          "y": 912.0,
          "width": 71.99996928,
          "height": 144.0000256,
          "rotation": -0.0,
          "visible": true
        },
        {
          "id": 144,
          "name": "",
          "type": "obj_solid_block",
          "gid": 255,
          "x": 504.0,
          "y": 0.0,
          "width": 23.99996928,
          "height": 168.0000256,
          "rotation": -0.0,
          "visible": true
        },
        {
          "id": 145,
          "name": "",
          "type": "obj_solid_block",
          "gid": 255,
          "x": 2256.0,
          "y": 0.0,
          "width": 287.9999744,
          "height": 792.0,
          "rotation": -0.0,
          "visible": true
        },
        {
          "id": 146,
          "name": "",
          "type": "obj_solid_block",
          "gid": 255,
          "x": 2208.0,
          "y": 0.0,
          "width": 47.99996928,
          "height": 336.0,
          "rotation": -0.0,
          "visible": true
        },
        {
          "id": 147,
          "name": "",
          "type": "obj_solid_block",
          "gid": 255,
          "x": 2256.0,
          "y": 792.0,
          "width": 23.99996928,
          "height": 48.00000384,
          "rotation": -0.0,
          "visible": true
        },
        {
          "id": 148,
          "name": "",
          "type": "obj_solid_block",
          "gid": 255,
          "x": 2400.0,
          "y": 792.0,
          "width": 71.99996928,
          "height": 72.0,
          "rotation": -0.0,
          "visible": true
        },
        {
          "id": 149,
          "name": "",
          "type": "obj_solid_block",
          "gid": 255,
          "x": 2448.0,
          "y": 864.0,
          "width": 23.99996928,
          "height": 48.0,
          "rotation": -0.0,
          "visible": true
        },
        {
          "id": 150,
          "name": "",
          "type": "obj_solid_block",
          "gid": 255,
          "x": 2976.0,
          "y": 0.0,
          "width": 648.0,
          "height": 504.0,
          "rotation": -0.0,
          "visible": true
        },
        {
          "id": 151,
          "name": "",
          "type": "obj_solid_block",
          "gid": 255,
          "x": 2976.0,
          "y": 504.0,
          "width": 360.0000256,
          "height": 24.0,
          "rotation": -0.0,
          "visible": true
        },
        {
          "id": 152,
          "name": "",
          "type": "obj_solid_block",
          "gid": 255,
          "x": 2976.0,
          "y": 648.0,
          "width": 120.0000384,
          "height": 48.0,
          "rotation": -0.0,
          "visible": true
        },
        {
          "id": 153,
          "name": "",
          "type": "obj_solid_block",
          "gid": 255,
          "x": 2976.0,
          "y": 696.0,
          "width": 96.0000384,
          "height": 72.0,
          "rotation": -0.0,
          "visible": true
        },
        {
          "id": 154,
          "name": "",
          "type": "obj_solid_block",
          "gid": 255,
          "x": 2976.0,
          "y": 768.0,
          "width": 72.0000384,
          "height": 72.0,
          "rotation": -0.0,
          "visible": true
        },
        {
          "id": 155,
          "name": "",
          "type": "obj_solid_block",
          "gid": 255,
          "x": 2976.0,
          "y": 840.0,
          "width": 48.0000384,
          "height": 72.0,
          "rotation": -0.0,
          "visible": true
        },
        {
          "id": 156,
          "name": "",
          "type": "obj_solid_block",
          "gid": 255,
          "x": 3072.0,
          "y": 1032.0,
          "width": 216.0000256,
          "height": 24.0,
          "rotation": -0.0,
          "visible": true
        },
        {
          "id": 157,
          "name": "",
          "type": "obj_solid_block",
          "gid": 255,
          "x": 3240.0,
          "y": 744.0,
          "width": 120.0000384,
          "height": 48.0,
          "rotation": -0.0,
          "visible": true
        },
        {
          "id": 158,
          "name": "",
          "type": "obj_platform_jumptrough",
          "gid": 221,
          "x": 3360.0,
          "y": 744.0,
          "width": 120.0,
          "height": 8.0,
          "rotation": -0.0,
          "visible": true
        },
        {
          "id": 159,
          "name": "",
          "type": "obj_solid_block",
          "gid": 255,
          "x": 3480.0,
          "y": 744.0,
          "width": 552.000064,
          "height": 48.0,
          "rotation": -0.0,
          "visible": true
        },
        {
          "id": 160,
          "name": "",
          "type": "obj_solid_block",
          "gid": 255,
          "x": 3696.0,
          "y": 984.0,
          "width": 120.000064,
          "height": 72.0,
          "rotation": -0.0,
          "visible": true
        },
        {
          "id": 161,
          "name": "",
          "type": "obj_solid_block",
          "gid": 255,
          "x": 3984.0,
          "y": 912.0,
          "width": 192.000064,
          "height": 48.0,
          "rotation": -0.0,
          "visible": true
        },
        {
          "id": 162,
          "name": "",
          "type": "obj_solid_block",
          "gid": 255,
          "x": 4248.0,
          "y": 984.0,
          "width": 48.00006144,
          "height": 72.0,
          "rotation": -0.0,
          "visible": true
        },
        {
          "id": 163,
          "name": "",
          "type": "obj_solid_block",
          "gid": 255,
          "x": 3384.0,
          "y": 912.0,
          "width": 96.000064,
          "height": 24.0,
          "rotation": -0.0,
          "visible": true
        },
        {
          "id": 164,
          "name": "",
          "type": "obj_solid_block",
          "gid": 255,
          "x": 3456.0,
          "y": 960.0,
          "width": 96.000064,
          "height": 24.0,
          "rotation": -0.0,
          "visible": true
        },
        {
          "id": 165,
          "name": "",
          "type": "obj_solid_block",
          "gid": 255,
          "x": 3456.0,
          "y": 936.0,
          "width": 24.00006144,
          "height": 24.0,
          "rotation": -0.0,
          "visible": true
        },
        {
          "id": 166,
          "name": "",
          "type": "obj_solid_block",
          "gid": 255,
          "x": 3600.0,
          "y": 720.0,
          "width": 216.000064,
          "height": 24.0,
          "rotation": -0.0,
          "visible": true
        },
        {
          "id": 167,
          "name": "",
          "type": "obj_solid_block",
          "gid": 255,
          "x": 4008.0,
          "y": 624.0,
          "width": 96.000064,
          "height": 24.0,
          "rotation": -0.0,
          "visible": true
        },
        {
          "id": 168,
          "name": "",
          "type": "obj_solid_block",
          "gid": 255,
          "x": 4008.0,
          "y": 648.0,
          "width": 48.00006144,
          "height": 24.0,
          "rotation": -0.0,
          "visible": true
        },
        {
          "id": 169,
          "name": "",
          "type": "obj_solid_block",
          "gid": 255,
          "x": 3960.0,
          "y": 672.0,
          "width": 72.000064,
          "height": 72.0,
          "rotation": -0.0,
          "visible": true
        },
        {
          "id": 170,
          "name": "",
          "type": "obj_solid_block",
          "gid": 255,
          "x": 4296.0,
          "y": 672.0,
          "width": 72.000064,
          "height": 120.0,
          "rotation": -0.0,
          "visible": true
        },
        {
          "id": 171,
          "name": "",
          "type": "obj_solid_block",
          "gid": 255,
          "x": 4224.0,
          "y": 624.0,
          "width": 96.000064,
          "height": 24.0,
          "rotation": -0.0,
          "visible": true
        },
        {
          "id": 172,
          "name": "",
          "type": "obj_solid_block",
          "gid": 255,
          "x": 4272.0,
          "y": 648.0,
          "width": 48.00006144,
          "height": 24.0,
          "rotation": -0.0,
          "visible": true
        },
        {
          "id": 173,
          "name": "",
          "type": "obj_solid_block",
          "gid": 255,
          "x": 4032.0,
          "y": 768.0,
          "width": 264.000064,
          "height": 24.0,
          "rotation": -0.0,
          "visible": true
        },
        {
          "id": 174,
          "name": "",
          "type": "obj_solid_block",
          "gid": 255,
          "x": 4368.0,
          "y": 816.0,
          "width": 144.0000512,
          "height": 24.0,
          "rotation": -0.0,
          "visible": true
        },
        {
          "id": 175,
          "name": "",
          "type": "obj_solid_block",
          "gid": 255,
          "x": 4368.0,
          "y": 744.0,
          "width": 48.00004608,
          "height": 72.0,
          "rotation": -0.0,
          "visible": true
        },
        {
          "id": 176,
          "name": "",
          "type": "obj_solid_block",
          "gid": 255,
          "x": 4440.0,
          "y": 600.0,
          "width": 120.00004608,
          "height": 24.0,
          "rotation": -0.0,
          "visible": true
        },
        {
          "id": 177,
          "name": "",
          "type": "obj_solid_block",
          "gid": 255,
          "x": 4680.0,
          "y": 624.0,
          "width": 192.0000512,
          "height": 24.0,
          "rotation": -0.0,
          "visible": true
        },
        {
          "id": 178,
          "name": "",
          "type": "obj_solid_block",
          "gid": 255,
          "x": 4968.0,
          "y": 768.0,
          "width": 192.0000512,
          "height": 24.0,
          "rotation": -0.0,
          "visible": true
        },
        {
          "id": 179,
          "name": "",
          "type": "obj_solid_block",
          "gid": 255,
          "x": 4848.0,
          "y": 648.0,
          "width": 48.00004608,
          "height": 24.0,
          "rotation": -0.0,
          "visible": true
        },
        {
          "id": 180,
          "name": "",
          "type": "obj_solid_block",
          "gid": 255,
          "x": 4872.0,
          "y": 672.0,
          "width": 48.00004608,
          "height": 24.0,
          "rotation": -0.0,
          "visible": true
        },
        {
          "id": 181,
          "name": "",
          "type": "obj_solid_block",
          "gid": 255,
          "x": 4896.0,
          "y": 696.0,
          "width": 48.00004608,
          "height": 24.0,
          "rotation": -0.0,
          "visible": true
        },
        {
          "id": 182,
          "name": "",
          "type": "obj_solid_block",
          "gid": 255,
          "x": 4920.0,
          "y": 720.0,
          "width": 48.00004608,
          "height": 24.0,
          "rotation": -0.0,
          "visible": true
        },
        {
          "id": 183,
          "name": "",
          "type": "obj_solid_block",
          "gid": 255,
          "x": 4944.0,
          "y": 744.0,
          "width": 48.00004608,
          "height": 24.0,
          "rotation": -0.0,
          "visible": true
        },
        {
          "id": 184,
          "name": "",
          "type": "obj_solid_block",
          "gid": 255,
          "x": 4800.0,
          "y": 888.0,
          "width": 192.0000512,
          "height": 48.0,
          "rotation": -0.0,
          "visible": true
        },
        {
          "id": 185,
          "name": "",
          "type": "obj_solid_block",
          "gid": 255,
          "x": 4584.0,
          "y": 888.0,
          "width": 96.00004608,
          "height": 72.0,
          "rotation": -0.0,
          "visible": true
        },
        {
          "id": 186,
          "name": "",
          "type": "obj_solid_block",
          "gid": 255,
          "x": 4560.0,
          "y": 912.0,
          "width": 24.00004608,
          "height": 144.0,
          "rotation": -0.0,
          "visible": true
        },
        {
          "id": 187,
          "name": "",
          "type": "obj_solid_block",
          "gid": 255,
          "x": 4536.0,
          "y": 936.0,
          "width": 24.00004608,
          "height": 120.0,
          "rotation": -0.0,
          "visible": true
        },
        {
          "id": 188,
          "name": "",
          "type": "obj_solid_block",
          "gid": 255,
          "x": 4512.0,
          "y": 960.0,
          "width": 24.00004608,
          "height": 96.0,
          "rotation": -0.0,
          "visible": true
        },
        {
          "id": 189,
          "name": "",
          "type": "obj_solid_block",
          "gid": 255,
          "x": 4488.0,
          "y": 984.0,
          "width": 24.00004608,
          "height": 72.0,
          "rotation": -0.0,
          "visible": true
        },
        {
          "id": 190,
          "name": "",
          "type": "obj_solid_block",
          "gid": 255,
          "x": 4464.0,
          "y": 1008.0,
          "width": 24.00004608,
          "height": 48.0,
          "rotation": -0.0,
          "visible": true
        },
        {
          "id": 191,
          "name": "",
          "type": "obj_solid_block",
          "gid": 255,
          "x": 4440.0,
          "y": 1032.0,
          "width": 24.00004608,
          "height": 24.0,
          "rotation": -0.0,
          "visible": true
        },
        {
          "id": 192,
          "name": "",
          "type": "obj_solid_block",
          "gid": 255,
          "x": 5040.0,
          "y": 1032.0,
          "width": 24.00004608,
          "height": 24.0,
          "rotation": -0.0,
          "visible": true
        },
        {
          "id": 193,
          "name": "",
          "type": "obj_solid_block",
          "gid": 255,
          "x": 5136.0,
          "y": 960.0,
          "width": 120.00004608,
          "height": 24.0,
          "rotation": -0.0,
          "visible": true
        },
        {
          "id": 194,
          "name": "",
          "type": "obj_solid_block",
          "gid": 255,
          "x": 5208.0,
          "y": 984.0,
          "width": 96.00004608,
          "height": 72.0,
          "rotation": -0.0,
          "visible": true
        },
        {
          "id": 195,
          "name": "",
          "type": "obj_solid_block",
          "gid": 255,
          "x": 4800.0,
          "y": 0.0,
          "width": 720.000064,
          "height": 264.0,
          "rotation": -0.0,
          "visible": true
        },
        {
          "id": 196,
          "name": "",
          "type": "obj_solid_block",
          "gid": 255,
          "x": 4872.0,
          "y": 264.0,
          "width": 648.000064,
          "height": 72.0,
          "rotation": -0.0,
          "visible": true
        },
        {
          "id": 197,
          "name": "",
          "type": "obj_solid_block",
          "gid": 255,
          "x": 5040.0,
          "y": 336.0,
          "width": 480.000064,
          "height": 216.0,
          "rotation": -0.0,
          "visible": true
        },
        {
          "id": 198,
          "name": "",
          "type": "obj_solid_block",
          "gid": 255,
          "x": 5184.0,
          "y": 552.0,
          "width": 336.000064,
          "height": 24.0,
          "rotation": -0.0,
          "visible": true
        },
        {
          "id": 199,
          "name": "",
          "type": "obj_solid_block",
          "gid": 255,
          "x": 5304.0,
          "y": 576.0,
          "width": 216.000064,
          "height": 96.0,
          "rotation": -0.0,
          "visible": true
        },
        {
          "id": 200,
          "name": "",
          "type": "obj_solid_block",
          "gid": 255,
          "x": 5376.0,
          "y": 672.0,
          "width": 144.000064,
          "height": 264.0,
          "rotation": -0.0,
          "visible": true
        },
        {
          "id": 201,
          "name": "",
          "type": "obj_solid_block",
          "gid": 255,
          "x": 5448.0,
          "y": 936.0,
          "width": 72.00006912,
          "height": 120.0,
          "rotation": -0.0,
          "visible": true
        },
        {
          "id": 202,
          "name": "",
          "type": "obj_solid_block",
          "gid": 255,
          "x": 5160.0,
          "y": 552.0,
          "width": 24.00006144,
          "height": 240.0000128,
          "rotation": -0.0,
          "visible": true
        },
        {
          "id": 203,
          "name": "",
          "type": "obj_solid_block",
          "gid": 255,
          "x": 5040.0,
          "y": 552.0,
          "width": 24.00006144,
          "height": 120.00000768,
          "rotation": -0.0,
          "visible": true
        },
        {
          "id": 204,
          "name": "",
          "type": "obj_solid_block",
          "gid": 255,
          "x": 4872.0,
          "y": 336.0,
          "width": 24.00006144,
          "height": 168.0,
          "rotation": -0.0,
          "visible": true
        },
        {
          "id": 205,
          "name": "",
          "type": "obj_solid_block",
          "gid": 255,
          "x": 2976.0,
          "y": 528.0,
          "width": 144.0000256,
          "height": 96.0,
          "rotation": -0.0,
          "visible": true
        },
        {
          "id": 206,
          "name": "",
          "type": "obj_solid_block",
          "gid": 255,
          "x": 3240.0,
          "y": 528.0,
          "width": 96.00003072,
          "height": 120.0,
          "rotation": -0.0,
          "visible": true
        },
        {
          "id": 207,
          "name": "",
          "type": "obj_solid_block",
          "gid": 255,
          "x": 2976.0,
          "y": 624.0,
          "width": 120.0000256,
          "height": 24.0,
          "rotation": -0.0,
          "visible": true
        },
        {
          "id": 208,
          "name": "",
          "type": "obj_solid_block",
          "gid": 255,
          "x": 0.0,
          "y": 1056.0,
          "width": 1224.0,
          "height": 48.0,
          "rotation": -0.0,
          "visible": true
        },
        {
          "id": 209,
          "name": "",
          "type": "obj_solid_block",
          "gid": 255,
          "x": 1512.0,
          "y": 1056.0,
          "width": 4011.000064,
          "height": 48.0,
          "rotation": -0.0,
          "visible": true
        },
        {
          "id": 210,
          "name": "",
          "type": "obj_spawnpoint",
          "gid": 259,
          "x": 695.0,
          "y": 448.0,
          "width": 32.0,
          "height": 32.0,
          "rotation": -0.0,
          "visible": true
        },
        {
          "id": 211,
          "name": "",
          "type": "obj_exespawn",
          "gid": 85,
          "x": 967.0,
          "y": 1024.0,
          "width": 32.0,
          "height": 32.0,
          "rotation": -0.0,
          "visible": true
        },
        {
          "id": 212,
          "name": "",
          "type": "obj_exespawn",
          "gid": 85,
          "x": 1271.0,
          "y": 1072.0,
          "width": 32.0,
          "height": 32.0,
          "rotation": -0.0,
          "visible": true
        },
        {
          "id": 213,
          "name": "",
          "type": "obj_right_pusher",
          "gid": 247,
          "x": 0.0,
          "y": 0.0,
          "width": 528.0,
          "height": 168.0,
          "rotation": -0.0,
          "visible": true
        },
        {
          "id": 214,
          "name": "",
          "type": "obj_right_pusher",
          "gid": 247,
          "x": 0.0,
          "y": 168.0,
          "width": 504.0,
          "height": 312.0,
          "rotation": -0.0,
          "visible": true
        },
        {
          "id": 215,
          "name": "",
          "type": "obj_right_pusher",
          "gid": 247,
          "x": 0.0,
          "y": 480.0,
          "width": 368.0,
          "height": 120.0,
          "rotation": -0.0,
          "visible": true
        },
        {
          "id": 216,
          "name": "",
          "type": "obj_right_pusher",
          "gid": 247,
          "x": 368.0,
          "y": 480.0,
          "width": 111.9999936,
          "height": 24.0,
          "rotation": -0.0,
          "visible": true
        },
        {
          "id": 217,
          "name": "",
          "type": "obj_right_pusher",
          "gid": 247,
          "x": 368.0,
          "y": 504.0,
          "width": 87.9999936,
          "height": 24.0,
          "rotation": -0.0,
          "visible": true
        },
        {
          "id": 218,
          "name": "",
          "type": "obj_right_pusher",
          "gid": 247,
          "x": 368.0,
          "y": 528.0,
          "width": 63.9999936,
          "height": 24.0,
          "rotation": -0.0,
          "visible": true
        },
        {
          "id": 219,
          "name": "",
          "type": "obj_right_pusher",
          "gid": 247,
          "x": 368.0,
          "y": 552.0,
          "width": 39.9999936,
          "height": 24.0,
          "rotation": -0.0,
          "visible": true
        },
        {
          "id": 220,
          "name": "",
          "type": "obj_right_pusher",
          "gid": 247,
          "x": 368.0,
          "y": 576.0,
          "width": 15.99999232,
          "height": 24.0,
          "rotation": -0.0,
          "visible": true
        },
        {
          "id": 221,
          "name": "",
          "type": "obj_right_pusher",
          "gid": 247,
          "x": 0.0,
          "y": 600.0,
          "width": 168.0,
          "height": 264.0,
          "rotation": -0.0,
          "visible": true
        },
        {
          "id": 222,
          "name": "",
          "type": "obj_right_pusher",
          "gid": 247,
          "x": 0.0,
          "y": 864.0,
          "width": 72.0,
          "height": 192.0,
          "rotation": -0.0,
          "visible": true
        },
        {
          "id": 223,
          "name": "",
          "type": "obj_right_pusher",
          "gid": 247,
          "x": 72.0,
          "y": 864.0,
          "width": 72.0,
          "height": 48.0,
          "rotation": -0.0,
          "visible": true
        },
        {
          "id": 224,
          "name": "",
          "type": "obj_right_pusher",
          "gid": 247,
          "x": 2752.0,
          "y": 0.0,
          "width": 872.0,
          "height": 336.000032,
          "rotation": -0.0,
          "visible": true
        },
        {
          "id": 225,
          "name": "",
          "type": "obj_right_pusher",
          "gid": 247,
          "x": 2752.0,
          "y": 336.0,
          "width": 872.0,
          "height": 168.000032,
          "rotation": -0.0,
          "visible": true
        },
        {
          "id": 226,
          "name": "",
          "type": "obj_right_pusher",
          "gid": 247,
          "x": 2752.0,
          "y": 504.0,
          "width": 368.0,
          "height": 120.0000384,
          "rotation": -0.0,
          "visible": true
        },
        {
          "id": 227,
          "name": "",
          "type": "obj_right_pusher",
          "gid": 247,
          "x": 2752.0,
          "y": 624.0,
          "width": 344.0,
          "height": 72.0000384,
          "rotation": -0.0,
          "visible": true
        },
        {
          "id": 228,
          "name": "",
          "type": "obj_right_pusher",
          "gid": 247,
          "x": 2752.0,
          "y": 696.0,
          "width": 320.0,
          "height": 72.0000384,
          "rotation": -0.0,
          "visible": true
        },
        {
          "id": 229,
          "name": "",
          "type": "obj_right_pusher",
          "gid": 247,
          "x": 2752.0,
          "y": 768.0,
          "width": 296.0,
          "height": 24.00004,
          "rotation": -0.0,
          "visible": true
        },
        {
          "id": 230,
          "name": "",
          "type": "obj_right_pusher",
          "gid": 1073742071,
          "x": 2752.0,
          "y": 792.5999384,
          "width": 296.0,
          "height": 47.9999616,
          "rotation": -0.0,
          "visible": true
        },
        {
          "id": 231,
          "name": "",
          "type": "obj_right_pusher",
          "gid": 1073742071,
          "x": 2752.0,
          "y": 840.0000384,
          "width": 272.0,
          "height": 71.9999616,
          "rotation": -0.0,
          "visible": true
        },
        {
          "id": 232,
          "name": "",
          "type": "obj_right_pusher",
          "gid": 1073742071,
          "x": 2752.0,
          "y": 912.000032,
          "width": 224.0,
          "height": 151.999968,
          "rotation": -0.0,
          "visible": true
        },
        {
          "id": 233,
          "name": "",
          "type": "obj_right_pusher",
          "gid": 1073742071,
          "x": 3120.0,
          "y": 504.0000304,
          "width": 216.0,
          "height": 23.9999696,
          "rotation": -0.0,
          "visible": true
        },
        {
          "id": 234,
          "name": "",
          "type": "obj_right_pusher",
          "gid": 1073742071,
          "x": 3240.0,
          "y": 528.000092,
          "width": 96.0,
          "height": 119.999968,
          "rotation": -0.0,
          "visible": true
        },
        {
          "id": 235,
          "name": "",
          "type": "obj_left_pusher",
          "gid": 123,
          "x": 2208.0,
          "y": 0.0,
          "width": 544.0,
          "height": 336.0,
          "rotation": -0.0,
          "visible": true
        },
        {
          "id": 236,
          "name": "",
          "type": "obj_left_pusher",
          "gid": 123,
          "x": 2256.0,
          "y": 336.0,
          "width": 496.0,
          "height": 455.999968,
          "rotation": -0.0,
          "visible": true
        },
        {
          "id": 237,
          "name": "",
          "type": "obj_left_pusher",
          "gid": 123,
          "x": 2544.0,
          "y": 792.0,
          "width": 208.0,
          "height": 263.999968,
          "rotation": -0.0,
          "visible": true
        },
        {
          "id": 238,
          "name": "",
          "type": "obj_left_pusher",
          "gid": 123,
          "x": 2400.0,
          "y": 792.0,
          "width": 72.0,
          "height": 71.999968,
          "rotation": -0.0,
          "visible": true
        },
        {
          "id": 239,
          "name": "",
          "type": "obj_left_pusher",
          "gid": 123,
          "x": 2328.0,
          "y": 1008.0,
          "width": 96.0,
          "height": 47.999968,
          "rotation": -0.0,
          "visible": true
        },
        {
          "id": 240,
          "name": "",
          "type": "obj_left_pusher",
          "gid": 123,
          "x": 2448.0,
          "y": 864.0,
          "width": 24.0,
          "height": 47.999968,
          "rotation": -0.0,
          "visible": true
        },
        {
          "id": 241,
          "name": "",
          "type": "obj_left_pusher",
          "gid": 123,
          "x": 2520.0,
          "y": 1008.0,
          "width": 24.0,
          "height": 47.999968,
          "rotation": -0.0,
          "visible": true
        },
        {
          "id": 242,
          "name": "",
          "type": "obj_right_pusher",
          "gid": 247,
          "x": 192.0,
          "y": 984.0,
          "width": 120.0,
          "height": 72.0,
          "rotation": -0.0,
          "visible": true
        },
        {
          "id": 243,
          "name": "",
          "type": "obj_right_pusher",
          "gid": 247,
          "x": 336.0,
          "y": 600.0,
          "width": 24.0,
          "height": 192.0,
          "rotation": -0.0,
          "visible": true
        },
        {
          "id": 244,
          "name": "",
          "type": "obj_right_pusher",
          "gid": 247,
          "x": 0.0,
          "y": 1056.0,
          "width": 480.0,
          "height": 744.0,
          "rotation": -0.0,
          "visible": true
        },
        {
          "id": 245,
          "name": "",
          "type": "obj_right_pusher",
          "gid": 247,
          "x": 0.0,
          "y": 1800.0,
          "width": 144.0,
          "height": 336.0,
          "rotation": -0.0,
          "visible": true
        },
        {
          "id": 246,
          "name": "",
          "type": "obj_right_pusher",
          "gid": 247,
          "x": 336.0,
          "y": 1800.0,
          "width": 144.0,
          "height": 72.0,
          "rotation": -0.0,
          "visible": true
        },
        {
          "id": 247,
          "name": "",
          "type": "obj_right_pusher",
          "gid": 247,
          "x": 0.0,
          "y": 2136.0,
          "width": 72.0,
          "height": 240.0,
          "rotation": -0.0,
          "visible": true
        },
        {
          "id": 248,
          "name": "",
          "type": "obj_right_pusher",
          "gid": 247,
          "x": 0.0,
          "y": 2376.0,
          "width": 240.0,
          "height": 360.0,
          "rotation": -0.0,
          "visible": true
        },
        {
          "id": 249,
          "name": "",
          "type": "obj_left_pusher",
          "gid": 123,
          "x": 2208.0,
          "y": 1056.0,
          "width": 576.0,
          "height": 744.000064,
          "rotation": -0.0,
          "visible": true
        },
        {
          "id": 250,
          "name": "",
          "type": "obj_left_pusher",
          "gid": 123,
          "x": 2232.0,
          "y": 1800.0,
          "width": 552.0,
          "height": 312.0,
          "rotation": -0.0,
          "visible": true
        },
        {
          "id": 251,
          "name": "",
          "type": "obj_left_pusher",
          "gid": 123,
          "x": 2520.0,
          "y": 2112.0,
          "width": 264.0,
          "height": 216.0,
          "rotation": -0.0,
          "visible": true
        },
        {
          "id": 252,
          "name": "",
          "type": "obj_left_pusher",
          "gid": 123,
          "x": 2544.0,
          "y": 2328.0,
          "width": 240.0,
          "height": 408.0,
          "rotation": -0.0,
          "visible": true
        },
        {
          "id": 253,
          "name": "",
          "type": "obj_left_pusher",
          "gid": 123,
          "x": 2232.0,
          "y": 2112.0,
          "width": 48.0,
          "height": 48.0,
          "rotation": -0.0,
          "visible": true
        },
        {
          "id": 254,
          "name": "",
          "type": "obj_left_pusher",
          "gid": 123,
          "x": 2400.0,
          "y": 2424.0,
          "width": 144.0,
          "height": 312.0,
          "rotation": -0.0,
          "visible": true
        },
        {
          "id": 255,
          "name": "",
          "type": "obj_right_pusher",
          "gid": 247,
          "x": 2784.0,
          "y": 1064.0,
          "width": 912.000064,
          "height": 544.0,
          "rotation": -0.0,
          "visible": true
        },
        {
          "id": 256,
          "name": "",
          "type": "obj_right_pusher",
          "gid": 247,
          "x": 3072.0,
          "y": 1032.0,
          "width": 216.000064,
          "height": 32.0,
          "rotation": -0.0,
          "visible": true
        },
        {
          "id": 257,
          "name": "",
          "type": "obj_right_pusher",
          "gid": 247,
          "x": 2976.0,
          "y": 1056.0,
          "width": 96.000064,
          "height": 8.0,
          "rotation": -0.0,
          "visible": true
        },
        {
          "id": 258,
          "name": "",
          "type": "obj_right_pusher",
          "gid": 247,
          "x": 3288.0,
          "y": 1056.0,
          "width": 408.000064,
          "height": 8.0,
          "rotation": -0.0,
          "visible": true
        },
        {
          "id": 259,
          "name": "",
          "type": "obj_right_pusher",
          "gid": 247,
          "x": 2784.0,
          "y": 1608.0,
          "width": 840.000064,
          "height": 72.0,
          "rotation": -0.0,
          "visible": true
        },
        {
          "id": 260,
          "name": "",
          "type": "obj_right_pusher",
          "gid": 247,
          "x": 2784.0,
          "y": 1680.0,
          "width": 768.000064,
          "height": 72.0,
          "rotation": -0.0,
          "visible": true
        },
        {
          "id": 261,
          "name": "",
          "type": "obj_right_pusher",
          "gid": 247,
          "x": 2784.0,
          "y": 1752.0,
          "width": 504.000032,
          "height": 192.0,
          "rotation": -0.0,
          "visible": true
        },
        {
          "id": 262,
          "name": "",
          "type": "obj_right_pusher",
          "gid": 247,
          "x": 2784.0,
          "y": 1944.0,
          "width": 456.000032,
          "height": 144.0,
          "rotation": -0.0,
          "visible": true
        },
        {
          "id": 263,
          "name": "",
          "type": "obj_right_pusher",
          "gid": 247,
          "x": 2784.0,
          "y": 2088.0,
          "width": 240.000032,
          "height": 216.0,
          "rotation": -0.0,
          "visible": true
        },
        {
          "id": 264,
          "name": "",
          "type": "obj_right_pusher",
          "gid": 247,
          "x": 2784.0,
          "y": 2304.0,
          "width": 192.000032,
          "height": 432.0,
          "rotation": -0.0,
          "visible": true
        },
        {
          "id": 265,
          "name": "",
          "type": "obj_right_pusher",
          "gid": 247,
          "x": 2976.0,
          "y": 2400.0,
          "width": 48.000032,
          "height": 336.0,
          "rotation": -0.0,
          "visible": true
        },
        {
          "id": 266,
          "name": "",
          "type": "obj_right_pusher",
          "gid": 247,
          "x": 3024.0,
          "y": 2424.0,
          "width": 232.0000448,
          "height": 312.0,
          "rotation": -0.0,
          "visible": true
        },
        {
          "id": 267,
          "name": "",
          "type": "obj_right_pusher",
          "gid": 247,
          "x": 3192.0,
          "y": 2088.0,
          "width": 48.0000448,
          "height": 72.0,
          "rotation": -0.0,
          "visible": true
        },
        {
          "id": 268,
          "name": "",
          "type": "obj_right_pusher",
          "gid": 247,
          "x": 3240.0,
          "y": 2136.0,
          "width": 96.0000448,
          "height": 24.0,
          "rotation": -0.0,
          "visible": true
        },
        {
          "id": 269,
          "name": "",
          "type": "obj_left_pusher",
          "gid": 123,
          "x": 4776.0,
          "y": 1056.0,
          "width": 743.999936,
          "height": 504.000032,
          "rotation": -0.0,
          "visible": true
        },
        {
          "id": 270,
          "name": "",
          "type": "obj_left_pusher",
          "gid": 123,
          "x": 4872.0,
          "y": 1560.0,
          "width": 647.999936,
          "height": 312.000032,
          "rotation": -0.0,
          "visible": true
        },
        {
          "id": 271,
          "name": "",
          "type": "obj_left_pusher",
          "gid": 123,
          "x": 5016.0,
          "y": 1872.0,
          "width": 503.999904,
          "height": 120.000032,
          "rotation": -0.0,
          "visible": true
        },
        {
          "id": 272,
          "name": "",
          "type": "obj_left_pusher",
          "gid": 123,
          "x": 5088.0,
          "y": 1992.0,
          "width": 439.999936,
          "height": 168.000032,
          "rotation": -0.0,
          "visible": true
        },
        {
          "id": 273,
          "name": "",
          "type": "obj_left_pusher",
          "gid": 123,
          "x": 5352.0,
          "y": 2160.0,
          "width": 167.999904,
          "height": 24.0000304,
          "rotation": -0.0,
          "visible": true
        },
        {
          "id": 274,
          "name": "",
          "type": "obj_left_pusher",
          "gid": 123,
          "x": 5400.0,
          "y": 2184.0005,
          "width": 119.9999072,
          "height": 552.0,
          "rotation": -0.0,
          "visible": true
        },
        {
          "id": 275,
          "name": "",
          "type": "obj_left_pusher",
          "gid": 123,
          "x": 4848.0,
          "y": 1560.0,
          "width": 24.0,
          "height": 192.0,
          "rotation": -0.0,
          "visible": true
        },
        {
          "id": 276,
          "name": "",
          "type": "obj_left_pusher",
          "gid": 123,
          "x": 4464.0,
          "y": 1368.0,
          "width": 96.0,
          "height": 696.0,
          "rotation": -0.0,
          "visible": true
        },
        {
          "id": 277,
          "name": "",
          "type": "obj_right_pusher",
          "gid": 247,
          "x": 4560.0,
          "y": 1968.0,
          "width": 96.0,
          "height": 48.0,
          "rotation": -0.0,
          "visible": true
        },
        {
          "id": 278,
          "name": "",
          "type": "obj_spawnpoint",
          "gid": 259,
          "x": 1023.0,
          "y": 592.0,
          "width": 32.0,
          "height": 32.0,
          "rotation": -0.0,
          "visible": true
        },
        {
          "id": 279,
          "name": "",
          "type": "obj_spawnpoint",
          "gid": 259,
          "x": 1823.0,
          "y": 784.0,
          "width": 32.0,
          "height": 32.0,
          "rotation": -0.0,
          "visible": true
        },
        {
          "id": 280,
          "name": "",
          "type": "obj_exespawn",
          "gid": 85,
          "x": 1367.0,
          "y": 376.0,
          "width": 32.0,
          "height": 32.0,
          "rotation": -0.0,
          "visible": true
        },
        {
          "id": 281,
          "name": "",
          "type": "obj_npring",
          "gid": 210,
          "x": 4024.0,
          "y": 656.0,
          "width": 64.0,
          "height": 64.0,
          "rotation": -0.0,
          "visible": true
        },
        {
          "id": 282,
          "name": "",
          "type": "obj_bspring_up",
          "gid": 34,
          "x": 500.0,
          "y": 880.0,
          "width": 32.0,
          "height": 32.0,
          "rotation": -0.0,
          "visible": true
        },
        {
          "id": 283,
          "name": "",
          "type": "obj_bspring_up",
          "gid": 34,
          "x": 1240.0,
          "y": 736.0,
          "width": 32.0,
          "height": 32.0,
          "rotation": -0.0,
          "visible": true
        },
        {
          "id": 284,
          "name": "",
          "type": "obj_bspring_up",
          "gid": 34,
          "x": 4144.0,
          "y": 736.0,
          "width": 32.0,
          "height": 32.0,
          "rotation": -0.0,
          "visible": true
        },
        {
          "id": 285,
          "name": "",
          "type": "obj_bspring_up",
          "gid": 34,
          "x": 3404.0,
          "y": 880.0,
          "width": 32.0,
          "height": 32.0,
          "rotation": -0.0,
          "visible": true
        },
        {
          "id": 286,
          "name": "",
          "type": "obj_bspring_up",
          "gid": 34,
          "x": 1240.0,
          "y": 2104.0,
          "width": 32.0,
          "height": 32.0,
          "rotation": -0.0,
          "visible": true
        },
        {
          "id": 287,
          "name": "",
          "type": "obj_bspring_up",
          "gid": 34,
          "x": 500.0,
          "y": 2248.0,
          "width": 32.0,
          "height": 32.0,
          "rotation": -0.0,
          "visible": true
        },
        {
          "id": 288,
          "name": "",
          "type": "obj_bspring_up",
          "gid": 34,
          "x": 3404.0,
          "y": 2248.0,
          "width": 32.0,
          "height": 32.0,
          "rotation": -0.0,
          "visible": true
        },
        {
          "id": 289,
          "name": "",
          "type": "obj_bspring_up",
          "gid": 34,
          "x": 4144.0,
          "y": 2104.0,
          "width": 32.0,
          "height": 32.0,
          "rotation": -0.0,
          "visible": true
        },
        {
          "id": 290,
          "name": "",
          "type": "obj_left_pusher",
          "gid": 123,
          "x": 4344.0,
          "y": 2160.0,
          "width": 64.0,
          "height": 168.0,
          "rotation": -0.0,
          "visible": true
        },
        {
          "id": 291,
          "name": "",
          "type": "obj_right_pusher",
          "gid": 247,
          "x": 4408.0,
          "y": 2160.0,
          "width": 56.0,
          "height": 168.0,
          "rotation": -0.0,
          "visible": true
        },
        {
          "id": 292,
          "name": "",
          "type": "obj_right_pusher",
          "gid": 247,
          "x": 1320.0,
          "y": 2040.0,
          "width": 120.0,
          "height": 120.0,
          "rotation": -0.0,
          "visible": true
        },
        {
          "id": 293,
          "name": "",
          "type": "obj_right_pusher",
          "gid": 247,
          "x": 888.0,
          "y": 2040.0,
          "width": 72.0,
          "height": 120.0,
          "rotation": -0.0,
          "visible": true
        },
        {
          "id": 294,
          "name": "",
          "type": "obj_right_pusher",
          "gid": 247,
          "x": 936.0,
          "y": 1792.0,
          "width": 120.0,
          "height": 80.0,
          "rotation": -0.0,
          "visible": true
        },
        {
          "id": 295,
          "name": "",
          "type": "obj_right_pusher",
          "gid": 247,
          "x": 1128.0,
          "y": 1960.0,
          "width": 96.0,
          "height": 56.0,
          "rotation": -0.0,
          "visible": true
        },
        {
          "id": 296,
          "name": "",
          "type": "obj_right_pusher",
          "gid": 247,
          "x": 1848.0,
          "y": 1816.0,
          "width": 144.0,
          "height": 56.0,
          "rotation": -0.0,
          "visible": true
        },
        {
          "id": 297,
          "name": "",
          "type": "obj_right_pusher",
          "gid": 247,
          "x": 1488.0,
          "y": 1816.0,
          "width": 96.0,
          "height": 56.0,
          "rotation": -0.0,
          "visible": true
        },
        {
          "id": 298,
          "name": "",
          "type": "obj_right_pusher",
          "gid": 247,
          "x": 1104.0,
          "y": 584.0,
          "width": 96.0,
          "height": 64.0,
          "rotation": -0.0,
          "visible": true
        },
        {
          "id": 299,
          "name": "",
          "type": "obj_right_pusher",
          "gid": 247,
          "x": 864.0,
          "y": 440.0,
          "width": 96.0,
          "height": 64.0,
          "rotation": -0.0,
          "visible": true
        },
        {
          "id": 300,
          "name": "",
          "type": "obj_right_pusher",
          "gid": 247,
          "x": 672.0,
          "y": 728.0,
          "width": 120.0,
          "height": 64.0,
          "rotation": -0.0,
          "visible": true
        },
        {
          "id": 301,
          "name": "",
          "type": "obj_right_pusher",
          "gid": 247,
          "x": 4776.0,
          "y": 2016.0,
          "width": 120.0,
          "height": 144.0,
          "rotation": -0.0,
          "visible": true
        },
        {
          "id": 302,
          "name": "",
          "type": "obj_right_pusher",
          "gid": 247,
          "x": 4680.0,
          "y": 2088.0,
          "width": 96.0,
          "height": 72.0,
          "rotation": -0.0,
          "visible": true
        },
        {
          "id": 303,
          "name": "",
          "type": "obj_right_pusher",
          "gid": 247,
          "x": 4152.0,
          "y": 2304.0,
          "width": 96.0,
          "height": 120.0,
          "rotation": -0.0,
          "visible": true
        },
        {
          "id": 304,
          "name": "",
          "type": "obj_left_pusher",
          "gid": 123,
          "x": 4056.0,
          "y": 2304.0,
          "width": 96.0,
          "height": 120.0,
          "rotation": -0.0,
          "visible": true
        },
        {
          "id": 305,
          "name": "",
          "type": "obj_right_pusher",
          "gid": 247,
          "x": 4744.0,
          "y": 2280.0,
          "width": 80.0,
          "height": 144.0,
          "rotation": -0.0,
          "visible": true
        },
        {
          "id": 306,
          "name": "",
          "type": "obj_left_pusher",
          "gid": 123,
          "x": 4656.0,
          "y": 2280.0,
          "width": 88.0,
          "height": 72.0,
          "rotation": -0.0,
          "visible": true
        },
        {
          "id": 307,
          "name": "",
          "type": "obj_right_pusher",
          "gid": 247,
          "x": 4320.0,
          "y": 2040.0,
          "width": 48.0,
          "height": 96.0,
          "rotation": -0.0,
          "visible": true
        },
        {
          "id": 308,
          "name": "",
          "type": "obj_left_pusher",
          "gid": 123,
          "x": 336.0,
          "y": 2104.0,
          "width": 64.0,
          "height": 56.0,
          "rotation": -0.0,
          "visible": true
        },
        {
          "id": 309,
          "name": "",
          "type": "obj_right_pusher",
          "gid": 247,
          "x": 400.0,
          "y": 2104.0,
          "width": 56.0,
          "height": 56.0,
          "rotation": -0.0,
          "visible": true
        },
        {
          "id": 310,
          "name": "",
          "type": "obj_left_pusher",
          "gid": 123,
          "x": 2160.0,
          "y": 2352.0,
          "width": 96.0,
          "height": 72.0,
          "rotation": -0.0,
          "visible": true
        },
        {
          "id": 311,
          "name": "",
          "type": "obj_right_pusher",
          "gid": 247,
          "x": 2016.0,
          "y": 2304.0,
          "width": 96.0,
          "height": 48.0,
          "rotation": -0.0,
          "visible": true
        },
        {
          "id": 312,
          "name": "",
          "type": "obj_right_pusher",
          "gid": 247,
          "x": 1692.0,
          "y": 2320.0,
          "width": 36.0,
          "height": 32.0,
          "rotation": -0.0,
          "visible": true
        },
        {
          "id": 313,
          "name": "",
          "type": "obj_left_pusher",
          "gid": 123,
          "x": 1656.0,
          "y": 2320.0,
          "width": 36.0,
          "height": 32.0,
          "rotation": -0.0,
          "visible": true
        },
        {
          "id": 314,
          "name": "",
          "type": "obj_right_pusher",
          "gid": 247,
          "x": 1548.0,
          "y": 2248.0,
          "width": 36.0,
          "height": 32.0,
          "rotation": -0.0,
          "visible": true
        },
        {
          "id": 315,
          "name": "",
          "type": "obj_left_pusher",
          "gid": 123,
          "x": 1512.0,
          "y": 2248.0,
          "width": 36.0,
          "height": 32.0,
          "rotation": -0.0,
          "visible": true
        },
        {
          "id": 316,
          "name": "",
          "type": "obj_right_pusher",
          "gid": 247,
          "x": 1404.0,
          "y": 2320.0,
          "width": 36.0,
          "height": 32.0,
          "rotation": -0.0,
          "visible": true
        },
        {
          "id": 317,
          "name": "",
          "type": "obj_left_pusher",
          "gid": 123,
          "x": 1368.0,
          "y": 2320.0,
          "width": 36.0,
          "height": 32.0,
          "rotation": -0.0,
          "visible": true
        },
        {
          "id": 318,
          "name": "",
          "type": "obj_right_pusher",
          "gid": 247,
          "x": 1188.0,
          "y": 2320.0,
          "width": 36.0,
          "height": 32.0,
          "rotation": -0.0,
          "visible": true
        },
        {
          "id": 319,
          "name": "",
          "type": "obj_left_pusher",
          "gid": 123,
          "x": 1152.0,
          "y": 2320.0,
          "width": 36.0,
          "height": 32.0,
          "rotation": -0.0,
          "visible": true
        },
        {
          "id": 320,
          "name": "",
          "type": "obj_right_pusher",
          "gid": 247,
          "x": 1715.5083,
          "y": 1743.0,
          "width": 61.5000032,
          "height": 33.0,
          "rotation": -0.0,
          "visible": true
        },
        {
          "id": 321,
          "name": "",
          "type": "obj_left_pusher",
          "gid": 123,
          "x": 1655.0,
          "y": 1743.0,
          "width": 60.5,
          "height": 33.0,
          "rotation": -0.0,
          "visible": true
        },
        {
          "id": 322,
          "name": "",
          "type": "obj_right_pusher",
          "gid": 247,
          "x": 4512.0,
          "y": 992.0,
          "width": 72.0,
          "height": 64.0,
          "rotation": -0.0,
          "visible": true
        },
        {
          "id": 323,
          "name": "",
          "type": "obj_right_pusher",
          "gid": 247,
          "x": 4584.0,
          "y": 904.0,
          "width": 96.0,
          "height": 56.0,
          "rotation": -0.0,
          "visible": true
        },
        {
          "id": 324,
          "name": "",
          "type": "obj_right_pusher",
          "gid": 247,
          "x": 3960.0,
          "y": 688.0,
          "width": 72.0,
          "height": 104.0,
          "rotation": -0.0,
          "visible": true
        },
        {
          "id": 325,
          "name": "",
          "type": "obj_left_pusher",
          "gid": 123,
          "x": 4296.0,
          "y": 688.0,
          "width": 72.0,
          "height": 104.0,
          "rotation": -0.0,
          "visible": true
        },
        {
          "id": 326,
          "name": "",
          "type": "obj_np_background",
          "gid": 206,
          "x": 0.0,
          "y": -128.0,
          "width": 128.0,
          "height": 128.0,
          "rotation": -0.0,
          "visible": true
        },
        {
          "id": 327,
          "name": "",
          "type": "obj_right_pusher",
          "gid": 247,
          "x": 3432.0,
          "y": 2136.0,
          "width": 24.00004576,
          "height": 192.0,
          "rotation": -0.0,
          "visible": true
        },
        {
          "id": 328,
          "name": "",
          "type": "obj_left_pusher",
          "gid": 123,
          "x": 3336.0,
          "y": 2280.0,
          "width": 96.0,
          "height": 48.0,
          "rotation": -0.0,
          "visible": true
        },
        {
          "id": 330,
          "name": "",
          "type": "obj_ring_spawner",
          "gid": 249,
          "x": 1144.0,
          "y": 528.0,
          "width": 16.0,
          "height": 16.0,
          "rotation": -0.0,
          "visible": true
        },
        {
          "id": 331,
          "name": "",
          "type": "obj_ring_spawner",
          "gid": 249,
          "x": 904.0,
          "y": 384.0,
          "width": 16.0,
          "height": 16.0,
          "rotation": -0.0,
          "visible": true
        },
        {
          "id": 332,
          "name": "",
          "type": "obj_ring_spawner",
          "gid": 249,
          "x": 1312.0,
          "y": 384.0,
          "width": 16.0,
          "height": 16.0,
          "rotation": -0.0,
          "visible": true
        },
        {
          "id": 333,
          "name": "",
          "type": "obj_ring_spawner",
          "gid": 249,
          "x": 728.0,
          "y": 672.0,
          "width": 16.0,
          "height": 16.0,
          "rotation": -0.0,
          "visible": true
        },
        {
          "id": 334,
          "name": "",
          "type": "obj_ring_spawner",
          "gid": 249,
          "x": 504.0,
          "y": 624.0,
          "width": 16.0,
          "height": 16.0,
          "rotation": -0.0,
          "visible": true
        },
        {
          "id": 335,
          "name": "",
          "type": "obj_ring_spawner",
          "gid": 249,
          "x": 512.0,
          "y": 744.0,
          "width": 16.0,
          "height": 16.0,
          "rotation": -0.0,
          "visible": true
        },
        {
          "id": 336,
          "name": "",
          "type": "obj_ring_spawner",
          "gid": 249,
          "x": 848.0,
          "y": 888.0,
          "width": 16.0,
          "height": 16.0,
          "rotation": -0.0,
          "visible": true
        },
        {
          "id": 337,
          "name": "",
          "type": "obj_ring_spawner",
          "gid": 249,
          "x": 1056.0,
          "y": 960.0,
          "width": 16.0,
          "height": 16.0,
          "rotation": -0.0,
          "visible": true
        },
        {
          "id": 338,
          "name": "",
          "type": "obj_ring_spawner",
          "gid": 249,
          "x": 1528.0,
          "y": 672.0,
          "width": 16.0,
          "height": 16.0,
          "rotation": -0.0,
          "visible": true
        },
        {
          "id": 339,
          "name": "",
          "type": "obj_ring_spawner",
          "gid": 249,
          "x": 1528.0,
          "y": 456.0,
          "width": 16.0,
          "height": 16.0,
          "rotation": -0.0,
          "visible": true
        },
        {
          "id": 340,
          "name": "",
          "type": "obj_ring_spawner",
          "gid": 249,
          "x": 1584.0,
          "y": 312.0,
          "width": 16.0,
          "height": 16.0,
          "rotation": -0.0,
          "visible": true
        },
        {
          "id": 341,
          "name": "",
          "type": "obj_ring_spawner",
          "gid": 249,
          "x": 1952.0,
          "y": 720.0,
          "width": 16.0,
          "height": 16.0,
          "rotation": -0.0,
          "visible": true
        },
        {
          "id": 342,
          "name": "",
          "type": "obj_ring_spawner",
          "gid": 249,
          "x": 840.0,
          "y": 2040.0,
          "width": 16.0,
          "height": 16.0,
          "rotation": -0.0,
          "visible": true
        },
        {
          "id": 343,
          "name": "",
          "type": "obj_ring_spawner",
          "gid": 249,
          "x": 576.0,
          "y": 1968.0,
          "width": 16.0,
          "height": 16.0,
          "rotation": -0.0,
          "visible": true
        },
        {
          "id": 344,
          "name": "",
          "type": "obj_ring_spawner",
          "gid": 249,
          "x": 792.0,
          "y": 1800.0,
          "width": 16.0,
          "height": 16.0,
          "rotation": -0.0,
          "visible": true
        },
        {
          "id": 345,
          "name": "",
          "type": "obj_ring_spawner",
          "gid": 249,
          "x": 992.0,
          "y": 1728.0,
          "width": 16.0,
          "height": 16.0,
          "rotation": -0.0,
          "visible": true
        },
        {
          "id": 346,
          "name": "",
          "type": "obj_ring_spawner",
          "gid": 249,
          "x": 1168.0,
          "y": 1896.0,
          "width": 16.0,
          "height": 16.0,
          "rotation": -0.0,
          "visible": true
        },
        {
          "id": 347,
          "name": "",
          "type": "obj_ring_spawner",
          "gid": 249,
          "x": 1176.0,
          "y": 1648.0,
          "width": 16.0,
          "height": 16.0,
          "rotation": -0.0,
          "visible": true
        },
        {
          "id": 348,
          "name": "",
          "type": "obj_ring_spawner",
          "gid": 249,
          "x": 1336.0,
          "y": 1816.0,
          "width": 16.0,
          "height": 16.0,
          "rotation": -0.0,
          "visible": true
        },
        {
          "id": 349,
          "name": "",
          "type": "obj_ring_spawner",
          "gid": 249,
          "x": 1344.0,
          "y": 1968.0,
          "width": 16.0,
          "height": 16.0,
          "rotation": -0.0,
          "visible": true
        },
        {
          "id": 350,
          "name": "",
          "type": "obj_ring_spawner",
          "gid": 249,
          "x": 1096.0,
          "y": 2088.0,
          "width": 16.0,
          "height": 16.0,
          "rotation": -0.0,
          "visible": true
        },
        {
          "id": 351,
          "name": "",
          "type": "obj_ring_spawner",
          "gid": 249,
          "x": 1384.0,
          "y": 1680.0,
          "width": 16.0,
          "height": 16.0,
          "rotation": -0.0,
          "visible": true
        },
        {
          "id": 352,
          "name": "",
          "type": "obj_ring_spawner",
          "gid": 249,
          "x": 1736.0,
          "y": 1968.0,
          "width": 16.0,
          "height": 16.0,
          "rotation": -0.0,
          "visible": true
        },
        {
          "id": 353,
          "name": "",
          "type": "obj_ring_spawner",
          "gid": 249,
          "x": 1912.0,
          "y": 1752.0,
          "width": 16.0,
          "height": 16.0,
          "rotation": -0.0,
          "visible": true
        },
        {
          "id": 354,
          "name": "",
          "type": "obj_ring_spawner",
          "gid": 249,
          "x": 1840.0,
          "y": 2064.0,
          "width": 16.0,
          "height": 16.0,
          "rotation": -0.0,
          "visible": true
        },
        {
          "id": 355,
          "name": "",
          "type": "obj_ring_spawner",
          "gid": 249,
          "x": 1536.0,
          "y": 2184.0,
          "width": 16.0,
          "height": 16.0,
          "rotation": -0.0,
          "visible": true
        },
        {
          "id": 356,
          "name": "",
          "type": "obj_ring_spawner",
          "gid": 249,
          "x": 1392.0,
          "y": 2256.0,
          "width": 16.0,
          "height": 16.0,
          "rotation": -0.0,
          "visible": true
        },
        {
          "id": 357,
          "name": "",
          "type": "obj_ring_spawner",
          "gid": 249,
          "x": 1288.0,
          "y": 2352.0,
          "width": 16.0,
          "height": 16.0,
          "rotation": -0.0,
          "visible": true
        },
        {
          "id": 358,
          "name": "",
          "type": "obj_ring_spawner",
          "gid": 249,
          "x": 1184.0,
          "y": 2256.0,
          "width": 16.0,
          "height": 16.0,
          "rotation": -0.0,
          "visible": true
        },
        {
          "id": 359,
          "name": "",
          "type": "obj_ring_spawner",
          "gid": 249,
          "x": 632.0,
          "y": 2280.0,
          "width": 16.0,
          "height": 16.0,
          "rotation": -0.0,
          "visible": true
        },
        {
          "id": 360,
          "name": "",
          "type": "obj_ring_spawner",
          "gid": 249,
          "x": 3808.0,
          "y": 1992.0,
          "width": 16.0,
          "height": 16.0,
          "rotation": -0.0,
          "visible": true
        },
        {
          "id": 361,
          "name": "",
          "type": "obj_ring_spawner",
          "gid": 249,
          "x": 4264.0,
          "y": 1992.0,
          "width": 16.0,
          "height": 16.0,
          "rotation": -0.0,
          "visible": true
        },
        {
          "id": 362,
          "name": "",
          "type": "obj_ring_spawner",
          "gid": 249,
          "x": 4144.0,
          "y": 2280.0,
          "width": 16.0,
          "height": 16.0,
          "rotation": -0.0,
          "visible": true
        },
        {
          "id": 363,
          "name": "",
          "type": "obj_ring_spawner",
          "gid": 249,
          "x": 3752.0,
          "y": 2352.0,
          "width": 16.0,
          "height": 16.0,
          "rotation": -0.0,
          "visible": true
        },
        {
          "id": 364,
          "name": "",
          "type": "obj_ring_spawner",
          "gid": 249,
          "x": 3376.0,
          "y": 2112.0,
          "width": 16.0,
          "height": 16.0,
          "rotation": -0.0,
          "visible": true
        },
        {
          "id": 365,
          "name": "",
          "type": "obj_ring_spawner",
          "gid": 249,
          "x": 3176.0,
          "y": 2256.0,
          "width": 16.0,
          "height": 16.0,
          "rotation": -0.0,
          "visible": true
        },
        {
          "id": 366,
          "name": "",
          "type": "obj_ring_spawner",
          "gid": 249,
          "x": 3216.0,
          "y": 2256.0,
          "width": 16.0,
          "height": 16.0,
          "rotation": -0.0,
          "visible": true
        },
        {
          "id": 367,
          "name": "",
          "type": "obj_ring_spawner",
          "gid": 249,
          "x": 4832.0,
          "y": 1992.0,
          "width": 16.0,
          "height": 16.0,
          "rotation": -0.0,
          "visible": true
        },
        {
          "id": 368,
          "name": "",
          "type": "obj_ring_spawner",
          "gid": 249,
          "x": 4736.0,
          "y": 2256.0,
          "width": 16.0,
          "height": 16.0,
          "rotation": -0.0,
          "visible": true
        },
        {
          "id": 369,
          "name": "",
          "type": "obj_ring_spawner",
          "gid": 249,
          "x": 4600.0,
          "y": 1944.0,
          "width": 16.0,
          "height": 16.0,
          "rotation": -0.0,
          "visible": true
        },
        {
          "id": 370,
          "name": "",
          "type": "obj_ring_spawner",
          "gid": 249,
          "x": 5056.0,
          "y": 2328.0,
          "width": 16.0,
          "height": 16.0,
          "rotation": -0.0,
          "visible": true
        },
        {
          "id": 371,
          "name": "",
          "type": "obj_ring_spawner",
          "gid": 249,
          "x": 3288.0,
          "y": 720.0,
          "width": 16.0,
          "height": 16.0,
          "rotation": -0.0,
          "visible": true
        },
        {
          "id": 372,
          "name": "",
          "type": "obj_ring_spawner",
          "gid": 249,
          "x": 3528.0,
          "y": 720.0,
          "width": 16.0,
          "height": 16.0,
          "rotation": -0.0,
          "visible": true
        },
        {
          "id": 373,
          "name": "",
          "type": "obj_ring_spawner",
          "gid": 249,
          "x": 3504.0,
          "y": 936.0,
          "width": 16.0,
          "height": 16.0,
          "rotation": -0.0,
          "visible": true
        },
        {
          "id": 374,
          "name": "",
          "type": "obj_ring_spawner",
          "gid": 249,
          "x": 3752.0,
          "y": 960.0,
          "width": 16.0,
          "height": 16.0,
          "rotation": -0.0,
          "visible": true
        },
        {
          "id": 375,
          "name": "",
          "type": "obj_ring_spawner",
          "gid": 249,
          "x": 4264.0,
          "y": 960.0,
          "width": 16.0,
          "height": 16.0,
          "rotation": -0.0,
          "visible": true
        },
        {
          "id": 376,
          "name": "",
          "type": "obj_ring_spawner",
          "gid": 249,
          "x": 4072.0,
          "y": 888.0,
          "width": 16.0,
          "height": 16.0,
          "rotation": -0.0,
          "visible": true
        },
        {
          "id": 377,
          "name": "",
          "type": "obj_ring_spawner",
          "gid": 249,
          "x": 4264.0,
          "y": 600.0,
          "width": 16.0,
          "height": 16.0,
          "rotation": -0.0,
          "visible": true
        },
        {
          "id": 378,
          "name": "",
          "type": "obj_ring_spawner",
          "gid": 249,
          "x": 4048.0,
          "y": 600.0,
          "width": 16.0,
          "height": 16.0,
          "rotation": -0.0,
          "visible": true
        },
        {
          "id": 379,
          "name": "",
          "type": "obj_ring_spawner",
          "gid": 249,
          "x": 4976.0,
          "y": 720.0,
          "width": 16.0,
          "height": 16.0,
          "rotation": -0.0,
          "visible": true
        },
        {
          "id": 380,
          "name": "",
          "type": "obj_ring_spawner",
          "gid": 249,
          "x": 4928.0,
          "y": 672.0,
          "width": 16.0,
          "height": 16.0,
          "rotation": -0.0,
          "visible": true
        },
        {
          "id": 381,
          "name": "",
          "type": "obj_ring_spawner",
          "gid": 249,
          "x": 4760.0,
          "y": 600.0,
          "width": 16.0,
          "height": 16.0,
          "rotation": -0.0,
          "visible": true
        },
        {
          "id": 382,
          "name": "",
          "type": "obj_ring_spawner",
          "gid": 249,
          "x": 5272.0,
          "y": 960.0,
          "width": 16.0,
          "height": 16.0,
          "rotation": -0.0,
          "visible": true
        },
        {
          "id": 383,
          "name": "",
          "type": "obj_ring_spawner",
          "gid": 249,
          "x": 5376.0,
          "y": 1032.0,
          "width": 16.0,
          "height": 16.0,
          "rotation": -0.0,
          "visible": true
        },
        {
          "id": 384,
          "name": "",
          "type": "obj_ring_spawner",
          "gid": 249,
          "x": 4592.0,
          "y": 1032.0,
          "width": 16.0,
          "height": 16.0,
          "rotation": -0.0,
          "visible": true
        },
        {
          "id": 385,
          "name": "",
          "type": "obj_ring_spawner",
          "gid": 249,
          "x": 4632.0,
          "y": 1032.0,
          "width": 16.0,
          "height": 16.0,
          "rotation": -0.0,
          "visible": true
        },
        {
          "id": 386,
          "name": "",
          "type": "obj_ring_spawner",
          "gid": 249,
          "x": 2992.0,
          "y": 1032.0,
          "width": 16.0,
          "height": 16.0,
          "rotation": -0.0,
          "visible": true
        },
        {
          "id": 387,
          "name": "",
          "type": "obj_ring_spawner",
          "gid": 249,
          "x": 3032.0,
          "y": 1032.0,
          "width": 16.0,
          "height": 16.0,
          "rotation": -0.0,
          "visible": true
        },
        {
          "id": 388,
          "name": "",
          "type": "obj_ring_spawner",
          "gid": 249,
          "x": 248.0,
          "y": 960.0,
          "width": 16.0,
          "height": 16.0,
          "rotation": -0.0,
          "visible": true
        },
        {
          "id": 389,
          "name": "",
          "type": "obj_ring_spawner",
          "gid": 249,
          "x": 144.0,
          "y": 2352.0,
          "width": 16.0,
          "height": 16.0,
          "rotation": -0.0,
          "visible": true
        },
        {
          "id": 390,
          "name": "",
          "type": "obj_left_pusher",
          "gid": 123,
          "x": 4800.0,
          "y": 0.0,
          "width": 720.0,
          "height": 264.0,
          "rotation": -0.0,
          "visible": true
        },
        {
          "id": 391,
          "name": "",
          "type": "obj_left_pusher",
          "gid": 123,
          "x": 4872.0,
          "y": 264.0,
          "width": 648.0,
          "height": 72.0,
          "rotation": -0.0,
          "visible": true
        },
        {
          "id": 392,
          "name": "",
          "type": "obj_left_pusher",
          "gid": 123,
          "x": 5040.0,
          "y": 336.0,
          "width": 479.999968,
          "height": 216.0,
          "rotation": -0.0,
          "visible": true
        },
        {
          "id": 393,
          "name": "",
          "type": "obj_left_pusher",
          "gid": 123,
          "x": 4872.0,
          "y": 336.0,
          "width": 23.9999696,
          "height": 168.0,
          "rotation": -0.0,
          "visible": true
        },
        {
          "id": 394,
          "name": "",
          "type": "obj_left_pusher",
          "gid": 123,
          "x": 5040.0,
          "y": 552.0,
          "width": 23.9999696,
          "height": 120.0,
          "rotation": -0.0,
          "visible": true
        },
        {
          "id": 395,
          "name": "",
          "type": "obj_left_pusher",
          "gid": 123,
          "x": 5160.0,
          "y": 576.0,
          "width": 23.9999696,
          "height": 216.0,
          "rotation": -0.0,
          "visible": true
        },
        {
          "id": 396,
          "name": "",
          "type": "obj_left_pusher",
          "gid": 123,
          "x": 5160.0,
          "y": 552.0,
          "width": 359.999968,
          "height": 24.0,
          "rotation": -0.0,
          "visible": true
        },
        {
          "id": 397,
          "name": "",
          "type": "obj_left_pusher",
          "gid": 123,
          "x": 5304.0,
          "y": 576.0,
          "width": 215.999968,
          "height": 96.0,
          "rotation": -0.0,
          "visible": true
        },
        {
          "id": 398,
          "name": "",
          "type": "obj_left_pusher",
          "gid": 123,
          "x": 5376.0,
          "y": 672.0,
          "width": 143.999968,
          "height": 264.0,
          "rotation": -0.0,
          "visible": true
        },
        {
          "id": 399,
          "name": "",
          "type": "obj_left_pusher",
          "gid": 123,
          "x": 5448.0,
          "y": 936.0,
          "width": 71.999968,
          "height": 120.0,
          "rotation": -0.0,
          "visible": true
        },
        {
          "id": 400,
          "name": "",
          "type": "obj_solid_block",
          "gid": 255,
          "x": 4848.0,
          "y": 1560.0,
          "width": 24.0,
          "height": 96.0,
          "rotation": -0.0,
          "visible": true
        },
        {
          "id": 401,
          "name": "",
          "type": "obj_ringspawn",
          "gid": 251,
          "x": 1135.0,
          "y": 688.0,
          "width": 32.0,
          "height": 32.0,
          "rotation": -0.0,
          "visible": true
        },
        {
          "id": 402,
          "name": "",
          "type": "obj_npring",
          "gid": 210,
          "x": 4024.0,
          "y": 2024.0,
          "width": 64.0,
          "height": 64.0,
          "rotation": -0.0,
          "visible": true
        },
        {
          "id": 403,
          "name": "",
          "type": "obj_npring",
          "gid": 210,
          "x": 1120.0,
          "y": 2024.0,
          "width": 64.0,
          "height": 64.0,
          "rotation": -0.0,
          "visible": true
        },
        {
          "id": 404,
          "name": "",
          "type": "obj_right_pusher",
          "gid": 247,
          "x": 4248.0,
          "y": 2376.0,
          "width": 24.0,
          "height": 48.0,
          "rotation": -0.0,
          "visible": true
        },
        {
          "id": 405,
          "name": "",
          "type": "obj_solid_block",
          "gid": 255,
          "x": 4248.0,
          "y": 2376.0,
          "width": 24.0,
          "height": 48.0,
          "rotation": -0.0,
          "visible": true
        },
        {
          "id": 406,
          "name": "",
          "type": "obj_corpse_amy",
          "gid": 43,
          "x": 5082.0,
          "y": 527.0,
          "width": 98.0,
          "height": 247.0,
          "rotation": -0.0,
          "visible": true
        },
        {
          "id": 407,
          "name": "",
          "type": "obj_solid_block",
          "gid": 1073742079,
          "x": 4368.0,
          "y": 2088.0,
          "width": 24.0,
          "height": 48.0,
          "rotation": -0.0,
          "visible": true
        },
        {
          "id": 408,
          "name": "",
          "type": "obj_right_pusher",
          "gid": 247,
          "x": 4368.0,
          "y": 2088.0,
          "width": 24.0,
          "height": 48.0,
          "rotation": -0.0,
          "visible": true
        },
        {
          "id": 410,
          "name": "",
          "type": "obj_ringspawn",
          "gid": 251,
          "x": 4039.0,
          "y": 688.0,
          "width": 32.0,
          "height": 32.0,
          "rotation": -0.0,
          "visible": true
        },
        {
          "id": 411,
          "name": "",
          "type": "obj_ringspawn",
          "gid": 251,
          "x": 4039.0,
          "y": 2056.0,
          "width": 32.0,
          "height": 32.0,
          "rotation": -0.0,
          "visible": true
        },
        {
          "id": 412,
          "name": "",
          "type": "obj_ringspawn",
          "gid": 251,
          "x": 1135.0,
          "y": 2056.0,
          "width": 32.0,
          "height": 32.0,
          "rotation": -0.0,
          "visible": true
        },
        {
          "id": 413,
          "name": "",
          "type": "obj_npring",
          "gid": 210,
          "x": 1120.0,
          "y": 656.0,
          "width": 64.0,
          "height": 64.0,
          "rotation": -0.0,
          "visible": true
        }
      ],
      "properties": [
        {
          "name": "depth",
          "type": "int",
          "value": 0
        }
      ]
    },
    {
      "type": "objectgroup",
      "id": 6,
      "name": "Instances_1",
      "draworder": "index",
      "opacity": 1.0,
      "visible": false,
      "x": 0,
      "y": 0,
      "objects": [
        {
          "id": 329,
          "name": "",
          "type": "obj_angleanuller_eggsafe",
          "gid": 21,
          "x": 0.0,
          "y": 0.0,
          "width": 5524.0,
          "height": 2756.0,
          "rotation": -0.0,
          "visible": true
        }
      ],
      "properties": [
        {
          "name": "depth",
          "type": "int",
          "value": -100
        }
      ]
    },
    {
      "type": "objectgroup",
      "id": 7,
      "name": "Instances_2",
      "draworder": "index",
      "opacity": 1.0,
      "visible": true,
      "x": 0,
      "y": 0,
      "objects": [
        {
          "id": 414,
          "name": "",
          "type": "obj_np_teleporn",
          "gid": 208,
          "x": 0.0,
          "y": 84.0,
          "width": 2776.0,
          "height": 1280.000128,
          "rotation": -0.0,
          "visible": true,
          "properties": [
            {
              "name": "pX",
              "type": "float",
              "value": 1369.0
            },
            {
              "name": "pY",
              "type": "float",
              "value": 1061.0
            }
          ]
        },
        {
          "id": 415,
          "name": "",
          "type": "obj_np_teleporn",
          "gid": 208,
          "x": 2776.0,
          "y": 84.0,
          "width": 2744.0,
          "height": 1280.0,
          "rotation": -0.0,
          "visible": true,
          "properties": [
            {
              "name": "pX",
              "type": "float",
              "value": 4071.0
            },
            {
              "name": "pY",
              "type": "float",
              "value": 1012.0
            },
            {
              "name": "tid",
              "type": "float",
              "value": 1.0
            }
          ]
        },
        {
          "id": 416,
          "name": "",
          "type": "obj_np_teleporn",
          "gid": 208,
          "x": 0.0,
          "y": 1456.0,
          "width": 2776.0,
          "height": 1280.000128,
          "rotation": -0.0,
          "visible": true,
          "properties": [
            {
              "name": "pX",
              "type": "float",
              "value": 1549.0
            },
            {
              "name": "pY",
              "type": "float",
              "value": 2367.0
            },
            {
              "name": "tid",
              "type": "float",
              "value": 2.0
            }
          ]
        },
        {
          "id": 417,
          "name": "",
          "type": "obj_np_teleporn",
          "gid": 208,
          "x": 2776.0,
          "y": 1456.0,
          "width": 2748.0,
          "height": 1280.000128,
          "rotation": -0.0,
          "visible": true,
          "properties": [
            {
              "name": "pX",
              "type": "float",
              "value": 4400.0
            },
            {
              "name": "pY",
              "type": "float",
              "value": 2374.0
            },
            {
              "name": "tid",
              "type": "float",
              "value": 3.0
            }
          ]
        }
      ],
      "properties": [
        {
          "name": "depth",
          "type": "int",
          "value": -200
        }
      ]
    }
  ]
}