{
  "type": "map",
  "version": "1.10",
  "orientation": "orthogonal",
  "renderorder": "right-down",
  "infinite": false,
  "width": 536,
  "height": 225,
  "tilewidth": 8,
  "tileheight": 8,
  "nextlayerid": 4,
  "nextobjectid": 206,
  "properties": [
    {
      "name": "persistent",
      "type": "bool",
      "value": false
    },
    {
      "name": "views_enabled",
      "type": "bool",
      "value": true
    },
    {
      "name": "clear_view_background",
      "type": "bool",
      "value": false
    },
    {
      "name": "view_visible",
      "type": "bool",
      "value": true
    },
    {
      "name": "view_x",
      "type": "int",
      "value": 0
    },
    {
      "name": "view_y",
      "type": "int",
      "value": 0
    },
    {
      "name": "view_width",
      "type": "int",
      "value": 480
    },
    {
      "name": "view_height",
      "type": "int",
      "value": 270
    },
    {
      "name": "port_x",
      "type": "int",
      "value": 0
    },
    {
      "name": "port_y",
      "type": "int",
      "value": 0
    },
    {
      "name": "port_width",
      "type": "int",
      "value": 480
    },
    {
      "name": "port_height",
      "type": "int",
      "value": 270
    }
  ],
  "tilesets": [
    {
      "firstgid": 1,
      "source": "Tilesets/objects.tsj"
    },
    {
      "firstgid": 10000,
      "source": "Tilesets/sprites.tsj"
    }
  ],
  "layers": [
    {
      "type": "imagelayer",
      "id": 1,
      "name": "Background",
      "image": "../Textures/Zones/PricelessFreedom/pf.apng",
      "imagewidth": 120,
      "imageheight": 120,
      "repeatx": true,
      "repeaty": true,
      "offsetx": 0.0,
      "offsety": 0.0,
      "parallaxx": 0.3,
      "parallaxy": 0.3,
      "opacity": 1.0,
      "visible": true,
      "x": 0,
      "y": 0,
      "properties": [
        {
          "name": "depth",
          "type": "int",
          "value": 200
        }
      ]
    },
    {
      "type": "objectgroup",
      "id": 3,
      "name": "LevelArt pf_tiles",
      "draworder": "index",
      "opacity": 1.0,
      "visible": true,
      "x": 0,
      "y": 0,
      "objects": [
        {
          "id": 202,
          "name": "",
          "type": "",
          "gid": 10660,
          "x": 0.0,
          "y": 0.0,
          "width": 1072.0,
          "height": 1800.0,
          "rotation": -0.0,
          "visible": true,
          "properties": [
            {
              "name": "animation_speed",
              "type": "float",
              "value": 0.0
            }
          ]
        },
        {
          "id": 203,
          "name": "",
          "type": "",
          "gid": 10660,
          "x": 1072.0,
          "y": 0.0,
          "width": 1072.0,
          "height": 1800.0,
          "rotation": -0.0,
          "visible": true,
          "properties": [
            {
              "name": "animation_speed",
              "type": "float",
              "value": 0.0
            },
            {
              "name": "frame",
              "type": "float",
              "value": 1.0
            }
          ]
        },
        {
          "id": 204,
          "name": "",
          "type": "",
          "gid": 10660,
          "x": 2144.0,
          "y": 0.0,
          "width": 1072.0,
          "height": 1800.0,
          "rotation": -0.0,
          "visible": true,
          "properties": [
            {
              "name": "animation_speed",
              "type": "float",
              "value": 0.0
            },
            {
              "name": "frame",
              "type": "float",
              "value": 2.0
            }
          ]
        },
        {
          "id": 205,
          "name": "",
          "type": "",
          "gid": 10660,
          "x": 3216.0,
          "y": 0.0,
          "width": 1072.0,
          "height": 1800.0,
          "rotation": -0.0,
          "visible": true,
          "properties": [
            {
              "name": "animation_speed",
              "type": "float",
              "value": 0.0
            },
            {
              "name": "frame",
              "type": "float",
              "value": 3.0
            }
          ]
        }
      ],
      "properties": [
        {
          "name": "depth",
          "type": "int",
          "value": 100
        },
        {
          "name": "asset_layer",
          "type": "bool",
          "value": true
        }
      ]
    },
    {
      "type": "objectgroup",
      "id": 2,
      "name": "Instances",
      "draworder": "index",
      "opacity": 1.0,
      "visible": true,
      "x": 0,
      "y": 0,
      "objects": [
        {
          "id": 1,
          "name": "",
          "type": "obj_solid_block",
          "gid": 255,
          "x": 0.0,
          "y": 600.0,
          "width": 402.0,
          "height": 240.0,
          "rotation": -0.0,
          "visible": true
        },
        {
          "id": 2,
          "name": "",
          "type": "obj_solid_block",
          "gid": 255,
          "x": 536.0,
          "y": 600.0,
          "width": 136.0,
          "height": 600.0,
          "rotation": -0.0,
          "visible": true
        },
        {
          "id": 3,
          "name": "",
          "type": "obj_solid_block",
          "gid": 255,
          "x": 402.0,
          "y": 1080.0,
          "width": 134.0,
          "height": 120.0,
          "rotation": -0.0,
          "visible": true
        },
        {
          "id": 4,
          "name": "",
          "type": "obj_solid_block",
          "gid": 255,
          "x": 335.0,
          "y": 1140.0,
          "width": 67.0,
          "height": 60.0,
          "rotation": -0.0,
          "visible": true
        },
        {
          "id": 5,
          "name": "",
          "type": "obj_solid_block",
          "gid": 255,
          "x": 0.0,
          "y": 1200.0,
          "width": 132.0,
          "height": 128.0,
          "rotation": -0.0,
          "visible": true
        },
        {
          "id": 6,
          "name": "",
          "type": "obj_solid_block",
          "gid": 255,
          "x": 399.0,
          "y": 1320.0,
          "width": 405.0,
          "height": 120.0,
          "rotation": -0.0,
          "visible": true
        },
        {
          "id": 7,
          "name": "",
          "type": "obj_solid_block",
          "gid": 255,
          "x": 0.0,
          "y": 1368.0,
          "width": 402.0,
          "height": 432.0,
          "rotation": -0.0,
          "visible": true
        },
        {
          "id": 8,
          "name": "",
          "type": "obj_solid_block",
          "gid": 255,
          "x": 672.0,
          "y": 600.0,
          "width": 936.0,
          "height": 240.0,
          "rotation": -0.0,
          "visible": true
        },
        {
          "id": 9,
          "name": "",
          "type": "obj_solid_block",
          "gid": 255,
          "x": 1608.0,
          "y": 420.0,
          "width": 401.9999744,
          "height": 300.0,
          "rotation": -0.0,
          "visible": true
        },
        {
          "id": 10,
          "name": "",
          "type": "obj_solid_block",
          "gid": 255,
          "x": 2144.0,
          "y": 420.0,
          "width": 133.0,
          "height": 424.0,
          "rotation": -0.0,
          "visible": true
        },
        {
          "id": 11,
          "name": "",
          "type": "obj_solid_block",
          "gid": 255,
          "x": 2011.0,
          "y": 840.0,
          "width": 266.0,
          "height": 368.0,
          "rotation": -0.0,
          "visible": true
        },
        {
          "id": 12,
          "name": "",
          "type": "obj_solid_block",
          "gid": 255,
          "x": 1340.0,
          "y": 1080.0,
          "width": 144.0,
          "height": 420.0,
          "rotation": -0.0,
          "visible": true
        },
        {
          "id": 13,
          "name": "",
          "type": "obj_solid_block",
          "gid": 255,
          "x": 938.0,
          "y": 1080.0,
          "width": 268.0,
          "height": 361.0,
          "rotation": -0.0,
          "visible": true
        },
        {
          "id": 14,
          "name": "",
          "type": "obj_solid_block",
          "gid": 255,
          "x": 1484.0,
          "y": 1208.0,
          "width": 124.0,
          "height": 292.0,
          "rotation": -0.0,
          "visible": true
        },
        {
          "id": 15,
          "name": "",
          "type": "obj_solid_block",
          "gid": 255,
          "x": 1608.0,
          "y": 1208.0,
          "width": 804.0,
          "height": 232.0,
          "rotation": -0.0,
          "visible": true
        },
        {
          "id": 16,
          "name": "",
          "type": "obj_solid_block",
          "gid": 255,
          "x": 2412.0,
          "y": 1136.0,
          "width": 134.0,
          "height": 364.0,
          "rotation": -0.0,
          "visible": true
        },
        {
          "id": 17,
          "name": "",
          "type": "obj_solid_block",
          "gid": 255,
          "x": 2544.0,
          "y": 720.0,
          "width": 128.0,
          "height": 420.0000256,
          "rotation": -0.0,
          "visible": true
        },
        {
          "id": 18,
          "name": "",
          "type": "obj_platform_jumptrough",
          "gid": 221,
          "x": 2010.0,
          "y": 420.0,
          "width": 134.0,
          "height": 32.0,
          "rotation": -0.0,
          "visible": true
        },
        {
          "id": 19,
          "name": "",
          "type": "obj_platform_jumptrough",
          "gid": 221,
          "x": 2814.0,
          "y": 720.0,
          "width": 134.0,
          "height": 32.0,
          "rotation": -0.0,
          "visible": true
        },
        {
          "id": 20,
          "name": "",
          "type": "obj_solid_block",
          "gid": 255,
          "x": 2948.0,
          "y": 720.0,
          "width": 892.0,
          "height": 240.0000256,
          "rotation": -0.0,
          "visible": true
        },
        {
          "id": 21,
          "name": "",
          "type": "obj_platform_jumptrough",
          "gid": 221,
          "x": 2672.0,
          "y": 1080.0,
          "width": 544.0,
          "height": 32.0,
          "rotation": -0.0,
          "visible": true
        },
        {
          "id": 22,
          "name": "",
          "type": "obj_platform_jumptrough",
          "gid": 221,
          "x": 3350.0,
          "y": 1140.0,
          "width": 268.0,
          "height": 32.0,
          "rotation": -0.0,
          "visible": true
        },
        {
          "id": 23,
          "name": "",
          "type": "obj_solid_block",
          "gid": 255,
          "x": 2948.0,
          "y": 1430.0,
          "width": 268.0,
          "height": 70.0,
          "rotation": -0.0,
          "visible": true
        },
        {
          "id": 24,
          "name": "",
          "type": "obj_solid_block",
          "gid": 255,
          "x": 2546.0,
          "y": 1440.0,
          "width": 402.0,
          "height": 60.0,
          "rotation": -0.0,
          "visible": true
        },
        {
          "id": 25,
          "name": "",
          "type": "obj_solid_block",
          "gid": 255,
          "x": 2833.0,
          "y": 1386.0,
          "width": 224.0,
          "height": 40.0,
          "rotation": 155.7,
          "visible": true
        },
        {
          "id": 26,
          "name": "",
          "type": "obj_solid_block",
          "gid": 255,
          "x": 2816.0,
          "y": 1350.0,
          "width": 132.0,
          "height": 90.0,
          "rotation": -0.0,
          "visible": true
        },
        {
          "id": 27,
          "name": "",
          "type": "obj_solid_block",
          "gid": 255,
          "x": 2028.177,
          "y": 876.92004,
          "width": 592.0,
          "height": 40.0,
          "rotation": 155.7,
          "visible": true
        },
        {
          "id": 28,
          "name": "",
          "type": "obj_solid_block",
          "gid": 255,
          "x": 132.0,
          "y": 1200.0,
          "width": 304.0,
          "height": 40.0,
          "rotation": 24.2,
          "visible": true
        },
        {
          "id": 29,
          "name": "",
          "type": "obj_solid_block",
          "gid": 255,
          "x": 400.0,
          "y": 1680.0,
          "width": 2700.999936,
          "height": 120.0,
          "rotation": -0.0,
          "visible": true
        },
        {
          "id": 30,
          "name": "",
          "type": "obj_solid_block",
          "gid": 255,
          "x": 1340.0,
          "y": 1600.0,
          "width": 134.0,
          "height": 80.00000768,
          "rotation": -0.0,
          "visible": true
        },
        {
          "id": 31,
          "name": "",
          "type": "obj_solid_block",
          "gid": 255,
          "x": 1472.0,
          "y": 1619.0,
          "width": 144.0,
          "height": 40.0,
          "rotation": 26.0,
          "visible": true
        },
        {
          "id": 32,
          "name": "",
          "type": "obj_solid_block",
          "gid": 255,
          "x": 2008.0,
          "y": 1619.0,
          "width": 144.0,
          "height": 40.0,
          "rotation": 26.0,
          "visible": true
        },
        {
          "id": 33,
          "name": "",
          "type": "obj_solid_block",
          "gid": 255,
          "x": 1747.0,
          "y": 1683.0,
          "width": 144.0,
          "height": 40.0,
          "rotation": 334.0,
          "visible": true
        },
        {
          "id": 34,
          "name": "",
          "type": "obj_solid_block",
          "gid": 255,
          "x": 1876.0,
          "y": 1590.0,
          "width": 134.0,
          "height": 90.00000768,
          "rotation": -0.0,
          "visible": true
        },
        {
          "id": 35,
          "name": "",
          "type": "obj_solid_block",
          "gid": 255,
          "x": 2278.0,
          "y": 1590.0,
          "width": 134.0,
          "height": 90.00000768,
          "rotation": -0.0,
          "visible": true
        },
        {
          "id": 36,
          "name": "",
          "type": "obj_solid_block",
          "gid": 255,
          "x": 2151.0,
          "y": 1682.0,
          "width": 144.0,
          "height": 40.0,
          "rotation": 334.0,
          "visible": true
        },
        {
          "id": 37,
          "name": "",
          "type": "obj_solid_block",
          "gid": 255,
          "x": 2412.0,
          "y": 1620.0,
          "width": 144.0,
          "height": 40.0,
          "rotation": 26.0,
          "visible": true
        },
        {
          "id": 38,
          "name": "",
          "type": "obj_solid_block",
          "gid": 255,
          "x": 3434.9998,
          "y": 1567.9999,
          "width": 369.0000256,
          "height": 40.0,
          "rotation": 155.9,
          "visible": true
        },
        {
          "id": 39,
          "name": "",
          "type": "obj_solid_block",
          "gid": 255,
          "x": 3417.0,
          "y": 1530.0,
          "width": 202.0000512,
          "height": 112.00000768,
          "rotation": -0.0,
          "visible": true
        },
        {
          "id": 40,
          "name": "",
          "type": "obj_solid_block",
          "gid": 255,
          "x": 2277.0,
          "y": 420.0,
          "width": 171.0,
          "height": 40.0,
          "rotation": 45.0,
          "visible": true
        },
        {
          "id": 41,
          "name": "",
          "type": "obj_solid_block",
          "gid": 255,
          "x": 2478.0,
          "y": 540.0,
          "width": 147.0,
          "height": 40.0,
          "rotation": 45.0,
          "visible": true
        },
        {
          "id": 42,
          "name": "",
          "type": "obj_solid_block",
          "gid": 255,
          "x": 2392.0,
          "y": 540.00006,
          "width": 86.0,
          "height": 668.0,
          "rotation": -0.0,
          "visible": true
        },
        {
          "id": 43,
          "name": "",
          "type": "obj_solid_block",
          "gid": 255,
          "x": 2576.0,
          "y": 640.0,
          "width": 104.0,
          "height": 80.00003072,
          "rotation": -0.0,
          "visible": true
        },
        {
          "id": 44,
          "name": "",
          "type": "obj_solid_block",
          "gid": 255,
          "x": 1200.6547,
          "y": 604.02893,
          "width": 448.0,
          "height": 40.0,
          "rotation": 335.8,
          "visible": true
        },
        {
          "id": 45,
          "name": "",
          "type": "obj_solid_block",
          "gid": 255,
          "x": 2881.0,
          "y": 280.0,
          "width": 134.0,
          "height": 80.0,
          "rotation": -0.0,
          "visible": true
        },
        {
          "id": 46,
          "name": "",
          "type": "obj_solid_block",
          "gid": 255,
          "x": 2816.0,
          "y": 360.0,
          "width": 869.0,
          "height": 120.0,
          "rotation": -0.0,
          "visible": true
        },
        {
          "id": 47,
          "name": "",
          "type": "obj_solid_block",
          "gid": 255,
          "x": 2823.1235,
          "y": 374.12628,
          "width": 224.0,
          "height": 16.0,
          "rotation": 155.7,
          "visible": true
        },
        {
          "id": 48,
          "name": "",
          "type": "obj_solid_block",
          "gid": 255,
          "x": 2613.0,
          "y": 451.0,
          "width": 203.0,
          "height": 29.00003072,
          "rotation": -0.0,
          "visible": true
        },
        {
          "id": 49,
          "name": "",
          "type": "obj_solid_block",
          "gid": 255,
          "x": 3358.9766,
          "y": 314.01154,
          "width": 144.0,
          "height": 16.0,
          "rotation": 154.0,
          "visible": true
        },
        {
          "id": 50,
          "name": "",
          "type": "obj_solid_block",
          "gid": 255,
          "x": 3136.0,
          "y": 377.0,
          "width": 144.0,
          "height": 16.0,
          "rotation": 206.0,
          "visible": true
        },
        {
          "id": 51,
          "name": "",
          "type": "obj_solid_block",
          "gid": 255,
          "x": 3605.0,
          "y": 377.0,
          "width": 144.0,
          "height": 16.0,
          "rotation": 206.0,
          "visible": true
        },
        {
          "id": 52,
          "name": "",
          "type": "obj_solid_block",
          "gid": 255,
          "x": 3350.0,
          "y": 270.0,
          "width": 134.0,
          "height": 90.0,
          "rotation": -0.0,
          "visible": true
        },
        {
          "id": 53,
          "name": "",
          "type": "obj_solid_block",
          "gid": 255,
          "x": 3216.0,
          "y": 630.0,
          "width": 134.0,
          "height": 90.0,
          "rotation": -0.0,
          "visible": true
        },
        {
          "id": 54,
          "name": "",
          "type": "obj_solid_block",
          "gid": 255,
          "x": 3618.0,
          "y": 630.0,
          "width": 134.0,
          "height": 90.0,
          "rotation": -0.0,
          "visible": true
        },
        {
          "id": 55,
          "name": "",
          "type": "obj_solid_block",
          "gid": 255,
          "x": 3349.0,
          "y": 660.0,
          "width": 144.0,
          "height": 40.0,
          "rotation": 26.0,
          "visible": true
        },
        {
          "id": 56,
          "name": "",
          "type": "obj_solid_block",
          "gid": 255,
          "x": 3751.0,
          "y": 660.0,
          "width": 117.0,
          "height": 40.0,
          "rotation": 26.0,
          "visible": true
        },
        {
          "id": 57,
          "name": "",
          "type": "obj_solid_block",
          "gid": 255,
          "x": 3090.0,
          "y": 722.0,
          "width": 144.0,
          "height": 40.0,
          "rotation": 334.0,
          "visible": true
        },
        {
          "id": 58,
          "name": "",
          "type": "obj_solid_block",
          "gid": 255,
          "x": 3492.0,
          "y": 722.0,
          "width": 144.0,
          "height": 40.0,
          "rotation": 334.0,
          "visible": true
        },
        {
          "id": 59,
          "name": "",
          "type": "obj_solid_block",
          "gid": 255,
          "x": 4020.0,
          "y": -1.0,
          "width": 266.0,
          "height": 1801.0,
          "rotation": -0.0,
          "visible": true
        },
        {
          "id": 60,
          "name": "",
          "type": "obj_solid_block",
          "gid": 255,
          "x": 3912.5696,
          "y": 712.47986,
          "width": 120.0,
          "height": 40.0,
          "rotation": 334.0,
          "visible": true
        },
        {
          "id": 61,
          "name": "",
          "type": "obj_solid_block",
          "gid": 255,
          "x": 3618.0,
          "y": 1140.0,
          "width": 402.0,
          "height": 660.0,
          "rotation": -0.0,
          "visible": true
        },
        {
          "id": 62,
          "name": "",
          "type": "obj_bspring_right",
          "gid": 33,
          "x": 2680.0,
          "y": 676.0,
          "width": 44.0,
          "height": 44.0,
          "rotation": -0.0,
          "visible": true
        },
        {
          "id": 63,
          "name": "",
          "type": "obj_ringspawn",
          "gid": 251,
          "x": 2127.0,
          "y": 1568.0,
          "width": 32.0,
          "height": 32.0,
          "rotation": -0.0,
          "visible": true
        },
        {
          "id": 64,
          "name": "",
          "type": "obj_ringspawn",
          "gid": 251,
          "x": 2719.0,
          "y": 1008.0,
          "width": 32.0,
          "height": 32.0,
          "rotation": -0.0,
          "visible": true
        },
        {
          "id": 65,
          "name": "",
          "type": "obj_ringspawn",
          "gid": 251,
          "x": 1063.0,
          "y": 960.0,
          "width": 32.0,
          "height": 32.0,
          "rotation": -0.0,
          "visible": true
        },
        {
          "id": 66,
          "name": "",
          "type": "obj_ringspawn",
          "gid": 251,
          "x": 39.0,
          "y": 512.0,
          "width": 32.0,
          "height": 32.0,
          "rotation": -0.0,
          "visible": true
        },
        {
          "id": 67,
          "name": "",
          "type": "obj_pf_lift",
          "gid": 220,
          "x": 1257.0,
          "y": 1662.0,
          "width": 32.0,
          "height": 15.0,
          "rotation": -0.0,
          "visible": true,
          "properties": [
            {
              "name": "top",
              "type": "float",
              "value": 1016.0
            }
          ]
        },
        {
          "id": 68,
          "name": "",
          "type": "obj_pf_lift",
          "gid": 220,
          "x": 2864.0,
          "y": 1062.0,
          "width": 32.0,
          "height": 15.0,
          "rotation": -0.0,
          "visible": true,
          "properties": [
            {
              "name": "nid",
              "type": "float",
              "value": 1.0
            },
            {
              "name": "top",
              "type": "float",
              "value": 704.0
            }
          ]
        },
        {
          "id": 69,
          "name": "",
          "type": "obj_pf_lift",
          "gid": 220,
          "x": 2062.0,
          "y": 822.0,
          "width": 32.0,
          "height": 15.0,
          "rotation": -0.0,
          "visible": true,
          "properties": [
            {
              "name": "nid",
              "type": "float",
              "value": 2.0
            },
            {
              "name": "top",
              "type": "float",
              "value": 400.0
            }
          ]
        },
        {
          "id": 70,
          "name": "",
          "type": "obj_pf_lift",
          "gid": 220,
          "x": 455.0,
          "y": 1063.0,
          "width": 32.0,
          "height": 15.0,
          "rotation": -0.0,
          "visible": true,
          "properties": [
            {
              "name": "nid",
              "type": "float",
              "value": 3.0
            },
            {
              "name": "top",
              "type": "float",
              "value": 544.0
            }
          ]
        },
        {
          "id": 71,
          "name": "",
          "type": "obj_spawnpoint",
          "gid": 259,
          "x": 1175.0,
          "y": 1648.0,
          "width": 32.0,
          "height": 32.0,
          "rotation": -0.0,
          "visible": true
        },
        {
          "id": 72,
          "name": "",
          "type": "obj_exespawn",
          "gid": 85,
          "x": 31.0,
          "y": 1168.0,
          "width": 32.0,
          "height": 32.0,
          "rotation": -0.0,
          "visible": true
        },
        {
          "id": 73,
          "name": "",
          "type": "obj_ring_spawner",
          "gid": 249,
          "x": 583.0,
          "y": 1660.0,
          "width": 16.0,
          "height": 16.0,
          "rotation": -0.0,
          "visible": true
        },
        {
          "id": 74,
          "name": "",
          "type": "obj_ring_spawner",
          "gid": 249,
          "x": 610.0,
          "y": 1660.0,
          "width": 16.0,
          "height": 16.0,
          "rotation": -0.0,
          "visible": true
        },
        {
          "id": 75,
          "name": "",
          "type": "obj_ring_spawner",
          "gid": 249,
          "x": 635.0,
          "y": 1660.0,
          "width": 16.0,
          "height": 16.0,
          "rotation": -0.0,
          "visible": true
        },
        {
          "id": 76,
          "name": "",
          "type": "obj_ring_spawner",
          "gid": 249,
          "x": 407.0,
          "y": 1660.0,
          "width": 16.0,
          "height": 16.0,
          "rotation": -0.0,
          "visible": true
        },
        {
          "id": 77,
          "name": "",
          "type": "obj_ring_spawner",
          "gid": 249,
          "x": 434.0,
          "y": 1660.0,
          "width": 16.0,
          "height": 16.0,
          "rotation": -0.0,
          "visible": true
        },
        {
          "id": 78,
          "name": "",
          "type": "obj_ring_spawner",
          "gid": 249,
          "x": 459.0,
          "y": 1660.0,
          "width": 16.0,
          "height": 16.0,
          "rotation": -0.0,
          "visible": true
        },
        {
          "id": 79,
          "name": "",
          "type": "obj_blackring_spawner",
          "gid": 30,
          "x": 872.0,
          "y": 1648.0,
          "width": 30.0,
          "height": 30.0,
          "rotation": -0.0,
          "visible": true
        },
        {
          "id": 80,
          "name": "",
          "type": "obj_blackring_spawner",
          "gid": 30,
          "x": 1624.0,
          "y": 1648.0,
          "width": 30.0,
          "height": 30.0,
          "rotation": -0.0,
          "visible": true
        },
        {
          "id": 81,
          "name": "",
          "type": "obj_blackring_spawner",
          "gid": 30,
          "x": 1696.0,
          "y": 1648.0,
          "width": 30.0,
          "height": 30.0,
          "rotation": -0.0,
          "visible": true
        },
        {
          "id": 82,
          "name": "",
          "type": "obj_blackring_spawner",
          "gid": 30,
          "x": 2129.0,
          "y": 1650.0,
          "width": 30.0,
          "height": 30.0,
          "rotation": -0.0,
          "visible": true
        },
        {
          "id": 83,
          "name": "",
          "type": "obj_blackring_spawner",
          "gid": 30,
          "x": 2774.0,
          "y": 1649.0,
          "width": 30.0,
          "height": 30.0,
          "rotation": -0.0,
          "visible": true
        },
        {
          "id": 84,
          "name": "",
          "type": "obj_blackring_spawner",
          "gid": 30,
          "x": 2867.0,
          "y": 1649.0,
          "width": 30.0,
          "height": 30.0,
          "rotation": -0.0,
          "visible": true
        },
        {
          "id": 85,
          "name": "",
          "type": "obj_ring_spawner",
          "gid": 249,
          "x": 3511.0,
          "y": 1510.0,
          "width": 16.0,
          "height": 16.0,
          "rotation": -0.0,
          "visible": true
        },
        {
          "id": 86,
          "name": "",
          "type": "obj_ring_spawner",
          "gid": 249,
          "x": 3486.0,
          "y": 1510.0,
          "width": 16.0,
          "height": 16.0,
          "rotation": -0.0,
          "visible": true
        },
        {
          "id": 87,
          "name": "",
          "type": "obj_ring_spawner",
          "gid": 249,
          "x": 3459.0,
          "y": 1510.0,
          "width": 16.0,
          "height": 16.0,
          "rotation": -0.0,
          "visible": true
        },
        {
          "id": 88,
          "name": "",
          "type": "obj_ring_spawner",
          "gid": 249,
          "x": 2840.0,
          "y": 1328.0,
          "width": 16.0,
          "height": 16.0,
          "rotation": -0.0,
          "visible": true
        },
        {
          "id": 89,
          "name": "",
          "type": "obj_ring_spawner",
          "gid": 249,
          "x": 2872.0,
          "y": 1328.0,
          "width": 16.0,
          "height": 16.0,
          "rotation": -0.0,
          "visible": true
        },
        {
          "id": 90,
          "name": "",
          "type": "obj_ring_spawner",
          "gid": 249,
          "x": 2904.0,
          "y": 1328.0,
          "width": 16.0,
          "height": 16.0,
          "rotation": -0.0,
          "visible": true
        },
        {
          "id": 91,
          "name": "",
          "type": "obj_blackring_spawner",
          "gid": 30,
          "x": 3712.0,
          "y": 1096.0,
          "width": 30.0,
          "height": 30.0,
          "rotation": -0.0,
          "visible": true
        },
        {
          "id": 92,
          "name": "",
          "type": "obj_blackring_spawner",
          "gid": 30,
          "x": 4304.0,
          "y": 944.0,
          "width": 30.0,
          "height": 30.0,
          "rotation": -0.0,
          "visible": true
        },
        {
          "id": 93,
          "name": "",
          "type": "obj_blackring_spawner",
          "gid": 30,
          "x": 4304.0,
          "y": 968.0,
          "width": 30.0,
          "height": 30.0,
          "rotation": -0.0,
          "visible": true
        },
        {
          "id": 94,
          "name": "",
          "type": "obj_ring_spawner",
          "gid": 249,
          "x": 2969.0,
          "y": 700.0,
          "width": 16.0,
          "height": 16.0,
          "rotation": -0.0,
          "visible": true
        },
        {
          "id": 95,
          "name": "",
          "type": "obj_ring_spawner",
          "gid": 249,
          "x": 2996.0,
          "y": 700.0,
          "width": 16.0,
          "height": 16.0,
          "rotation": -0.0,
          "visible": true
        },
        {
          "id": 96,
          "name": "",
          "type": "obj_ring_spawner",
          "gid": 249,
          "x": 3021.0,
          "y": 700.0,
          "width": 16.0,
          "height": 16.0,
          "rotation": -0.0,
          "visible": true
        },
        {
          "id": 97,
          "name": "",
          "type": "obj_blackring_spawner",
          "gid": 30,
          "x": 3267.0,
          "y": 602.0,
          "width": 30.0,
          "height": 30.0,
          "rotation": -0.0,
          "visible": true
        },
        {
          "id": 98,
          "name": "",
          "type": "obj_blackring_spawner",
          "gid": 30,
          "x": 3469.0,
          "y": 693.0,
          "width": 30.0,
          "height": 30.0,
          "rotation": -0.0,
          "visible": true
        },
        {
          "id": 99,
          "name": "",
          "type": "obj_blackring_spawner",
          "gid": 30,
          "x": 3667.0,
          "y": 601.0,
          "width": 30.0,
          "height": 30.0,
          "rotation": -0.0,
          "visible": true
        },
        {
          "id": 100,
          "name": "",
          "type": "obj_blackring_spawner",
          "gid": 30,
          "x": 3165.0,
          "y": 334.0,
          "width": 30.0,
          "height": 30.0,
          "rotation": -0.0,
          "visible": true
        },
        {
          "id": 101,
          "name": "",
          "type": "obj_blackring_spawner",
          "gid": 30,
          "x": 1832.0,
          "y": 391.0,
          "width": 30.0,
          "height": 30.0,
          "rotation": -0.0,
          "visible": true
        },
        {
          "id": 102,
          "name": "",
          "type": "obj_blackring_spawner",
          "gid": 30,
          "x": 847.0,
          "y": 570.0,
          "width": 30.0,
          "height": 30.0,
          "rotation": -0.0,
          "visible": true
        },
        {
          "id": 103,
          "name": "",
          "type": "obj_blackring_spawner",
          "gid": 30,
          "x": 122.0,
          "y": 572.0,
          "width": 30.0,
          "height": 30.0,
          "rotation": -0.0,
          "visible": true
        },
        {
          "id": 104,
          "name": "",
          "type": "obj_ring_spawner",
          "gid": 249,
          "x": 3.0,
          "y": 578.0,
          "width": 16.0,
          "height": 16.0,
          "rotation": -0.0,
          "visible": true
        },
        {
          "id": 105,
          "name": "",
          "type": "obj_ring_spawner",
          "gid": 249,
          "x": 3.0,
          "y": 556.0,
          "width": 16.0,
          "height": 16.0,
          "rotation": -0.0,
          "visible": true
        },
        {
          "id": 106,
          "name": "",
          "type": "obj_ring_spawner",
          "gid": 249,
          "x": 3.0,
          "y": 534.0,
          "width": 16.0,
          "height": 16.0,
          "rotation": -0.0,
          "visible": true
        },
        {
          "id": 107,
          "name": "",
          "type": "obj_blackring_spawner",
          "gid": 30,
          "x": 532.0,
          "y": 1291.0,
          "width": 30.0,
          "height": 30.0,
          "rotation": -0.0,
          "visible": true
        },
        {
          "id": 108,
          "name": "",
          "type": "obj_blackring_spawner",
          "gid": 30,
          "x": 561.0,
          "y": 1291.0,
          "width": 30.0,
          "height": 30.0,
          "rotation": -0.0,
          "visible": true
        },
        {
          "id": 109,
          "name": "",
          "type": "obj_blackring_spawner",
          "gid": 30,
          "x": 840.0,
          "y": 1417.0,
          "width": 30.0,
          "height": 30.0,
          "rotation": -0.0,
          "visible": true
        },
        {
          "id": 110,
          "name": "",
          "type": "obj_blackring_spawner",
          "gid": 30,
          "x": 872.0,
          "y": 1417.0,
          "width": 30.0,
          "height": 30.0,
          "rotation": -0.0,
          "visible": true
        },
        {
          "id": 111,
          "name": "",
          "type": "obj_blackring_spawner",
          "gid": 30,
          "x": 904.0,
          "y": 1417.0,
          "width": 30.0,
          "height": 30.0,
          "rotation": -0.0,
          "visible": true
        },
        {
          "id": 112,
          "name": "",
          "type": "obj_blackring_spawner",
          "gid": 30,
          "x": 1010.0,
          "y": 1051.0,
          "width": 30.0,
          "height": 30.0,
          "rotation": -0.0,
          "visible": true
        },
        {
          "id": 113,
          "name": "",
          "type": "obj_blackring_spawner",
          "gid": 30,
          "x": 1122.0,
          "y": 1051.0,
          "width": 30.0,
          "height": 30.0,
          "rotation": -0.0,
          "visible": true
        },
        {
          "id": 114,
          "name": "",
          "type": "obj_spring_right",
          "gid": 264,
          "x": 2546.0,
          "y": 1396.0,
          "width": 44.0,
          "height": 44.0,
          "rotation": -0.0,
          "visible": true
        },
        {
          "id": 115,
          "name": "",
          "type": "obj_bspring_left",
          "gid": 32,
          "x": 3575.0,
          "y": 1486.0,
          "width": 44.0,
          "height": 44.0,
          "rotation": -0.0,
          "visible": true
        },
        {
          "id": 116,
          "name": "",
          "type": "obj_spring_left",
          "gid": 262,
          "x": 3976.0,
          "y": 612.0,
          "width": 44.0,
          "height": 44.0,
          "rotation": -0.0,
          "visible": true
        },
        {
          "id": 117,
          "name": "",
          "type": "obj_spawnpoint",
          "gid": 259,
          "x": 1383.0,
          "y": 1048.0,
          "width": 32.0,
          "height": 32.0,
          "rotation": -0.0,
          "visible": true
        },
        {
          "id": 118,
          "name": "",
          "type": "obj_spawnpoint",
          "gid": 259,
          "x": 3639.0,
          "y": 328.0,
          "width": 32.0,
          "height": 32.0,
          "rotation": -0.0,
          "visible": true
        },
        {
          "id": 119,
          "name": "",
          "type": "obj_spawnpoint",
          "gid": 259,
          "x": 3183.0,
          "y": 1400.0,
          "width": 32.0,
          "height": 32.0,
          "rotation": -0.0,
          "visible": true
        },
        {
          "id": 120,
          "name": "",
          "type": "obj_exespawn",
          "gid": 85,
          "x": 607.0,
          "y": 568.0,
          "width": 32.0,
          "height": 32.0,
          "rotation": -0.0,
          "visible": true
        },
        {
          "id": 121,
          "name": "",
          "type": "obj_exespawn",
          "gid": 85,
          "x": 2192.0,
          "y": 388.0,
          "width": 32.0,
          "height": 32.0,
          "rotation": -0.0,
          "visible": true
        },
        {
          "id": 122,
          "name": "",
          "type": "obj_exespawn",
          "gid": 85,
          "x": 3047.0,
          "y": 1048.0,
          "width": 32.0,
          "height": 32.0,
          "rotation": -0.0,
          "visible": true
        },
        {
          "id": 123,
          "name": "",
          "type": "obj_ring_spawner",
          "gid": 249,
          "x": 2123.0,
          "y": 768.0,
          "width": 16.0,
          "height": 16.0,
          "rotation": -0.0,
          "visible": true
        },
        {
          "id": 124,
          "name": "",
          "type": "obj_ring_spawner",
          "gid": 249,
          "x": 2122.0,
          "y": 794.0,
          "width": 16.0,
          "height": 16.0,
          "rotation": -0.0,
          "visible": true
        },
        {
          "id": 125,
          "name": "",
          "type": "obj_ring_spawner",
          "gid": 249,
          "x": 2121.0,
          "y": 818.0,
          "width": 16.0,
          "height": 16.0,
          "rotation": -0.0,
          "visible": true
        },
        {
          "id": 126,
          "name": "",
          "type": "obj_angleanuller_eggsafe",
          "gid": 21,
          "x": 3456.0,
          "y": 240.0,
          "width": 56.0,
          "height": 32.0,
          "rotation": -0.0,
          "visible": true
        },
        {
          "id": 127,
          "name": "",
          "type": "obj_angleanuller_eggsafe",
          "gid": 21,
          "x": 3320.0,
          "y": 240.0,
          "width": 56.0,
          "height": 32.0,
          "rotation": -0.0,
          "visible": true
        },
        {
          "id": 128,
          "name": "",
          "type": "obj_angleanuller_eggsafe",
          "gid": 21,
          "x": 2984.0,
          "y": 248.0,
          "width": 56.0,
          "height": 32.0,
          "rotation": -0.0,
          "visible": true
        },
        {
          "id": 129,
          "name": "",
          "type": "obj_angleanuller_eggsafe",
          "gid": 21,
          "x": 3192.0,
          "y": 608.0,
          "width": 56.0,
          "height": 24.0,
          "rotation": -0.0,
          "visible": true
        },
        {
          "id": 130,
          "name": "",
          "type": "obj_angleanuller_eggsafe",
          "gid": 21,
          "x": 3320.0,
          "y": 608.0,
          "width": 56.0,
          "height": 24.0,
          "rotation": -0.0,
          "visible": true
        },
        {
          "id": 131,
          "name": "",
          "type": "obj_angleanuller_eggsafe",
          "gid": 21,
          "x": 3592.0,
          "y": 600.0,
          "width": 56.0,
          "height": 32.0,
          "rotation": -0.0,
          "visible": true
        },
        {
          "id": 132,
          "name": "",
          "type": "obj_angleanuller_eggsafe",
          "gid": 21,
          "x": 3720.0,
          "y": 600.0,
          "width": 56.0,
          "height": 32.0,
          "rotation": -0.0,
          "visible": true
        },
        {
          "id": 133,
          "name": "",
          "type": "obj_angleanuller_eggsafe",
          "gid": 21,
          "x": 2384.0,
          "y": 1560.0,
          "width": 56.0,
          "height": 32.0,
          "rotation": -0.0,
          "visible": true
        },
        {
          "id": 134,
          "name": "",
          "type": "obj_angleanuller_eggsafe",
          "gid": 21,
          "x": 2248.0,
          "y": 1560.0,
          "width": 56.0,
          "height": 32.0,
          "rotation": -0.0,
          "visible": true
        },
        {
          "id": 135,
          "name": "",
          "type": "obj_angleanuller_eggsafe",
          "gid": 21,
          "x": 1984.0,
          "y": 1560.0,
          "width": 56.0,
          "height": 32.0,
          "rotation": -0.0,
          "visible": true
        },
        {
          "id": 136,
          "name": "",
          "type": "obj_angleanuller_eggsafe",
          "gid": 21,
          "x": 1848.0,
          "y": 1560.0,
          "width": 56.0,
          "height": 32.0,
          "rotation": -0.0,
          "visible": true
        },
        {
          "id": 137,
          "name": "",
          "type": "obj_angleanuller_eggsafe",
          "gid": 21,
          "x": 1448.0,
          "y": 1560.0,
          "width": 56.0,
          "height": 40.0,
          "rotation": -0.0,
          "visible": true
        },
        {
          "id": 138,
          "name": "",
          "type": "obj_blackring_spawner",
          "gid": 30,
          "x": 840.0,
          "y": 1648.0,
          "width": 30.0,
          "height": 30.0,
          "rotation": -0.0,
          "visible": true
        },
        {
          "id": 139,
          "name": "",
          "type": "obj_blackring_spawner",
          "gid": 30,
          "x": 904.0,
          "y": 1648.0,
          "width": 30.0,
          "height": 30.0,
          "rotation": -0.0,
          "visible": true
        },
        {
          "id": 140,
          "name": "",
          "type": "obj_blackring_spawner",
          "gid": 30,
          "x": 501.0,
          "y": 1291.0,
          "width": 30.0,
          "height": 30.0,
          "rotation": -0.0,
          "visible": true
        },
        {
          "id": 141,
          "name": "",
          "type": "obj_blackring_spawner",
          "gid": 30,
          "x": 186.0,
          "y": 572.0,
          "width": 30.0,
          "height": 30.0,
          "rotation": -0.0,
          "visible": true
        },
        {
          "id": 142,
          "name": "",
          "type": "obj_blackring_spawner",
          "gid": 30,
          "x": 755.0,
          "y": 569.0,
          "width": 30.0,
          "height": 30.0,
          "rotation": -0.0,
          "visible": true
        },
        {
          "id": 143,
          "name": "",
          "type": "obj_blackring_spawner",
          "gid": 30,
          "x": 1758.0,
          "y": 391.0,
          "width": 30.0,
          "height": 30.0,
          "rotation": -0.0,
          "visible": true
        },
        {
          "id": 144,
          "name": "",
          "type": "obj_solid_block",
          "gid": 255,
          "x": 3912.0,
          "y": 712.0,
          "width": 108.0,
          "height": 428.0000256,
          "rotation": -0.0,
          "visible": true
        },
        {
          "id": 145,
          "name": "",
          "type": "obj_solid_block",
          "gid": 255,
          "x": 2672.0,
          "y": 720.0,
          "width": 142.0,
          "height": 240.0000256,
          "rotation": -0.0,
          "visible": true
        },
        {
          "id": 146,
          "name": "",
          "type": "obj_blackring_spawner",
          "gid": 30,
          "x": 4304.0,
          "y": 920.0,
          "width": 30.0,
          "height": 30.0,
          "rotation": -0.0,
          "visible": true
        },
        {
          "id": 147,
          "name": "",
          "type": "obj_solid_block",
          "gid": 255,
          "x": 3840.0,
          "y": 712.0,
          "width": 16.0,
          "height": 248.0000128,
          "rotation": -0.0,
          "visible": true
        },
        {
          "id": 148,
          "name": "",
          "type": "obj_ring_spawner",
          "gid": 249,
          "x": 8.0,
          "y": 1128.0,
          "width": 16.0,
          "height": 16.0,
          "rotation": -0.0,
          "visible": true
        },
        {
          "id": 149,
          "name": "",
          "type": "obj_ring_spawner",
          "gid": 249,
          "x": 8.0,
          "y": 1152.0,
          "width": 16.0,
          "height": 16.0,
          "rotation": -0.0,
          "visible": true
        },
        {
          "id": 150,
          "name": "",
          "type": "obj_ring_spawner",
          "gid": 249,
          "x": 8.0,
          "y": 1176.0,
          "width": 16.0,
          "height": 16.0,
          "rotation": -0.0,
          "visible": true
        },
        {
          "id": 151,
          "name": "",
          "type": "obj_ring_spawner",
          "gid": 249,
          "x": 1072.0,
          "y": 1056.0,
          "width": 16.0,
          "height": 16.0,
          "rotation": -0.0,
          "visible": true
        },
        {
          "id": 152,
          "name": "",
          "type": "obj_ring_spawner",
          "gid": 249,
          "x": 1064.0,
          "y": 576.0,
          "width": 16.0,
          "height": 16.0,
          "rotation": -0.0,
          "visible": true
        },
        {
          "id": 153,
          "name": "",
          "type": "obj_ring_spawner",
          "gid": 249,
          "x": 1032.0,
          "y": 576.0,
          "width": 16.0,
          "height": 16.0,
          "rotation": -0.0,
          "visible": true
        },
        {
          "id": 154,
          "name": "",
          "type": "obj_ring_spawner",
          "gid": 249,
          "x": 1000.0,
          "y": 576.0,
          "width": 16.0,
          "height": 16.0,
          "rotation": -0.0,
          "visible": true
        },
        {
          "id": 155,
          "name": "",
          "type": "obj_ring_spawner",
          "gid": 249,
          "x": 1368.0,
          "y": 1576.0,
          "width": 16.0,
          "height": 16.0,
          "rotation": -0.0,
          "visible": true
        },
        {
          "id": 156,
          "name": "",
          "type": "obj_ring_spawner",
          "gid": 249,
          "x": 1424.0,
          "y": 1576.0,
          "width": 16.0,
          "height": 16.0,
          "rotation": -0.0,
          "visible": true
        },
        {
          "id": 157,
          "name": "",
          "type": "obj_ring_spawner",
          "gid": 249,
          "x": 2616.0,
          "y": 1656.0,
          "width": 16.0,
          "height": 16.0,
          "rotation": -0.0,
          "visible": true
        },
        {
          "id": 158,
          "name": "",
          "type": "obj_ring_spawner",
          "gid": 249,
          "x": 2648.0,
          "y": 1656.0,
          "width": 16.0,
          "height": 16.0,
          "rotation": -0.0,
          "visible": true
        },
        {
          "id": 159,
          "name": "",
          "type": "obj_ring_spawner",
          "gid": 249,
          "x": 2680.0,
          "y": 1656.0,
          "width": 16.0,
          "height": 16.0,
          "rotation": -0.0,
          "visible": true
        },
        {
          "id": 160,
          "name": "",
          "type": "obj_ring_spawner",
          "gid": 249,
          "x": 2968.0,
          "y": 1656.0,
          "width": 16.0,
          "height": 16.0,
          "rotation": -0.0,
          "visible": true
        },
        {
          "id": 161,
          "name": "",
          "type": "obj_ring_spawner",
          "gid": 249,
          "x": 2928.0,
          "y": 1656.0,
          "width": 16.0,
          "height": 16.0,
          "rotation": -0.0,
          "visible": true
        },
        {
          "id": 162,
          "name": "",
          "type": "obj_ring_spawner",
          "gid": 249,
          "x": 3456.0,
          "y": 1112.0,
          "width": 16.0,
          "height": 16.0,
          "rotation": -0.0,
          "visible": true
        },
        {
          "id": 163,
          "name": "",
          "type": "obj_ring_spawner",
          "gid": 249,
          "x": 3488.0,
          "y": 1112.0,
          "width": 16.0,
          "height": 16.0,
          "rotation": -0.0,
          "visible": true
        },
        {
          "id": 164,
          "name": "",
          "type": "obj_ring_spawner",
          "gid": 249,
          "x": 3520.0,
          "y": 1112.0,
          "width": 16.0,
          "height": 16.0,
          "rotation": -0.0,
          "visible": true
        },
        {
          "id": 165,
          "name": "",
          "type": "obj_spring_left",
          "gid": 262,
          "x": 894.0,
          "y": 1364.0,
          "width": 44.0,
          "height": 44.0,
          "rotation": -0.0,
          "visible": true
        },
        {
          "id": 166,
          "name": "",
          "type": "obj_spring_right",
          "gid": 264,
          "x": 671.0,
          "y": 1084.0,
          "width": 44.0,
          "height": 44.0,
          "rotation": -0.0,
          "visible": true
        },
        {
          "id": 167,
          "name": "",
          "type": "obj_angleanuller_eggsafe",
          "gid": 21,
          "x": 4016.0,
          "y": 632.0,
          "width": 16.0,
          "height": 40.0,
          "rotation": -0.0,
          "visible": true
        },
        {
          "id": 168,
          "name": "",
          "type": "obj_parallax",
          "gid": 211,
          "x": 8.0,
          "y": -16.0,
          "width": 16.0,
          "height": 16.0,
          "rotation": -0.0,
          "visible": true
        },
        {
          "id": 169,
          "name": "",
          "type": "obj_solid_block",
          "gid": 255,
          "x": -37.0,
          "y": -32.0,
          "width": 4322.0,
          "height": 33.00006144,
          "rotation": -0.0,
          "visible": true
        },
        {
          "id": 170,
          "name": "",
          "type": "obj_solid_block",
          "gid": 255,
          "x": 0.0,
          "y": 1320.0,
          "width": 402.0,
          "height": 48.0,
          "rotation": -0.0,
          "visible": true
        },
        {
          "id": 171,
          "name": "",
          "type": "obj_solid_block",
          "gid": 255,
          "x": 128.0,
          "y": 1272.0,
          "width": 162.0,
          "height": 48.0,
          "rotation": -0.0,
          "visible": true
        },
        {
          "id": 172,
          "name": "",
          "type": "obj_solid_block",
          "gid": 255,
          "x": 3101.0,
          "y": 1680.0,
          "width": 517.000064,
          "height": 120.0,
          "rotation": -0.0,
          "visible": true
        },
        {
          "id": 173,
          "name": "",
          "type": "obj_solid_block",
          "gid": 255,
          "x": 3181.0,
          "y": 1640.0,
          "width": 437.000064,
          "height": 40.0,
          "rotation": -0.0,
          "visible": true
        },
        {
          "id": 174,
          "name": "",
          "type": "obj_solid_block",
          "gid": 255,
          "x": 3272.0,
          "y": 1600.0,
          "width": 145.000064,
          "height": 40.0,
          "rotation": -0.0,
          "visible": true
        },
        {
          "id": 175,
          "name": "",
          "type": "obj_solid_block",
          "gid": 255,
          "x": 3320.0,
          "y": 1576.0,
          "width": 97.000064,
          "height": 24.0,
          "rotation": -0.0,
          "visible": true
        },
        {
          "id": 176,
          "name": "",
          "type": "obj_solid_block",
          "gid": 255,
          "x": 2720.0,
          "y": 1400.0,
          "width": 96.0,
          "height": 40.0,
          "rotation": -0.0,
          "visible": true
        },
        {
          "id": 177,
          "name": "",
          "type": "obj_solid_block",
          "gid": 255,
          "x": 2768.0,
          "y": 1376.0,
          "width": 48.0,
          "height": 24.0,
          "rotation": -0.0,
          "visible": true
        },
        {
          "id": 178,
          "name": "",
          "type": "obj_solid_block",
          "gid": 255,
          "x": 2672.0,
          "y": 1416.0,
          "width": 48.0,
          "height": 24.0,
          "rotation": -0.0,
          "visible": true
        },
        {
          "id": 179,
          "name": "",
          "type": "obj_solid_block",
          "gid": 255,
          "x": 2277.0,
          "y": 540.0,
          "width": 115.0,
          "height": 668.0,
          "rotation": -0.0,
          "visible": true
        },
        {
          "id": 180,
          "name": "",
          "type": "obj_solid_block",
          "gid": 255,
          "x": 2478.0,
          "y": 608.0,
          "width": 66.0,
          "height": 528.0,
          "rotation": -0.0,
          "visible": true
        },
        {
          "id": 181,
          "name": "",
          "type": "obj_solid_block",
          "gid": 255,
          "x": 2277.0,
          "y": 516.0,
          "width": 97.000064,
          "height": 24.0,
          "rotation": -0.0,
          "visible": true
        },
        {
          "id": 182,
          "name": "",
          "type": "obj_solid_block",
          "gid": 255,
          "x": 2277.0,
          "y": 492.0,
          "width": 68.000064,
          "height": 24.0,
          "rotation": -0.0,
          "visible": true
        },
        {
          "id": 183,
          "name": "",
          "type": "obj_solid_block",
          "gid": 255,
          "x": 2277.0,
          "y": 468.0,
          "width": 44.00006144,
          "height": 24.0,
          "rotation": -0.0,
          "visible": true
        },
        {
          "id": 184,
          "name": "",
          "type": "obj_solid_block",
          "gid": 255,
          "x": 2478.0,
          "y": 584.0,
          "width": 42.00006144,
          "height": 24.0,
          "rotation": -0.0,
          "visible": true
        },
        {
          "id": 185,
          "name": "",
          "type": "obj_solid_block",
          "gid": 255,
          "x": 2478.0,
          "y": 560.0,
          "width": 18.00006144,
          "height": 24.0,
          "rotation": -0.0,
          "visible": true
        },
        {
          "id": 186,
          "name": "",
          "type": "obj_solid_block",
          "gid": 255,
          "x": 2544.0,
          "y": 640.0,
          "width": 32.00006144,
          "height": 80.0,
          "rotation": -0.0,
          "visible": true
        },
        {
          "id": 187,
          "name": "",
          "type": "obj_solid_block",
          "gid": 255,
          "x": 3176.0,
          "y": 680.0,
          "width": 40.00006144,
          "height": 40.0,
          "rotation": -0.0,
          "visible": true
        },
        {
          "id": 188,
          "name": "",
          "type": "obj_solid_block",
          "gid": 255,
          "x": 3144.0,
          "y": 696.0,
          "width": 32.00006144,
          "height": 24.0,
          "rotation": -0.0,
          "visible": true
        },
        {
          "id": 189,
          "name": "",
          "type": "obj_solid_block",
          "gid": 255,
          "x": 3350.0,
          "y": 680.0,
          "width": 40.00006144,
          "height": 40.0,
          "rotation": -0.0,
          "visible": true
        },
        {
          "id": 190,
          "name": "",
          "type": "obj_solid_block",
          "gid": 255,
          "x": 3390.0,
          "y": 696.0,
          "width": 33.00006144,
          "height": 24.0,
          "rotation": -0.0,
          "visible": true
        },
        {
          "id": 191,
          "name": "",
          "type": "obj_solid_block",
          "gid": 255,
          "x": 3544.0,
          "y": 696.0,
          "width": 48.00006144,
          "height": 24.0,
          "rotation": -0.0,
          "visible": true
        },
        {
          "id": 192,
          "name": "",
          "type": "obj_solid_block",
          "gid": 255,
          "x": 3592.0,
          "y": 673.0,
          "width": 32.00006144,
          "height": 47.0,
          "rotation": -0.0,
          "visible": true
        },
        {
          "id": 193,
          "name": "",
          "type": "obj_solid_block",
          "gid": 255,
          "x": 3752.0,
          "y": 681.0,
          "width": 40.00006144,
          "height": 39.0,
          "rotation": -0.0,
          "visible": true
        },
        {
          "id": 194,
          "name": "",
          "type": "obj_solid_block",
          "gid": 255,
          "x": 3792.0,
          "y": 704.0,
          "width": 40.00006144,
          "height": 16.0,
          "rotation": -0.0,
          "visible": true
        },
        {
          "id": 195,
          "name": "",
          "type": "obj_solid_block",
          "gid": 255,
          "x": 1484.0004,
          "y": 1080.0,
          "width": 527.000064,
          "height": 128.0,
          "rotation": -0.0,
          "visible": true
        },
        {
          "id": 196,
          "name": "",
          "type": "obj_solid_block",
          "gid": 255,
          "x": 1760.0,
          "y": 954.0,
          "width": 252.0000512,
          "height": 126.0,
          "rotation": -0.0,
          "visible": true
        },
        {
          "id": 197,
          "name": "",
          "type": "obj_solid_block",
          "gid": 255,
          "x": 1600.0,
          "y": 1026.0,
          "width": 160.0000512,
          "height": 54.0,
          "rotation": -0.0,
          "visible": true
        },
        {
          "id": 198,
          "name": "",
          "type": "obj_solid_block",
          "gid": 255,
          "x": 1865.0,
          "y": 907.0,
          "width": 146.0000512,
          "height": 47.0,
          "rotation": -0.0,
          "visible": true
        },
        {
          "id": 199,
          "name": "",
          "type": "obj_solid_block",
          "gid": 255,
          "x": 1344.0,
          "y": 544.0,
          "width": 266.0,
          "height": 56.0,
          "rotation": -0.0,
          "visible": true
        },
        {
          "id": 200,
          "name": "",
          "type": "obj_solid_block",
          "gid": 255,
          "x": 1464.0,
          "y": 488.0,
          "width": 146.0,
          "height": 56.0,
          "rotation": -0.0,
          "visible": true
        },
        {
          "id": 201,
          "name": "",
          "type": "obj_solid_block2",
          "gid": 256,
          "x": -40.0,
          "y": 0.0,
          "width": 40.0,
          "height": 1800.0,
          "rotation": -0.0,
          "visible": true
        }
      ],
      "properties": [
        {
          "name": "depth",
          "type": "int",
          "value": 0
        }
      ]
    }
  ]
}
