{
  "type": "map",
  "version": "1.10",
  "orientation": "orthogonal",
  "renderorder": "right-down",
  "infinite": false,
  "width": 3128,
  "height": 2494,
  "tilewidth": 1,
  "tileheight": 1,
  "nextlayerid": 11,
  "nextobjectid": 189,
  "properties": [
    {
      "name": "persistent",
      "type": "bool",
      "value": false
    },
    {
      "name": "views_enabled",
      "type": "bool",
      "value": true
    },
    {
      "name": "clear_view_background",
      "type": "bool",
      "value": false
    },
    {
      "name": "view_visible",
      "type": "bool",
      "value": true
    },
    {
      "name": "view_x",
      "type": "int",
      "value": 0
    },
    {
      "name": "view_y",
      "type": "int",
      "value": 0
    },
    {
      "name": "view_width",
      "type": "int",
      "value": 480
    },
    {
      "name": "view_height",
      "type": "int",
      "value": 270
    },
    {
      "name": "port_x",
      "type": "int",
      "value": 0
    },
    {
      "name": "port_y",
      "type": "int",
      "value": 0
    },
    {
      "name": "port_width",
      "type": "int",
      "value": 480
    },
    {
      "name": "port_height",
      "type": "int",
      "value": 270
    }
  ],
  "tilesets": [
    {
      "firstgid": 1,
      "source": "Tilesets/objects.tsj"
    },
    {
      "firstgid": 10000,
      "source": "Tilesets/sprites.tsj"
    }
  ],
  "layers": [
    {
      "type": "imagelayer",
      "id": 1,
      "name": "Background",
      "image": "../Textures/Zones/RavineMist/rm.png",
      "imagewidth": 336,
      "imageheight": 113,
      "repeatx": true,
      "repeaty": true,
      "offsetx": 0.0,
      "offsety": 0.0,
      "parallaxx": 0.7,
      "parallaxy": 0.6,
      "opacity": 1.0,
      "visible": true,
      "x": 0,
      "y": 0,
      "properties": [
        {
          "name": "depth",
          "type": "int",
          "value": 300
        }
      ]
    },
    {
      "type": "imagelayer",
      "id": 2,
      "name": "Background2",
      "image": "../Textures/Zones/RavineMist/rm2.png",
      "imagewidth": 520,
      "imageheight": 270,
      "repeatx": true,
      "repeaty": false,
      "offsetx": 0.0,
      "offsety": 0.0,
      "parallaxx": 0.9,
      "parallaxy": 0.0,
      "opacity": 1.0,
      "visible": true,
      "x": 0,
      "y": 0,
      "properties": [
        {
          "name": "depth",
          "type": "int",
          "value": 200
        },
        {
          "name": "hspeed",
          "type": "float",
          "value": -1.0
        }
      ]
    },
    {
      "type": "imagelayer",
      "id": 3,
      "name": "Background3",
      "image": "../Textures/Zones/RavineMist/rm3.png",
      "imagewidth": 336,
      "imageheight": 271,
      "repeatx": true,
      "repeaty": false,
      "offsetx": 0.0,
      "offsety": 0.0,
      "parallaxx": 0.6,
      "parallaxy": 0.0,
      "opacity": 1.0,
      "visible": true,
      "x": 0,
      "y": 0,
      "properties": [
        {
          "name": "depth",
          "type": "int",
          "value": 100
        }
      ]
    },
    {
      "type": "objectgroup",
      "id": 9,
      "name": "LevelArt ravinemist",
      "draworder": "index",
      "opacity": 1.0,
      "visible": true,
      "x": 0,
      "y": 0,
      "objects": [
        {
          "id": 185,
          "name": "",
          "type": "",
          "gid": 10744,
          "x": 0.0,
          "y": 0.0,
          "width": 1564.0,
          "height": 1247.0,
          "rotation": -0.0,
          "visible": true,
          "properties": [
            {
              "name": "animation_speed",
              "type": "float",
              "value": 0.0
            }
          ]
        },
        {
          "id": 186,
          "name": "",
          "type": "",
          "gid": 10744,
          "x": 1564.0,
          "y": 0.0,
          "width": 1564.0,
          "height": 1247.0,
          "rotation": -0.0,
          "visible": true,
          "properties": [
            {
              "name": "animation_speed",
              "type": "float",
              "value": 0.0
            },
            {
              "name": "frame",
              "type": "float",
              "value": 1.0
            }
          ]
        }
      ],
      "properties": [
        {
          "name": "depth",
          "type": "int",
          "value": 90
        },
        {
          "name": "asset_layer",
          "type": "bool",
          "value": true
        }
      ]
    },
    {
      "type": "objectgroup",
      "id": 10,
      "name": "LevelArt ravinemist2",
      "draworder": "index",
      "opacity": 1.0,
      "visible": true,
      "x": 0,
      "y": 0,
      "objects": [
        {
          "id": 187,
          "name": "",
          "type": "",
          "gid": 10745,
          "x": 0.0,
          "y": 1247.0,
          "width": 1564.0,
          "height": 1247.0,
          "rotation": -0.0,
          "visible": true,
          "properties": [
            {
              "name": "animation_speed",
              "type": "float",
              "value": 0.0
            }
          ]
        },
        {
          "id": 188,
          "name": "",
          "type": "",
          "gid": 10745,
          "x": 1564.0,
          "y": 1247.0,
          "width": 1564.0,
          "height": 1247.0,
          "rotation": -0.0,
          "visible": true,
          "properties": [
            {
              "name": "animation_speed",
              "type": "float",
              "value": 0.0
            },
            {
              "name": "frame",
              "type": "float",
              "value": 1.0
            }
          ]
        }
      ],
      "properties": [
        {
          "name": "depth",
          "type": "int",
          "value": 90
        },
        {
          "name": "asset_layer",
          "type": "bool",
          "value": true
        }
      ]
    },
    {
      "type": "objectgroup",
      "id": 4,
      "name": "Instances",
      "draworder": "index",
      "opacity": 1.0,
      "visible": true,
      "x": 0,
      "y": 0,
      "objects": [
        {
          "id": 1,
          "name": "",
          "type": "obj_parallax",
          "gid": 211,
          "x": 8.0,
          "y": 8.0,
          "width": 16.0,
          "height": 16.0,
          "rotation": -0.0,
          "visible": true
        },
        {
          "id": 2,
          "name": "",
          "type": "obj_solid_block",
          "gid": 255,
          "x": 0.0,
          "y": 0.0,
          "width": 816.0,
          "height": 288.0,
          "rotation": -0.0,
          "visible": true
        },
        {
          "id": 3,
          "name": "",
          "type": "obj_solid_block",
          "gid": 255,
          "x": 816.0,
          "y": 288.0,
          "width": 136.0,
          "height": 180.0,
          "rotation": -0.0,
          "visible": true
        },
        {
          "id": 4,
          "name": "",
          "type": "obj_solid_block",
          "gid": 255,
          "x": 0.0,
          "y": 288.0,
          "width": 816.0,
          "height": 128.0,
          "rotation": -0.0,
          "visible": true
        },
        {
          "id": 5,
          "name": "",
          "type": "obj_solid_block",
          "gid": 255,
          "x": 952.0,
          "y": 340.0,
          "width": 136.0,
          "height": 180.0,
          "rotation": -0.0,
          "visible": true
        },
        {
          "id": 6,
          "name": "",
          "type": "obj_solid_block",
          "gid": 255,
          "x": 1088.0,
          "y": 392.0,
          "width": 272.0,
          "height": 128.0,
          "rotation": -0.0,
          "visible": true
        },
        {
          "id": 7,
          "name": "",
          "type": "obj_solid_block",
          "gid": 255,
          "x": 812.0,
          "y": 416.0,
          "width": 4.0,
          "height": 52.0,
          "rotation": -0.0,
          "visible": true
        },
        {
          "id": 8,
          "name": "",
          "type": "obj_solid_block",
          "gid": 255,
          "x": 0.0,
          "y": 416.0,
          "width": 272.0,
          "height": 260.0,
          "rotation": -0.0,
          "visible": true
        },
        {
          "id": 9,
          "name": "",
          "type": "obj_solid_block",
          "gid": 255,
          "x": 272.0,
          "y": 600.0,
          "width": 136.0,
          "height": 76.0,
          "rotation": -0.0,
          "visible": true
        },
        {
          "id": 10,
          "name": "",
          "type": "obj_solid_block",
          "gid": 255,
          "x": 1088.0,
          "y": 0.0,
          "width": 272.0,
          "height": 208.0,
          "rotation": -0.0,
          "visible": true
        },
        {
          "id": 11,
          "name": "",
          "type": "obj_solid_block",
          "gid": 255,
          "x": 1360.0,
          "y": 0.0,
          "width": 952.000064,
          "height": 156.0,
          "rotation": -0.0,
          "visible": true
        },
        {
          "id": 12,
          "name": "",
          "type": "obj_solid_block",
          "gid": 255,
          "x": 2312.0,
          "y": 0.0,
          "width": 272.000064,
          "height": 208.0,
          "rotation": -0.0,
          "visible": true
        },
        {
          "id": 13,
          "name": "",
          "type": "obj_solid_block",
          "gid": 255,
          "x": 2448.0,
          "y": 208.0,
          "width": 136.000064,
          "height": 52.0,
          "rotation": -0.0,
          "visible": true
        },
        {
          "id": 14,
          "name": "",
          "type": "obj_solid_block",
          "gid": 255,
          "x": 2720.0,
          "y": 288.0,
          "width": 408.000064,
          "height": 128.0,
          "rotation": -0.0,
          "visible": true
        },
        {
          "id": 15,
          "name": "",
          "type": "obj_solid_block",
          "gid": 255,
          "x": 2584.0,
          "y": 340.0,
          "width": 136.000064,
          "height": 128.0,
          "rotation": -0.0,
          "visible": true
        },
        {
          "id": 16,
          "name": "",
          "type": "obj_solid_block",
          "gid": 255,
          "x": 1768.0,
          "y": 392.0,
          "width": 816.000064,
          "height": 76.0,
          "rotation": -0.0,
          "visible": true
        },
        {
          "id": 17,
          "name": "",
          "type": "obj_solid_block",
          "gid": 255,
          "x": 1496.0,
          "y": 444.0,
          "width": 272.000064,
          "height": 128.0,
          "rotation": -0.0,
          "visible": true
        },
        {
          "id": 18,
          "name": "",
          "type": "obj_solid_block",
          "gid": 255,
          "x": 1768.0,
          "y": 520.0,
          "width": 136.000064,
          "height": 52.0,
          "rotation": -0.0,
          "visible": true
        },
        {
          "id": 19,
          "name": "",
          "type": "obj_solid_block",
          "gid": 255,
          "x": 1496.0,
          "y": 572.0,
          "width": 136.000064,
          "height": 104.0,
          "rotation": -0.0,
          "visible": true
        },
        {
          "id": 20,
          "name": "",
          "type": "obj_solid_block",
          "gid": 255,
          "x": 1360.0,
          "y": 600.0,
          "width": 136.000064,
          "height": 76.0,
          "rotation": -0.0,
          "visible": true
        },
        {
          "id": 21,
          "name": "",
          "type": "obj_solid_block",
          "gid": 255,
          "x": 1088.0,
          "y": 652.0,
          "width": 136.000064,
          "height": 76.0,
          "rotation": -0.0,
          "visible": true
        },
        {
          "id": 22,
          "name": "",
          "type": "obj_solid_block",
          "gid": 255,
          "x": 816.0,
          "y": 652.0,
          "width": 272.000064,
          "height": 388.0,
          "rotation": -0.0,
          "visible": true
        },
        {
          "id": 23,
          "name": "",
          "type": "obj_solid_block",
          "gid": 255,
          "x": 680.0,
          "y": 704.0,
          "width": 136.000064,
          "height": 336.0000256,
          "rotation": -0.0,
          "visible": true
        },
        {
          "id": 24,
          "name": "",
          "type": "obj_solid_block",
          "gid": 255,
          "x": 544.0,
          "y": 756.0,
          "width": 136.000064,
          "height": 284.0000256,
          "rotation": -0.0,
          "visible": true
        },
        {
          "id": 25,
          "name": "",
          "type": "obj_solid_block",
          "gid": 255,
          "x": 272.0,
          "y": 808.0,
          "width": 272.000064,
          "height": 232.0000256,
          "rotation": -0.0,
          "visible": true
        },
        {
          "id": 26,
          "name": "",
          "type": "obj_solid_block",
          "gid": 255,
          "x": 1088.0,
          "y": 860.0,
          "width": 816.000064,
          "height": 180.0,
          "rotation": -0.0,
          "visible": true
        },
        {
          "id": 27,
          "name": "",
          "type": "obj_solid_block",
          "gid": 255,
          "x": 1496.0,
          "y": 808.0,
          "width": 408.0000896,
          "height": 52.00000384,
          "rotation": -0.0,
          "visible": true
        },
        {
          "id": 28,
          "name": "",
          "type": "obj_solid_block",
          "gid": 255,
          "x": 1904.0,
          "y": 860.0,
          "width": 136.0000896,
          "height": 700.0,
          "rotation": -0.0,
          "visible": true
        },
        {
          "id": 29,
          "name": "",
          "type": "obj_solid_block",
          "gid": 255,
          "x": 0.0,
          "y": 1120.0,
          "width": 136.0000896,
          "height": 127.99999232,
          "rotation": -0.0,
          "visible": true
        },
        {
          "id": 30,
          "name": "",
          "type": "obj_solid_block",
          "gid": 255,
          "x": 136.0,
          "y": 1172.0,
          "width": 272.0000896,
          "height": 75.99999232,
          "rotation": -0.0,
          "visible": true
        },
        {
          "id": 31,
          "name": "",
          "type": "obj_solid_block",
          "gid": 255,
          "x": 1360.0,
          "y": 1276.0,
          "width": 272.0000896,
          "height": 180.0,
          "rotation": -0.0,
          "visible": true
        },
        {
          "id": 32,
          "name": "",
          "type": "obj_solid_block",
          "gid": 255,
          "x": 1224.0,
          "y": 1224.0,
          "width": 136.0000896,
          "height": 180.0,
          "rotation": -0.0,
          "visible": true
        },
        {
          "id": 33,
          "name": "",
          "type": "obj_solid_block",
          "gid": 255,
          "x": 680.0001,
          "y": 1224.0,
          "width": 544.000128,
          "height": 128.0,
          "rotation": -0.0,
          "visible": true
        },
        {
          "id": 34,
          "name": "",
          "type": "obj_solid_block",
          "gid": 255,
          "x": 544.0,
          "y": 1276.0,
          "width": 272.000128,
          "height": 128.0,
          "rotation": -0.0,
          "visible": true
        },
        {
          "id": 35,
          "name": "",
          "type": "obj_solid_block",
          "gid": 255,
          "x": 272.0,
          "y": 1328.0,
          "width": 408.000128,
          "height": 128.0,
          "rotation": -0.0,
          "visible": true
        },
        {
          "id": 36,
          "name": "",
          "type": "obj_solid_block",
          "gid": 255,
          "x": 136.0,
          "y": 1640.0,
          "width": 408.000128,
          "height": 180.0,
          "rotation": -0.0,
          "visible": true
        },
        {
          "id": 37,
          "name": "",
          "type": "obj_solid_block",
          "gid": 255,
          "x": 544.0,
          "y": 1692.0,
          "width": 272.000128,
          "height": 128.0,
          "rotation": -0.0,
          "visible": true
        },
        {
          "id": 38,
          "name": "",
          "type": "obj_solid_block",
          "gid": 255,
          "x": 0.0,
          "y": 1952.0,
          "width": 408.000128,
          "height": 180.0,
          "rotation": -0.0,
          "visible": true
        },
        {
          "id": 39,
          "name": "",
          "type": "obj_solid_block",
          "gid": 255,
          "x": 272.0,
          "y": 2264.0,
          "width": 272.000128,
          "height": 232.0000128,
          "rotation": -0.0,
          "visible": true
        },
        {
          "id": 40,
          "name": "",
          "type": "obj_solid_block",
          "gid": 255,
          "x": 0.0,
          "y": 2132.0,
          "width": 272.000128,
          "height": 312.0,
          "rotation": -0.0,
          "visible": true
        },
        {
          "id": 41,
          "name": "",
          "type": "obj_solid_block",
          "gid": 255,
          "x": 544.0,
          "y": 1952.0,
          "width": 272.000128,
          "height": 128.0,
          "rotation": -0.0,
          "visible": true
        },
        {
          "id": 42,
          "name": "",
          "type": "obj_solid_block",
          "gid": 255,
          "x": 680.0,
          "y": 2004.0,
          "width": 408.000128,
          "height": 128.0,
          "rotation": -0.0,
          "visible": true
        },
        {
          "id": 43,
          "name": "",
          "type": "obj_solid_block",
          "gid": 255,
          "x": 1088.0,
          "y": 1952.0,
          "width": 408.000128,
          "height": 180.0,
          "rotation": -0.0,
          "visible": true
        },
        {
          "id": 44,
          "name": "",
          "type": "obj_solid_block",
          "gid": 255,
          "x": 1360.0,
          "y": 1744.0,
          "width": 272.000128,
          "height": 208.0000128,
          "rotation": -0.0,
          "visible": true
        },
        {
          "id": 45,
          "name": "",
          "type": "obj_solid_block",
          "gid": 255,
          "x": 1088.0,
          "y": 1692.0,
          "width": 272.000128,
          "height": 128.0,
          "rotation": -0.0,
          "visible": true
        },
        {
          "id": 46,
          "name": "",
          "type": "obj_solid_block",
          "gid": 255,
          "x": 1224.0,
          "y": 1820.0,
          "width": 136.000128,
          "height": 52.0,
          "rotation": -0.0,
          "visible": true
        },
        {
          "id": 47,
          "name": "",
          "type": "obj_solid_block",
          "gid": 255,
          "x": 1632.0,
          "y": 1796.0,
          "width": 272.000128,
          "height": 232.0000128,
          "rotation": -0.0,
          "visible": true
        },
        {
          "id": 48,
          "name": "",
          "type": "obj_solid_block",
          "gid": 255,
          "x": 1496.0,
          "y": 1952.0,
          "width": 136.000128,
          "height": 180.0000128,
          "rotation": -0.0,
          "visible": true
        },
        {
          "id": 49,
          "name": "",
          "type": "obj_solid_block",
          "gid": 255,
          "x": 680.0,
          "y": 2264.0,
          "width": 952.0001792,
          "height": 232.0000128,
          "rotation": -0.0,
          "visible": true
        },
        {
          "id": 50,
          "name": "",
          "type": "obj_solid_block",
          "gid": 255,
          "x": 1768.0,
          "y": 2368.0,
          "width": 272.0001792,
          "height": 126.0000128,
          "rotation": -0.0,
          "visible": true
        },
        {
          "id": 51,
          "name": "",
          "type": "obj_solid_block",
          "gid": 255,
          "x": 2040.0,
          "y": 2316.0,
          "width": 408.0001792,
          "height": 178.0000128,
          "rotation": -0.0,
          "visible": true
        },
        {
          "id": 52,
          "name": "",
          "type": "obj_solid_block",
          "gid": 255,
          "x": 2448.0,
          "y": 2264.0,
          "width": 544.0001792,
          "height": 230.0,
          "rotation": -0.0,
          "visible": true
        },
        {
          "id": 53,
          "name": "",
          "type": "obj_solid_block",
          "gid": 255,
          "x": 2992.0005,
          "y": 416.0,
          "width": 136.000064,
          "height": 951.999872,
          "rotation": -0.0,
          "visible": true
        },
        {
          "id": 54,
          "name": "",
          "type": "obj_solid_block",
          "gid": 255,
          "x": 2720.0,
          "y": 600.0,
          "width": 272.000064,
          "height": 127.9998848,
          "rotation": -0.0,
          "visible": true
        },
        {
          "id": 55,
          "name": "",
          "type": "obj_solid_block",
          "gid": 255,
          "x": 2312.0,
          "y": 520.0,
          "width": 136.000064,
          "height": 415.999872,
          "rotation": -0.0,
          "visible": true
        },
        {
          "id": 56,
          "name": "",
          "type": "obj_solid_block",
          "gid": 255,
          "x": 2448.0,
          "y": 808.0,
          "width": 136.000064,
          "height": 179.999872,
          "rotation": -0.0,
          "visible": true
        },
        {
          "id": 57,
          "name": "",
          "type": "obj_solid_block",
          "gid": 255,
          "x": 2584.0,
          "y": 860.0,
          "width": 136.000064,
          "height": 179.999872,
          "rotation": -0.0,
          "visible": true
        },
        {
          "id": 58,
          "name": "",
          "type": "obj_solid_block",
          "gid": 255,
          "x": 2720.0,
          "y": 912.0,
          "width": 136.000064,
          "height": 179.999872,
          "rotation": -0.0,
          "visible": true
        },
        {
          "id": 59,
          "name": "",
          "type": "obj_solid_block",
          "gid": 255,
          "x": 2040.0,
          "y": 1172.0,
          "width": 408.000064,
          "height": 179.999872,
          "rotation": -0.0,
          "visible": true
        },
        {
          "id": 60,
          "name": "",
          "type": "obj_solid_block",
          "gid": 255,
          "x": 2448.0,
          "y": 1224.0,
          "width": 408.000064,
          "height": 127.999872,
          "rotation": -0.0,
          "visible": true
        },
        {
          "id": 61,
          "name": "",
          "type": "obj_solid_block",
          "gid": 255,
          "x": 1992.0,
          "y": 1352.0669,
          "width": 184.000064,
          "height": 571.999872,
          "rotation": -0.0,
          "visible": true
        },
        {
          "id": 62,
          "name": "",
          "type": "obj_solid_block",
          "gid": 255,
          "x": 2040.0,
          "y": 1924.0,
          "width": 136.000064,
          "height": 207.999872,
          "rotation": -0.0,
          "visible": true
        },
        {
          "id": 63,
          "name": "",
          "type": "obj_solid_block",
          "gid": 255,
          "x": 2176.0,
          "y": 1952.0,
          "width": 136.000064,
          "height": 179.999872,
          "rotation": -0.0,
          "visible": true
        },
        {
          "id": 64,
          "name": "",
          "type": "obj_platform_jumptrough",
          "gid": 221,
          "x": 2312.0,
          "y": 1992.0,
          "width": 136.0,
          "height": 16.0,
          "rotation": -0.0,
          "visible": true
        },
        {
          "id": 65,
          "name": "",
          "type": "obj_solid_block",
          "gid": 255,
          "x": 2448.0,
          "y": 1952.0,
          "width": 544.000064,
          "height": 179.999872,
          "rotation": -0.0,
          "visible": true
        },
        {
          "id": 66,
          "name": "",
          "type": "obj_solid_block",
          "gid": 255,
          "x": 2312.0,
          "y": 1760.0,
          "width": 408.000064,
          "height": 91.9998784,
          "rotation": -0.0,
          "visible": true
        },
        {
          "id": 67,
          "name": "",
          "type": "obj_solid_block",
          "gid": 255,
          "x": 2448.0,
          "y": 1536.0,
          "width": 136.000064,
          "height": 127.9998784,
          "rotation": -0.0,
          "visible": true
        },
        {
          "id": 68,
          "name": "",
          "type": "obj_solid_block",
          "gid": 255,
          "x": 2584.0,
          "y": 1484.0,
          "width": 272.000064,
          "height": 127.9998784,
          "rotation": -0.0,
          "visible": true
        },
        {
          "id": 69,
          "name": "",
          "type": "obj_solid_block",
          "gid": 255,
          "x": 2856.0,
          "y": 1432.0018,
          "width": 136.000064,
          "height": 519.999872,
          "rotation": -0.0,
          "visible": true
        },
        {
          "id": 70,
          "name": "",
          "type": "obj_platform_jumptrough",
          "gid": 221,
          "x": 2176.0,
          "y": 1708.0,
          "width": 44.0,
          "height": 16.0,
          "rotation": -0.0,
          "visible": true
        },
        {
          "id": 71,
          "name": "",
          "type": "obj_platform_jumptrough",
          "gid": 221,
          "x": 0.0,
          "y": 1560.0,
          "width": 76.0,
          "height": 16.0,
          "rotation": -0.0,
          "visible": true
        },
        {
          "id": 72,
          "name": "",
          "type": "obj_platform_jumptrough",
          "gid": 221,
          "x": 1456.0,
          "y": 520.0,
          "width": 40.0,
          "height": 16.0,
          "rotation": -0.0,
          "visible": true
        },
        {
          "id": 73,
          "name": "",
          "type": "obj_platform_jumptrough",
          "gid": 221,
          "x": 2952.0,
          "y": 1152.0,
          "width": 40.0,
          "height": 16.0,
          "rotation": -0.0,
          "visible": true
        },
        {
          "id": 74,
          "name": "",
          "type": "obj_platform_jumptrough",
          "gid": 221,
          "x": 2952.0,
          "y": 1272.0,
          "width": 40.0,
          "height": 16.0,
          "rotation": -0.0,
          "visible": true
        },
        {
          "id": 75,
          "name": "",
          "type": "obj_platform_jumptrough",
          "gid": 221,
          "x": 2952.0,
          "y": 1352.0,
          "width": 40.0,
          "height": 16.0,
          "rotation": -0.0,
          "visible": true
        },
        {
          "id": 76,
          "name": "",
          "type": "obj_platform_jumptrough",
          "gid": 221,
          "x": 2448.0,
          "y": 728.0,
          "width": 40.0,
          "height": 16.0,
          "rotation": -0.0,
          "visible": true
        },
        {
          "id": 77,
          "name": "",
          "type": "obj_platform_jumptrough",
          "gid": 221,
          "x": 2448.0,
          "y": 648.0,
          "width": 44.0,
          "height": 16.0,
          "rotation": -0.0,
          "visible": true
        },
        {
          "id": 78,
          "name": "",
          "type": "obj_bspring_right",
          "gid": 33,
          "x": 2448.0,
          "y": 604.0,
          "width": 44.0,
          "height": 44.0,
          "rotation": -0.0,
          "visible": true
        },
        {
          "id": 79,
          "name": "",
          "type": "obj_spring_up",
          "gid": 265,
          "x": 2960.0,
          "y": 1120.0,
          "width": 32.0,
          "height": 32.0,
          "rotation": -0.0,
          "visible": true
        },
        {
          "id": 80,
          "name": "",
          "type": "obj_spring_up",
          "gid": 265,
          "x": 2040.0,
          "y": 1140.0,
          "width": 32.0,
          "height": 32.0,
          "rotation": -0.0,
          "visible": true
        },
        {
          "id": 81,
          "name": "",
          "type": "obj_yspring_up",
          "gid": 299,
          "x": 1280.0,
          "y": 828.0,
          "width": 32.0,
          "height": 32.0,
          "rotation": -0.0,
          "visible": true
        },
        {
          "id": 82,
          "name": "",
          "type": "obj_spring_right",
          "gid": 264,
          "x": 0.0,
          "y": 1076.0,
          "width": 44.0,
          "height": 44.0,
          "rotation": -0.0,
          "visible": true
        },
        {
          "id": 83,
          "name": "",
          "type": "obj_spring_right",
          "gid": 264,
          "x": 0.0,
          "y": 1516.0,
          "width": 44.0,
          "height": 44.0,
          "rotation": -0.0,
          "visible": true
        },
        {
          "id": 84,
          "name": "",
          "type": "obj_spring_up",
          "gid": 265,
          "x": 52.0,
          "y": 1920.0,
          "width": 32.0,
          "height": 32.0,
          "rotation": -0.0,
          "visible": true
        },
        {
          "id": 85,
          "name": "",
          "type": "obj_spring_up",
          "gid": 265,
          "x": 2008.0,
          "y": 2336.0,
          "width": 32.0,
          "height": 32.0,
          "rotation": -0.0,
          "visible": true
        },
        {
          "id": 86,
          "name": "",
          "type": "obj_spring_left",
          "gid": 262,
          "x": 1996.0,
          "y": 2000.0,
          "width": 44.0,
          "height": 44.0,
          "rotation": -0.0,
          "visible": true
        },
        {
          "id": 87,
          "name": "",
          "type": "obj_spring_up",
          "gid": 265,
          "x": 2376.0,
          "y": 2284.0,
          "width": 32.0,
          "height": 32.0,
          "rotation": -0.0,
          "visible": true
        },
        {
          "id": 88,
          "name": "",
          "type": "obj_abyss",
          "gid": 4,
          "x": 2992.0,
          "y": 2492.0,
          "width": 136.0,
          "height": 132.0,
          "rotation": -0.0,
          "visible": true
        },
        {
          "id": 89,
          "name": "",
          "type": "obj_abyss_target",
          "gid": 5,
          "x": 2911.0,
          "y": 2232.0,
          "width": 32.0,
          "height": 32.0,
          "rotation": -0.0,
          "visible": true
        },
        {
          "id": 90,
          "name": "",
          "type": "obj_abyss",
          "gid": 4,
          "x": 1632.0,
          "y": 2492.0,
          "width": 136.0,
          "height": 152.0,
          "rotation": -0.0,
          "visible": true
        },
        {
          "id": 91,
          "name": "",
          "type": "obj_abyss_target",
          "gid": 5,
          "x": 1807.0,
          "y": 2336.0,
          "width": 32.0,
          "height": 32.0,
          "rotation": -0.0,
          "visible": true
        },
        {
          "id": 92,
          "name": "",
          "type": "obj_abyss_target",
          "gid": 5,
          "x": 1567.0,
          "y": 2232.0,
          "width": 32.0,
          "height": 32.0,
          "rotation": -0.0,
          "visible": true
        },
        {
          "id": 93,
          "name": "",
          "type": "obj_abyss",
          "gid": 4,
          "x": 544.0,
          "y": 2496.0,
          "width": 136.0,
          "height": 144.0,
          "rotation": -0.0,
          "visible": true
        },
        {
          "id": 94,
          "name": "",
          "type": "obj_abyss_target",
          "gid": 5,
          "x": 711.0,
          "y": 2232.0,
          "width": 32.0,
          "height": 32.0,
          "rotation": -0.0,
          "visible": true
        },
        {
          "id": 95,
          "name": "",
          "type": "obj_abyss_target",
          "gid": 5,
          "x": 483.0,
          "y": 2232.0,
          "width": 32.0,
          "height": 32.0,
          "rotation": -0.0,
          "visible": true
        },
        {
          "id": 96,
          "name": "",
          "type": "obj_ravinemist_bush",
          "gid": 237,
          "x": 836.0,
          "y": 2240.0,
          "width": 34.0,
          "height": 25.0,
          "rotation": -0.0,
          "visible": true
        },
        {
          "id": 97,
          "name": "",
          "type": "obj_ravinemist_bush",
          "gid": 237,
          "x": 1140.0,
          "y": 2240.0,
          "width": 34.0,
          "height": 25.0,
          "rotation": -0.0,
          "visible": true
        },
        {
          "id": 98,
          "name": "",
          "type": "obj_ravinemist_bush",
          "gid": 237,
          "x": 1392.0,
          "y": 2240.0,
          "width": 34.0,
          "height": 25.0,
          "rotation": -0.0,
          "visible": true
        },
        {
          "id": 99,
          "name": "",
          "type": "obj_ravinemist_bush",
          "gid": 237,
          "x": 1524.0,
          "y": 2240.0,
          "width": 34.0,
          "height": 25.0,
          "rotation": -0.0,
          "visible": true
        },
        {
          "id": 100,
          "name": "",
          "type": "obj_ravinemist_bush_animated",
          "gid": 238,
          "x": 160.0,
          "y": 1928.0,
          "width": 39.0,
          "height": 25.0,
          "rotation": -0.0,
          "visible": true
        },
        {
          "id": 101,
          "name": "",
          "type": "obj_ravinemist_bush_animated",
          "gid": 238,
          "x": 716.0,
          "y": 1928.0,
          "width": 39.0,
          "height": 25.0,
          "rotation": -0.0,
          "visible": true
        },
        {
          "id": 102,
          "name": "",
          "type": "obj_ravinemist_bush_animated",
          "gid": 238,
          "x": 1120.0,
          "y": 1928.0,
          "width": 39.0,
          "height": 25.0,
          "rotation": -0.0,
          "visible": true
        },
        {
          "id": 103,
          "name": "",
          "type": "obj_ravinemist_bush_animated",
          "gid": 238,
          "x": 1424.0,
          "y": 1719.0,
          "width": 39.0,
          "height": 25.0,
          "rotation": -0.0,
          "visible": true
        },
        {
          "id": 104,
          "name": "",
          "type": "obj_ravinemist_bush",
          "gid": 237,
          "x": 640.0,
          "y": 1668.0,
          "width": 34.0,
          "height": 25.0,
          "rotation": -0.0,
          "visible": true
        },
        {
          "id": 105,
          "name": "",
          "type": "obj_ravinemist_bush",
          "gid": 237,
          "x": 208.0,
          "y": 1615.0,
          "width": 34.0,
          "height": 25.0,
          "rotation": -0.0,
          "visible": true
        },
        {
          "id": 106,
          "name": "",
          "type": "obj_ravinemist_bush",
          "gid": 237,
          "x": 332.0,
          "y": 1304.0,
          "width": 34.0,
          "height": 25.0,
          "rotation": -0.0,
          "visible": true
        },
        {
          "id": 107,
          "name": "",
          "type": "obj_ravinemist_bush",
          "gid": 237,
          "x": 792.0,
          "y": 1200.0,
          "width": 34.0,
          "height": 25.0,
          "rotation": -0.0,
          "visible": true
        },
        {
          "id": 108,
          "name": "",
          "type": "obj_ravinemist_bush",
          "gid": 237,
          "x": 940.0,
          "y": 1200.0,
          "width": 34.0,
          "height": 25.0,
          "rotation": -0.0,
          "visible": true
        },
        {
          "id": 109,
          "name": "",
          "type": "obj_ravinemist_bush",
          "gid": 237,
          "x": 1200.0,
          "y": 1200.0,
          "width": 34.0,
          "height": 25.0,
          "rotation": -0.0,
          "visible": true
        },
        {
          "id": 110,
          "name": "",
          "type": "obj_ravinemist_bush_animated",
          "gid": 238,
          "x": 2200.0,
          "y": 2292.0,
          "width": 39.0,
          "height": 25.0,
          "rotation": -0.0,
          "visible": true
        },
        {
          "id": 111,
          "name": "",
          "type": "obj_ravinemist_bush_animated",
          "gid": 238,
          "x": 2620.0,
          "y": 2240.0,
          "width": 39.0,
          "height": 25.0,
          "rotation": -0.0,
          "visible": true
        },
        {
          "id": 112,
          "name": "",
          "type": "obj_ravinemist_bush_animated",
          "gid": 238,
          "x": 2760.0,
          "y": 2240.0,
          "width": 39.0,
          "height": 25.0,
          "rotation": -0.0,
          "visible": true
        },
        {
          "id": 113,
          "name": "",
          "type": "obj_ravinemist_bush_animated",
          "gid": 238,
          "x": 2836.0,
          "y": 2240.0,
          "width": 39.0,
          "height": 25.0,
          "rotation": -0.0,
          "visible": true
        },
        {
          "id": 114,
          "name": "",
          "type": "obj_ravinemist_bush",
          "gid": 237,
          "x": 2480.0,
          "y": 1928.0,
          "width": 34.0,
          "height": 25.0,
          "rotation": -0.0,
          "visible": true
        },
        {
          "id": 115,
          "name": "",
          "type": "obj_ravinemist_bush",
          "gid": 237,
          "x": 2752.0,
          "y": 1928.0,
          "width": 34.0,
          "height": 25.0,
          "rotation": -0.0,
          "visible": true
        },
        {
          "id": 116,
          "name": "",
          "type": "obj_ravinemist_bush",
          "gid": 237,
          "x": 2444.0,
          "y": 1736.0,
          "width": 34.0,
          "height": 25.0,
          "rotation": -0.0,
          "visible": true
        },
        {
          "id": 117,
          "name": "",
          "type": "obj_ravinemist_bush",
          "gid": 237,
          "x": 1572.0,
          "y": 784.0,
          "width": 34.0,
          "height": 25.0,
          "rotation": -0.0,
          "visible": true
        },
        {
          "id": 118,
          "name": "",
          "type": "obj_ravinemist_bush",
          "gid": 237,
          "x": 1388.0,
          "y": 836.0,
          "width": 34.0,
          "height": 25.0,
          "rotation": -0.0,
          "visible": true
        },
        {
          "id": 119,
          "name": "",
          "type": "obj_ravinemist_bush",
          "gid": 237,
          "x": 928.0,
          "y": 628.0,
          "width": 34.0,
          "height": 25.0,
          "rotation": -0.0,
          "visible": true
        },
        {
          "id": 120,
          "name": "",
          "type": "obj_ravinemist_bush",
          "gid": 237,
          "x": 612.0,
          "y": 732.0,
          "width": 34.0,
          "height": 25.0,
          "rotation": -0.0,
          "visible": true
        },
        {
          "id": 121,
          "name": "",
          "type": "obj_ravinemist_bush",
          "gid": 237,
          "x": 2740.0,
          "y": 1460.0,
          "width": 34.0,
          "height": 25.0,
          "rotation": -0.0,
          "visible": true
        },
        {
          "id": 122,
          "name": "",
          "type": "obj_ravinemist_bush_animated",
          "gid": 238,
          "x": 2840.0,
          "y": 576.0,
          "width": 39.0,
          "height": 25.0,
          "rotation": -0.0,
          "visible": true
        },
        {
          "id": 123,
          "name": "",
          "type": "obj_ravinemist_bush_animated",
          "gid": 238,
          "x": 2608.0,
          "y": 836.0,
          "width": 39.0,
          "height": 25.0,
          "rotation": -0.0,
          "visible": true
        },
        {
          "id": 124,
          "name": "",
          "type": "obj_ravinemist_bush_animated",
          "gid": 238,
          "x": 2532.0,
          "y": 368.0,
          "width": 39.0,
          "height": 25.0,
          "rotation": -0.0,
          "visible": true
        },
        {
          "id": 125,
          "name": "",
          "type": "obj_ravinemist_bush",
          "gid": 237,
          "x": 2728.0,
          "y": 264.0,
          "width": 34.0,
          "height": 25.0,
          "rotation": -0.0,
          "visible": true
        },
        {
          "id": 126,
          "name": "",
          "type": "obj_ravinemist_bush_animated",
          "gid": 238,
          "x": 2120.0,
          "y": 368.0,
          "width": 39.0,
          "height": 25.0,
          "rotation": -0.0,
          "visible": true
        },
        {
          "id": 127,
          "name": "",
          "type": "obj_ring_spawner",
          "gid": 249,
          "x": 1548.0,
          "y": 1244.0,
          "width": 16.0,
          "height": 16.0,
          "rotation": -0.0,
          "visible": true
        },
        {
          "id": 128,
          "name": "",
          "type": "obj_ring_spawner",
          "gid": 249,
          "x": 1484.0,
          "y": 1244.0,
          "width": 16.0,
          "height": 16.0,
          "rotation": -0.0,
          "visible": true
        },
        {
          "id": 129,
          "name": "",
          "type": "obj_ring_spawner",
          "gid": 249,
          "x": 468.0,
          "y": 1292.0,
          "width": 16.0,
          "height": 16.0,
          "rotation": -0.0,
          "visible": true
        },
        {
          "id": 130,
          "name": "",
          "type": "obj_ring_spawner",
          "gid": 249,
          "x": 504.0,
          "y": 1292.0,
          "width": 16.0,
          "height": 16.0,
          "rotation": -0.0,
          "visible": true
        },
        {
          "id": 131,
          "name": "",
          "type": "obj_ringspawn",
          "gid": 251,
          "x": 2903.0,
          "y": 496.0,
          "width": 32.0,
          "height": 32.0,
          "rotation": -0.0,
          "visible": true
        },
        {
          "id": 132,
          "name": "",
          "type": "obj_ring_spawner",
          "gid": 249,
          "x": 380.0,
          "y": 784.0,
          "width": 16.0,
          "height": 16.0,
          "rotation": -0.0,
          "visible": true
        },
        {
          "id": 133,
          "name": "",
          "type": "obj_ring_spawner",
          "gid": 249,
          "x": 408.0,
          "y": 784.0,
          "width": 16.0,
          "height": 16.0,
          "rotation": -0.0,
          "visible": true
        },
        {
          "id": 134,
          "name": "",
          "type": "obj_ring_spawner",
          "gid": 249,
          "x": 984.0,
          "y": 620.0,
          "width": 16.0,
          "height": 16.0,
          "rotation": -0.0,
          "visible": true
        },
        {
          "id": 135,
          "name": "",
          "type": "obj_ring_spawner",
          "gid": 249,
          "x": 1064.0,
          "y": 620.0,
          "width": 16.0,
          "height": 16.0,
          "rotation": -0.0,
          "visible": true
        },
        {
          "id": 136,
          "name": "",
          "type": "obj_ring_spawner",
          "gid": 249,
          "x": 1460.0,
          "y": 828.0,
          "width": 16.0,
          "height": 16.0,
          "rotation": -0.0,
          "visible": true
        },
        {
          "id": 137,
          "name": "",
          "type": "obj_ring_spawner",
          "gid": 249,
          "x": 1148.0,
          "y": 364.0,
          "width": 16.0,
          "height": 16.0,
          "rotation": -0.0,
          "visible": true
        },
        {
          "id": 138,
          "name": "",
          "type": "obj_ring_spawner",
          "gid": 249,
          "x": 1276.0,
          "y": 360.0,
          "width": 16.0,
          "height": 16.0,
          "rotation": -0.0,
          "visible": true
        },
        {
          "id": 139,
          "name": "",
          "type": "obj_ring_spawner",
          "gid": 249,
          "x": 2952.0,
          "y": 260.0,
          "width": 16.0,
          "height": 16.0,
          "rotation": -0.0,
          "visible": true
        },
        {
          "id": 140,
          "name": "",
          "type": "obj_ring_spawner",
          "gid": 249,
          "x": 2980.0,
          "y": 260.0,
          "width": 16.0,
          "height": 16.0,
          "rotation": -0.0,
          "visible": true
        },
        {
          "id": 141,
          "name": "",
          "type": "obj_ring_spawner",
          "gid": 249,
          "x": 3008.0,
          "y": 260.0,
          "width": 16.0,
          "height": 16.0,
          "rotation": -0.0,
          "visible": true
        },
        {
          "id": 142,
          "name": "",
          "type": "obj_ring_spawner",
          "gid": 249,
          "x": 2968.0,
          "y": 508.0,
          "width": 16.0,
          "height": 16.0,
          "rotation": -0.0,
          "visible": true
        },
        {
          "id": 143,
          "name": "",
          "type": "obj_ring_spawner",
          "gid": 249,
          "x": 2968.0,
          "y": 540.0,
          "width": 16.0,
          "height": 16.0,
          "rotation": -0.0,
          "visible": true
        },
        {
          "id": 144,
          "name": "",
          "type": "obj_ring_spawner",
          "gid": 249,
          "x": 2968.0,
          "y": 572.0,
          "width": 16.0,
          "height": 16.0,
          "rotation": -0.0,
          "visible": true
        },
        {
          "id": 145,
          "name": "",
          "type": "obj_ring_spawner",
          "gid": 249,
          "x": 2460.0,
          "y": 780.0,
          "width": 16.0,
          "height": 16.0,
          "rotation": -0.0,
          "visible": true
        },
        {
          "id": 146,
          "name": "",
          "type": "obj_ring_spawner",
          "gid": 249,
          "x": 2964.0,
          "y": 1404.0,
          "width": 16.0,
          "height": 16.0,
          "rotation": -0.0,
          "visible": true
        },
        {
          "id": 147,
          "name": "",
          "type": "obj_ring_spawner",
          "gid": 249,
          "x": 2508.0,
          "y": 1504.0,
          "width": 16.0,
          "height": 16.0,
          "rotation": -0.0,
          "visible": true
        },
        {
          "id": 148,
          "name": "",
          "type": "obj_ring_spawner",
          "gid": 249,
          "x": 2512.0,
          "y": 1732.0,
          "width": 16.0,
          "height": 16.0,
          "rotation": -0.0,
          "visible": true
        },
        {
          "id": 149,
          "name": "",
          "type": "obj_ring_spawner",
          "gid": 249,
          "x": 2200.0,
          "y": 1912.0,
          "width": 16.0,
          "height": 16.0,
          "rotation": -0.0,
          "visible": true
        },
        {
          "id": 150,
          "name": "",
          "type": "obj_ring_spawner",
          "gid": 249,
          "x": 2272.0,
          "y": 1912.0,
          "width": 16.0,
          "height": 16.0,
          "rotation": -0.0,
          "visible": true
        },
        {
          "id": 151,
          "name": "",
          "type": "obj_yspring_up",
          "gid": 299,
          "x": 2824.0,
          "y": 1920.0,
          "width": 32.0,
          "height": 32.0,
          "rotation": -0.0,
          "visible": true
        },
        {
          "id": 152,
          "name": "",
          "type": "obj_ring_spawner",
          "gid": 249,
          "x": 1232.0,
          "y": 1924.0,
          "width": 16.0,
          "height": 16.0,
          "rotation": -0.0,
          "visible": true
        },
        {
          "id": 153,
          "name": "",
          "type": "obj_ring_spawner",
          "gid": 249,
          "x": 1260.0,
          "y": 1924.0,
          "width": 16.0,
          "height": 16.0,
          "rotation": -0.0,
          "visible": true
        },
        {
          "id": 154,
          "name": "",
          "type": "obj_ring_spawner",
          "gid": 249,
          "x": 332.0,
          "y": 2236.0,
          "width": 16.0,
          "height": 16.0,
          "rotation": -0.0,
          "visible": true
        },
        {
          "id": 155,
          "name": "",
          "type": "obj_ring_spawner",
          "gid": 249,
          "x": 360.0,
          "y": 2236.0,
          "width": 16.0,
          "height": 16.0,
          "rotation": -0.0,
          "visible": true
        },
        {
          "id": 156,
          "name": "",
          "type": "obj_ravinemist_controller",
          "gid": 239,
          "x": 8.0,
          "y": 8.0,
          "width": 16.0,
          "height": 16.0,
          "rotation": -0.0,
          "visible": true
        },
        {
          "id": 157,
          "name": "",
          "type": "obj_spawnpoint",
          "gid": 259,
          "x": 712.0,
          "y": 1660.0,
          "width": 32.0,
          "height": 32.0,
          "rotation": -0.0,
          "visible": true
        },
        {
          "id": 158,
          "name": "",
          "type": "obj_spawnpoint",
          "gid": 259,
          "x": 1807.0,
          "y": 776.0,
          "width": 32.0,
          "height": 32.0,
          "rotation": -0.0,
          "visible": true
        },
        {
          "id": 159,
          "name": "",
          "type": "obj_spawnpoint",
          "gid": 259,
          "x": 2271.0,
          "y": 2284.0,
          "width": 32.0,
          "height": 32.0,
          "rotation": -0.0,
          "visible": true
        },
        {
          "id": 160,
          "name": "",
          "type": "obj_exespawn",
          "gid": 85,
          "x": 2535.0,
          "y": 1728.0,
          "width": 32.0,
          "height": 32.0,
          "rotation": -0.0,
          "visible": true
        },
        {
          "id": 161,
          "name": "",
          "type": "obj_exespawn",
          "gid": 85,
          "x": 451.0,
          "y": 776.0,
          "width": 32.0,
          "height": 32.0,
          "rotation": -0.0,
          "visible": true
        },
        {
          "id": 162,
          "name": "",
          "type": "obj_exespawn",
          "gid": 85,
          "x": 987.0,
          "y": 308.0,
          "width": 32.0,
          "height": 32.0,
          "rotation": -0.0,
          "visible": true
        },
        {
          "id": 163,
          "name": "",
          "type": "obj_spawnpoint",
          "gid": 259,
          "x": 2383.0,
          "y": 360.0,
          "width": 32.0,
          "height": 32.0,
          "rotation": -0.0,
          "visible": true
        },
        {
          "id": 164,
          "name": "",
          "type": "obj_spawnpoint",
          "gid": 259,
          "x": 2847.0,
          "y": 256.0,
          "width": 32.0,
          "height": 32.0,
          "rotation": -0.0,
          "visible": true
        },
        {
          "id": 165,
          "name": "",
          "type": "obj_exespawn",
          "gid": 85,
          "x": 2799.0,
          "y": 564.0,
          "width": 32.0,
          "height": 32.0,
          "rotation": -0.0,
          "visible": true
        },
        {
          "id": 166,
          "name": "",
          "type": "obj_exespawn",
          "gid": 85,
          "x": 991.0,
          "y": 1972.0,
          "width": 32.0,
          "height": 32.0,
          "rotation": -0.0,
          "visible": true
        },
        {
          "id": 167,
          "name": "",
          "type": "obj_spawnpoint",
          "gid": 259,
          "x": 975.0,
          "y": 2232.0,
          "width": 32.0,
          "height": 32.0,
          "rotation": -0.0,
          "visible": true
        },
        {
          "id": 168,
          "name": "",
          "type": "obj_exespawn",
          "gid": 85,
          "x": 1051.0,
          "y": 1192.0,
          "width": 32.0,
          "height": 32.0,
          "rotation": -0.0,
          "visible": true
        },
        {
          "id": 169,
          "name": "",
          "type": "obj_solid_block",
          "gid": 255,
          "x": 1768.0,
          "y": 468.0,
          "width": 680.000064,
          "height": 52.0,
          "rotation": -0.0,
          "visible": true
        },
        {
          "id": 170,
          "name": "",
          "type": "obj_ringspawn",
          "gid": 251,
          "x": 1135.0,
          "y": 1872.0,
          "width": 32.0,
          "height": 32.0,
          "rotation": -0.0,
          "visible": true
        },
        {
          "id": 171,
          "name": "",
          "type": "obj_ringspawn",
          "gid": 251,
          "x": 1703.0,
          "y": 728.0,
          "width": 32.0,
          "height": 32.0,
          "rotation": -0.0,
          "visible": true
        },
        {
          "id": 172,
          "name": "",
          "type": "obj_ringspawn",
          "gid": 251,
          "x": 863.0,
          "y": 192.0,
          "width": 32.0,
          "height": 32.0,
          "rotation": -0.0,
          "visible": true
        },
        {
          "id": 173,
          "name": "",
          "type": "obj_solid_block",
          "gid": 255,
          "x": 792.0,
          "y": -16.0,
          "width": 2351.999744,
          "height": 16.0,
          "rotation": -0.0,
          "visible": true
        },
        {
          "id": 174,
          "name": "",
          "type": "obj_warning",
          "gid": 280,
          "x": 636.0,
          "y": 2221.0,
          "width": 41.0,
          "height": 38.0,
          "rotation": -0.0,
          "visible": true
        },
        {
          "id": 175,
          "name": "",
          "type": "obj_warning",
          "gid": 280,
          "x": 548.0,
          "y": 2221.0,
          "width": 41.0,
          "height": 38.0,
          "rotation": -0.0,
          "visible": true
        },
        {
          "id": 176,
          "name": "",
          "type": "obj_warning",
          "gid": 280,
          "x": 1724.0,
          "y": 2325.0,
          "width": 41.0,
          "height": 38.0,
          "rotation": -0.0,
          "visible": true
        },
        {
          "id": 177,
          "name": "",
          "type": "obj_warning",
          "gid": 280,
          "x": 1636.0,
          "y": 2225.0,
          "width": 41.0,
          "height": 38.0,
          "rotation": -0.0,
          "visible": true
        },
        {
          "id": 178,
          "name": "",
          "type": "obj_warning",
          "gid": 280,
          "x": 2996.0,
          "y": 2221.0,
          "width": 41.0,
          "height": 38.0,
          "rotation": -0.0,
          "visible": true
        },
        {
          "id": 179,
          "name": "",
          "type": "obj_warning",
          "gid": 280,
          "x": 2996.0,
          "y": 1389.0,
          "width": 41.0,
          "height": 38.0,
          "rotation": -0.0,
          "visible": true
        },
        {
          "id": 180,
          "name": "",
          "type": "obj_solid_block",
          "gid": 255,
          "x": 2992.0,
          "y": 2264.0,
          "width": 16.0,
          "height": 16.0,
          "rotation": -0.0,
          "visible": true
        },
        {
          "id": 181,
          "name": "",
          "type": "obj_bspring_right",
          "gid": 33,
          "x": 2176.0,
          "y": 1664.0,
          "width": 44.0,
          "height": 44.0,
          "rotation": -0.0,
          "visible": true
        },
        {
          "id": 182,
          "name": "",
          "type": "obj_ringspawn",
          "gid": 251,
          "x": 1003.0,
          "y": 1160.0,
          "width": 32.0,
          "height": 32.0,
          "rotation": -0.0,
          "visible": true
        },
        {
          "id": 183,
          "name": "",
          "type": "obj_solid_block2",
          "gid": 256,
          "x": 3128.0,
          "y": 0.0,
          "width": 16.0,
          "height": 2548.0,
          "rotation": -0.0,
          "visible": true
        },
        {
          "id": 184,
          "name": "",
          "type": "obj_solid_block2",
          "gid": 256,
          "x": -16.0,
          "y": 0.0,
          "width": 16.0,
          "height": 2524.0,
          "rotation": -0.0,
          "visible": true
        }
      ],
      "properties": [
        {
          "name": "depth",
          "type": "int",
          "value": 0
        }
      ]
    },
    {
      "type": "imagelayer",
      "id": 5,
      "name": "Backgrounds_1_3",
      "image": "../Textures/Zones/RavineMist/ravinemist_fog1.png",
      "imagewidth": 3167,
      "imageheight": 534,
      "repeatx": true,
      "repeaty": false,
      "offsetx": 0.0,
      "offsety": 1400.0,
      "opacity": 1.0,
      "visible": true,
      "x": 0,
      "y": 0,
      "properties": [
        {
          "name": "depth",
          "type": "int",
          "value": -200
        },
        {
          "name": "hspeed",
          "type": "float",
          "value": 0.9
        }
      ]
    },
    {
      "type": "imagelayer",
      "id": 6,
      "name": "Backgrounds_1",
      "image": "../Textures/Zones/RavineMist/ravinemist_fog1.png",
      "imagewidth": 3167,
      "imageheight": 534,
      "repeatx": true,
      "repeaty": false,
      "offsetx": 0.0,
      "offsety": 2000.0,
      "opacity": 1.0,
      "visible": true,
      "tintcolor": "#dcffffff",
      "x": 0,
      "y": 0,
      "properties": [
        {
          "name": "depth",
          "type": "int",
          "value": -300
        },
        {
          "name": "hspeed",
          "type": "float",
          "value": 1.0
        }
      ]
    },
    {
      "type": "imagelayer",
      "id": 7,
      "name": "Backgrounds_1_2",
      "image": "../Textures/Zones/RavineMist/ravinemist_fog1.png",
      "imagewidth": 3167,
      "imageheight": 534,
      "repeatx": true,
      "repeaty": false,
      "offsetx": 0.0,
      "offsety": 800.0,
      "opacity": 1.0,
      "visible": true,
      "tintcolor": "#c8ffffff",
      "x": 0,
      "y": 0,
      "properties": [
        {
          "name": "depth",
          "type": "int",
          "value": -400
        },
        {
          "name": "hspeed",
          "type": "float",
          "value": 1.1
        }
      ]
    },
    {
      "type": "imagelayer",
      "id": 8,
      "name": "Backgrounds_1_1",
      "image": "../Textures/Zones/RavineMist/ravinemist_fog1.png",
      "imagewidth": 3167,
      "imageheight": 534,
      "repeatx": true,
      "repeaty": false,
      "offsetx": 0.0,
      "offsety": 120.0,
      "opacity": 1.0,
      "visible": true,
      "tintcolor": "#80ffffff",
      "x": 0,
      "y": 0,
      "properties": [
        {
          "name": "depth",
          "type": "int",
          "value": -500
        },
        {
          "name": "hspeed",
          "type": "float",
          "value": 1.2
        }
      ]
    }
  ]
}