{
  "type": "map",
  "version": "1.10",
  "orientation": "orthogonal",
  "renderorder": "right-down",
  "infinite": false,
  "width": 156,
  "height": 52,
  "tilewidth": 32,
  "tileheight": 32,
  "nextlayerid": 17,
  "nextobjectid": 263,
  "properties": [
    {
      "name": "persistent",
      "type": "bool",
      "value": false
    },
    {
      "name": "views_enabled",
      "type": "bool",
      "value": true
    },
    {
      "name": "clear_view_background",
      "type": "bool",
      "value": false
    },
    {
      "name": "view_visible",
      "type": "bool",
      "value": true
    },
    {
      "name": "view_x",
      "type": "int",
      "value": 0
    },
    {
      "name": "view_y",
      "type": "int",
      "value": 0
    },
    {
      "name": "view_width",
      "type": "int",
      "value": 480
    },
    {
      "name": "view_height",
      "type": "int",
      "value": 270
    },
    {
      "name": "port_x",
      "type": "int",
      "value": 0
    },
    {
      "name": "port_y",
      "type": "int",
      "value": 0
    },
    {
      "name": "port_width",
      "type": "int",
      "value": 480
    },
    {
      "name": "port_height",
      "type": "int",
      "value": 270
    }
  ],
  "tilesets": [
    {
      "firstgid": 1,
      "source": "Tilesets/objects.tsj"
    },
    {
      "firstgid": 10000,
      "source": "Tilesets/sprites.tsj"
    }
  ],
  "layers": [
    {
      "type": "imagelayer",
      "id": 1,
      "name": "Backgrounds_1",
      "image": "",
      "imagewidth": 0,
      "imageheight": 0,
      "repeatx": false,
      "repeaty": false,
      "offsetx": 0.0,
      "offsety": 0.0,
      "opacity": 1.0,
      "visible": true,
      "tintcolor": "#ff000000",
      "x": 0,
      "y": 0,
      "properties": [
        {
          "name": "depth",
          "type": "int",
          "value": 850
        }
      ]
    },
    {
      "type": "imagelayer",
      "id": 2,
      "name": "Background",
      "image": "../Textures/Zones/VolcanoValley/vv.png",
      "imagewidth": 766,
      "imageheight": 200,
      "repeatx": true,
      "repeaty": false,
      "offsetx": 0.0,
      "offsety": 0.0,
      "parallaxx": 0.1,
      "parallaxy": 0.0,
      "opacity": 1.0,
      "visible": true,
      "x": 0,
      "y": 0,
      "properties": [
        {
          "name": "depth",
          "type": "int",
          "value": 750
        }
      ]
    },
    {
      "type": "imagelayer",
      "id": 3,
      "name": "Background2",
      "image": "../Textures/Zones/VolcanoValley/vv2.png",
      "imagewidth": 275,
      "imageheight": 80,
      "repeatx": true,
      "repeaty": false,
      "offsetx": 0.0,
      "offsety": 59.4,
      "parallaxx": 0.2,
      "parallaxy": 0.01,
      "opacity": 1.0,
      "visible": true,
      "x": 0,
      "y": 0,
      "properties": [
        {
          "name": "depth",
          "type": "int",
          "value": 650
        },
        {
          "name": "effect",
          "type": "string",
          "value": "_filter_heathaze"
        },
        {
          "name": "effect.g_Distort1Speed",
          "type": "float",
          "value": 0.01
        },
        {
          "name": "effect.g_Distort2Speed",
          "type": "float",
          "value": 0.025
        },
        {
          "name": "effect.g_Distort1Scale",
          "type": "float",
          "value": 1.3
        },
        {
          "name": "effect.g_Distort2Scale",
          "type": "float",
          "value": 3.3
        },
        {
          "name": "effect.g_Distort1Amount",
          "type": "float",
          "value": 1.0
        },
        {
          "name": "effect.g_Distort2Amount",
          "type": "float",
          "value": 1.0
        },
        {
          "name": "effect.g_ChromaSpreadAmount",
          "type": "float",
          "value": 0.5
        },
        {
          "name": "effect.g_CamOffsetScale",
          "type": "float",
          "value": 1.0
        },
        {
          "name": "effect.g_DistortTexture",
          "type": "string",
          "value": "_filter_heathaze_noise_sprite"
        }
      ]
    },
    {
      "type": "imagelayer",
      "id": 4,
      "name": "Background3",
      "image": "../Textures/Zones/VolcanoValley/vv3.png",
      "imagewidth": 512,
      "imageheight": 144,
      "repeatx": true,
      "repeaty": false,
      "offsetx": 0.0,
      "offsety": 90.988,
      "parallaxx": 0.3,
      "parallaxy": 0.011,
      "opacity": 1.0,
      "visible": true,
      "tintcolor": "#ff666666",
      "x": 0,
      "y": 0,
      "properties": [
        {
          "name": "depth",
          "type": "int",
          "value": 550
        },
        {
          "name": "effect",
          "type": "string",
          "value": "_filter_heathaze"
        },
        {
          "name": "effect.g_Distort1Speed",
          "type": "float",
          "value": 0.01
        },
        {
          "name": "effect.g_Distort2Speed",
          "type": "float",
          "value": 0.025
        },
        {
          "name": "effect.g_Distort1Scale",
          "type": "float",
          "value": 1.3
        },
        {
          "name": "effect.g_Distort2Scale",
          "type": "float",
          "value": 3.3
        },
        {
          "name": "effect.g_Distort1Amount",
          "type": "float",
          "value": 1.0
        },
        {
          "name": "effect.g_Distort2Amount",
          "type": "float",
          "value": 1.0
        },
        {
          "name": "effect.g_ChromaSpreadAmount",
          "type": "float",
          "value": 0.5
        },
        {
          "name": "effect.g_CamOffsetScale",
          "type": "float",
          "value": 1.0
        },
        {
          "name": "effect.g_DistortTexture",
          "type": "string",
          "value": "_filter_heathaze_noise_sprite"
        }
      ]
    },
    {
      "type": "imagelayer",
      "id": 5,
      "name": "Background4",
      "image": "../Textures/Zones/VolcanoValley/vv4.png",
      "imagewidth": 512,
      "imageheight": 149,
      "repeatx": true,
      "repeaty": false,
      "offsetx": 0.0,
      "offsety": 130.416,
      "parallaxx": 0.4,
      "parallaxy": 0.012,
      "opacity": 1.0,
      "visible": true,
      "x": 0,
      "y": 0,
      "properties": [
        {
          "name": "depth",
          "type": "int",
          "value": 450
        },
        {
          "name": "effect",
          "type": "string",
          "value": "_filter_heathaze"
        },
        {
          "name": "effect.g_Distort1Speed",
          "type": "float",
          "value": 0.01
        },
        {
          "name": "effect.g_Distort2Speed",
          "type": "float",
          "value": 0.025
        },
        {
          "name": "effect.g_Distort1Scale",
          "type": "float",
          "value": 1.3
        },
        {
          "name": "effect.g_Distort2Scale",
          "type": "float",
          "value": 3.3
        },
        {
          "name": "effect.g_Distort1Amount",
          "type": "float",
          "value": 1.0
        },
        {
          "name": "effect.g_Distort2Amount",
          "type": "float",
          "value": 1.0
        },
        {
          "name": "effect.g_ChromaSpreadAmount",
          "type": "float",
          "value": 0.5
        },
        {
          "name": "effect.g_CamOffsetScale",
          "type": "float",
          "value": 1.0
        },
        {
          "name": "effect.g_DistortTexture",
          "type": "string",
          "value": "_filter_heathaze_noise_sprite"
        }
      ]
    },
    {
      "type": "imagelayer",
      "id": 6,
      "name": "Background5",
      "image": "../Textures/Zones/VolcanoValley/vv5.png",
      "imagewidth": 441,
      "imageheight": 99,
      "repeatx": true,
      "repeaty": false,
      "offsetx": 0.0,
      "offsety": 185.932,
      "parallaxx": 0.5,
      "parallaxy": 0.011,
      "opacity": 1.0,
      "visible": true,
      "x": 0,
      "y": 0,
      "properties": [
        {
          "name": "depth",
          "type": "int",
          "value": 350
        },
        {
          "name": "effect",
          "type": "string",
          "value": "_filter_heathaze"
        },
        {
          "name": "effect.g_Distort1Speed",
          "type": "float",
          "value": 0.01
        },
        {
          "name": "effect.g_Distort2Speed",
          "type": "float",
          "value": 0.025
        },
        {
          "name": "effect.g_Distort1Scale",
          "type": "float",
          "value": 1.3
        },
        {
          "name": "effect.g_Distort2Scale",
          "type": "float",
          "value": 3.3
        },
        {
          "name": "effect.g_Distort1Amount",
          "type": "float",
          "value": 1.0
        },
        {
          "name": "effect.g_Distort2Amount",
          "type": "float",
          "value": 1.0
        },
        {
          "name": "effect.g_ChromaSpreadAmount",
          "type": "float",
          "value": 0.5
        },
        {
          "name": "effect.g_CamOffsetScale",
          "type": "float",
          "value": 1.0
        },
        {
          "name": "effect.g_DistortTexture",
          "type": "string",
          "value": "_filter_heathaze_noise_sprite"
        }
      ]
    },
    {
      "type": "objectgroup",
      "id": 7,
      "name": "Tiles2",
      "draworder": "index",
      "opacity": 1.0,
      "visible": true,
      "x": 0,
      "y": 0,
      "objects": [],
      "properties": [
        {
          "name": "depth",
          "type": "int",
          "value": 250
        },
        {
          "name": "effect",
          "type": "string",
          "value": "_filter_heathaze"
        },
        {
          "name": "effect.g_Distort1Speed",
          "type": "float",
          "value": 0.01
        },
        {
          "name": "effect.g_Distort2Speed",
          "type": "float",
          "value": 0.025
        },
        {
          "name": "effect.g_Distort1Scale",
          "type": "float",
          "value": 1.3
        },
        {
          "name": "effect.g_Distort2Scale",
          "type": "float",
          "value": 3.3
        },
        {
          "name": "effect.g_Distort1Amount",
          "type": "float",
          "value": 1.0
        },
        {
          "name": "effect.g_Distort2Amount",
          "type": "float",
          "value": 2.0
        },
        {
          "name": "effect.g_ChromaSpreadAmount",
          "type": "float",
          "value": 0.5
        },
        {
          "name": "effect.g_CamOffsetScale",
          "type": "float",
          "value": 1.0
        },
        {
          "name": "effect.g_DistortTexture",
          "type": "string",
          "value": "_filter_heathaze_noise_sprite"
        }
      ]
    },
    {
      "type": "objectgroup",
      "id": 15,
      "name": "LevelArt vv_tiles2",
      "draworder": "index",
      "opacity": 1.0,
      "visible": true,
      "x": 0,
      "y": 0,
      "objects": [
        {
          "id": 255,
          "name": "",
          "type": "",
          "gid": 10860,
          "x": 0.0,
          "y": 0.0,
          "width": 1248.0,
          "height": 1664.0,
          "rotation": -0.0,
          "visible": true,
          "properties": [
            {
              "name": "animation_speed",
              "type": "float",
              "value": 0.0
            }
          ]
        },
        {
          "id": 256,
          "name": "",
          "type": "",
          "gid": 10860,
          "x": 1248.0,
          "y": 0.0,
          "width": 1248.0,
          "height": 1664.0,
          "rotation": -0.0,
          "visible": true,
          "properties": [
            {
              "name": "animation_speed",
              "type": "float",
              "value": 0.0
            },
            {
              "name": "frame",
              "type": "float",
              "value": 1.0
            }
          ]
        },
        {
          "id": 257,
          "name": "",
          "type": "",
          "gid": 10860,
          "x": 2496.0,
          "y": 0.0,
          "width": 1248.0,
          "height": 1664.0,
          "rotation": -0.0,
          "visible": true,
          "properties": [
            {
              "name": "animation_speed",
              "type": "float",
              "value": 0.0
            },
            {
              "name": "frame",
              "type": "float",
              "value": 2.0
            }
          ]
        },
        {
          "id": 258,
          "name": "",
          "type": "",
          "gid": 10860,
          "x": 3744.0,
          "y": 0.0,
          "width": 1248.0,
          "height": 1664.0,
          "rotation": -0.0,
          "visible": true,
          "properties": [
            {
              "name": "animation_speed",
              "type": "float",
              "value": 0.0
            },
            {
              "name": "frame",
              "type": "float",
              "value": 3.0
            }
          ]
        }
      ],
      "properties": [
        {
          "name": "depth",
          "type": "int",
          "value": 250
        },
        {
          "name": "asset_layer",
          "type": "bool",
          "value": true
        }
      ]
    },
    {
      "type": "objectgroup",
      "id": 8,
      "name": "Assets_1",
      "draworder": "index",
      "opacity": 1.0,
      "visible": true,
      "x": 0,
      "y": 0,
      "objects": [
        {
          "id": 232,
          "name": "",
          "type": "",
          "gid": 10856,
          "x": 512.0,
          "y": 1416.0,
          "width": 256.0,
          "height": 256.0,
          "rotation": -0.0,
          "visible": true
        },
        {
          "id": 233,
          "name": "",
          "type": "",
          "gid": 10856,
          "x": 768.0,
          "y": 1416.0,
          "width": 256.0,
          "height": 256.0,
          "rotation": -0.0,
          "visible": true
        },
        {
          "id": 234,
          "name": "",
          "type": "",
          "gid": 10856,
          "x": 1024.0,
          "y": 1416.0,
          "width": 256.0,
          "height": 256.0,
          "rotation": -0.0,
          "visible": true
        },
        {
          "id": 235,
          "name": "",
          "type": "",
          "gid": 10856,
          "x": 1984.0,
          "y": 1544.0,
          "width": 256.0,
          "height": 256.0,
          "rotation": -0.0,
          "visible": true
        },
        {
          "id": 236,
          "name": "",
          "type": "",
          "gid": 10856,
          "x": 2368.0,
          "y": 1544.0,
          "width": 256.0,
          "height": 256.0,
          "rotation": -0.0,
          "visible": true
        },
        {
          "id": 237,
          "name": "",
          "type": "",
          "gid": 10856,
          "x": 3448.0,
          "y": 1416.0,
          "width": 256.0,
          "height": 256.0,
          "rotation": -0.0,
          "visible": true
        },
        {
          "id": 238,
          "name": "",
          "type": "",
          "gid": 10856,
          "x": 2112.0,
          "y": 984.0,
          "width": 256.0,
          "height": 256.0,
          "rotation": -0.0,
          "visible": true
        },
        {
          "id": 239,
          "name": "",
          "type": "",
          "gid": 10856,
          "x": 2368.0,
          "y": 984.0,
          "width": 256.0,
          "height": 256.0,
          "rotation": -0.0,
          "visible": true
        },
        {
          "id": 240,
          "name": "",
          "type": "",
          "gid": 10856,
          "x": 1416.0,
          "y": 1416.0,
          "width": 256.0,
          "height": 256.0,
          "rotation": -0.0,
          "visible": true
        },
        {
          "id": 241,
          "name": "",
          "type": "",
          "gid": 10856,
          "x": 2752.0,
          "y": 1544.0,
          "width": 256.0,
          "height": 256.0,
          "rotation": -0.0,
          "visible": true
        },
        {
          "id": 242,
          "name": "",
          "type": "",
          "gid": 10856,
          "x": 4112.0,
          "y": 1104.0,
          "width": 256.0,
          "height": 256.0,
          "rotation": -0.0,
          "visible": true
        },
        {
          "id": 243,
          "name": "",
          "type": "",
          "gid": 10856,
          "x": 456.0,
          "y": 792.0,
          "width": 256.0,
          "height": 128.0,
          "rotation": -0.0,
          "visible": true
        },
        {
          "id": 244,
          "name": "",
          "type": "",
          "gid": 10856,
          "x": -88.0,
          "y": 792.0,
          "width": 256.0,
          "height": 128.0,
          "rotation": -0.0,
          "visible": true
        }
      ],
      "properties": [
        {
          "name": "depth",
          "type": "int",
          "value": 200
        },
        {
          "name": "effect",
          "type": "string",
          "value": "_filter_heathaze"
        },
        {
          "name": "effect.g_Distort1Speed",
          "type": "float",
          "value": 0.01
        },
        {
          "name": "effect.g_Distort2Speed",
          "type": "float",
          "value": 0.025
        },
        {
          "name": "effect.g_Distort1Scale",
          "type": "float",
          "value": 1.3
        },
        {
          "name": "effect.g_Distort2Scale",
          "type": "float",
          "value": 3.3
        },
        {
          "name": "effect.g_Distort1Amount",
          "type": "float",
          "value": 1.0
        },
        {
          "name": "effect.g_Distort2Amount",
          "type": "float",
          "value": 2.0
        },
        {
          "name": "effect.g_ChromaSpreadAmount",
          "type": "float",
          "value": 0.5
        },
        {
          "name": "effect.g_CamOffsetScale",
          "type": "float",
          "value": 1.0
        },
        {
          "name": "effect.g_DistortTexture",
          "type": "string",
          "value": "_filter_heathaze_noise_sprite"
        },
        {
          "name": "asset_layer",
          "type": "bool",
          "value": true
        }
      ]
    },
    {
      "type": "objectgroup",
      "id": 9,
      "name": "Tiles",
      "draworder": "index",
      "opacity": 1.0,
      "visible": true,
      "x": 0,
      "y": 0,
      "objects": [],
      "properties": [
        {
          "name": "depth",
          "type": "int",
          "value": 100
        },
        {
          "name": "effect",
          "type": "string",
          "value": "_filter_heathaze"
        },
        {
          "name": "effect.g_Distort1Speed",
          "type": "float",
          "value": 0.01
        },
        {
          "name": "effect.g_Distort2Speed",
          "type": "float",
          "value": 0.025
        },
        {
          "name": "effect.g_Distort1Scale",
          "type": "float",
          "value": 1.3
        },
        {
          "name": "effect.g_Distort2Scale",
          "type": "float",
          "value": 3.3
        },
        {
          "name": "effect.g_Distort1Amount",
          "type": "float",
          "value": 1.0
        },
        {
          "name": "effect.g_Distort2Amount",
          "type": "float",
          "value": 2.0
        },
        {
          "name": "effect.g_ChromaSpreadAmount",
          "type": "float",
          "value": 0.5
        },
        {
          "name": "effect.g_CamOffsetScale",
          "type": "float",
          "value": 1.0
        },
        {
          "name": "effect.g_DistortTexture",
          "type": "string",
          "value": "_filter_heathaze_noise_sprite"
        }
      ]
    },
    {
      "type": "objectgroup",
      "id": 14,
      "name": "LevelArt vv_tiles",
      "draworder": "index",
      "opacity": 1.0,
      "visible": true,
      "x": 0,
      "y": 0,
      "objects": [
        {
          "id": 251,
          "name": "",
          "type": "",
          "gid": 10859,
          "x": 0.0,
          "y": 0.0,
          "width": 1248.0,
          "height": 1664.0,
          "rotation": -0.0,
          "visible": true,
          "properties": [
            {
              "name": "animation_speed",
              "type": "float",
              "value": 0.0
            }
          ]
        },
        {
          "id": 252,
          "name": "",
          "type": "",
          "gid": 10859,
          "x": 1248.0,
          "y": 0.0,
          "width": 1248.0,
          "height": 1664.0,
          "rotation": -0.0,
          "visible": true,
          "properties": [
            {
              "name": "animation_speed",
              "type": "float",
              "value": 0.0
            },
            {
              "name": "frame",
              "type": "float",
              "value": 1.0
            }
          ]
        },
        {
          "id": 253,
          "name": "",
          "type": "",
          "gid": 10859,
          "x": 2496.0,
          "y": 0.0,
          "width": 1248.0,
          "height": 1664.0,
          "rotation": -0.0,
          "visible": true,
          "properties": [
            {
              "name": "animation_speed",
              "type": "float",
              "value": 0.0
            },
            {
              "name": "frame",
              "type": "float",
              "value": 2.0
            }
          ]
        },
        {
          "id": 254,
          "name": "",
          "type": "",
          "gid": 10859,
          "x": 3744.0,
          "y": 0.0,
          "width": 1248.0,
          "height": 1664.0,
          "rotation": -0.0,
          "visible": true,
          "properties": [
            {
              "name": "animation_speed",
              "type": "float",
              "value": 0.0
            },
            {
              "name": "frame",
              "type": "float",
              "value": 3.0
            }
          ]
        }
      ],
      "properties": [
        {
          "name": "depth",
          "type": "int",
          "value": 100
        },
        {
          "name": "asset_layer",
          "type": "bool",
          "value": true
        }
      ]
    },
    {
      "type": "objectgroup",
      "id": 10,
      "name": "Bochki",
      "draworder": "index",
      "opacity": 1.0,
      "visible": true,
      "x": 0,
      "y": 0,
      "objects": [
        {
          "id": 115,
          "name": "",
          "type": "obj_vv_barrel",
          "gid": 275,
          "x": 4128.0,
          "y": 672.0,
          "width": 32.0,
          "height": 32.0,
          "rotation": -0.0,
          "visible": true
        },
        {
          "id": 116,
          "name": "",
          "type": "obj_vv_barrel2",
          "gid": 276,
          "x": 4256.0,
          "y": 736.0,
          "width": 32.0,
          "height": 32.0,
          "rotation": -0.0,
          "visible": true
        },
        {
          "id": 117,
          "name": "",
          "type": "obj_vv_barrel",
          "gid": 275,
          "x": 2912.0,
          "y": 992.0,
          "width": 32.0,
          "height": 32.0,
          "rotation": -0.0,
          "visible": true
        },
        {
          "id": 118,
          "name": "",
          "type": "obj_vv_barrel2",
          "gid": 276,
          "x": 1952.0,
          "y": 928.0,
          "width": 32.0,
          "height": 32.0,
          "rotation": -0.0,
          "visible": true
        },
        {
          "id": 119,
          "name": "",
          "type": "obj_vv_barrel2",
          "gid": 276,
          "x": 1312.0,
          "y": 1312.0,
          "width": 32.0,
          "height": 32.0,
          "rotation": -0.0,
          "visible": true
        },
        {
          "id": 120,
          "name": "",
          "type": "obj_vv_barrel2",
          "gid": 276,
          "x": 672.0,
          "y": 752.0,
          "width": 32.0,
          "height": 32.0,
          "rotation": -0.0,
          "visible": true
        },
        {
          "id": 121,
          "name": "",
          "type": "obj_vv_barrel",
          "gid": 275,
          "x": 448.0,
          "y": 752.0,
          "width": 32.0,
          "height": 32.0,
          "rotation": -0.0,
          "visible": true
        },
        {
          "id": 122,
          "name": "",
          "type": "obj_vv_barrel",
          "gid": 275,
          "x": 3424.0,
          "y": 1376.0,
          "width": 32.0,
          "height": 32.0,
          "rotation": -0.0,
          "visible": true
        },
        {
          "id": 190,
          "name": "",
          "type": "obj_vv_barrel",
          "gid": 275,
          "x": 3234.0,
          "y": 1056.0,
          "width": 32.0,
          "height": 32.0,
          "rotation": -0.0,
          "visible": true
        },
        {
          "id": 214,
          "name": "",
          "type": "obj_vv_barrel",
          "gid": 275,
          "x": 2976.0,
          "y": 1504.0,
          "width": 32.0,
          "height": 32.0,
          "rotation": -0.0,
          "visible": true
        }
      ],
      "properties": [
        {
          "name": "depth",
          "type": "int",
          "value": 50
        },
        {
          "name": "effect",
          "type": "string",
          "value": "_filter_heathaze"
        },
        {
          "name": "effect.g_Distort1Speed",
          "type": "float",
          "value": 0.01
        },
        {
          "name": "effect.g_Distort2Speed",
          "type": "float",
          "value": 0.025
        },
        {
          "name": "effect.g_Distort1Scale",
          "type": "float",
          "value": 1.3
        },
        {
          "name": "effect.g_Distort2Scale",
          "type": "float",
          "value": 3.3
        },
        {
          "name": "effect.g_Distort1Amount",
          "type": "float",
          "value": 1.0
        },
        {
          "name": "effect.g_Distort2Amount",
          "type": "float",
          "value": 2.0
        },
        {
          "name": "effect.g_ChromaSpreadAmount",
          "type": "float",
          "value": 0.5
        },
        {
          "name": "effect.g_CamOffsetScale",
          "type": "float",
          "value": 1.0
        },
        {
          "name": "effect.g_DistortTexture",
          "type": "string",
          "value": "_filter_heathaze_noise_sprite"
        }
      ]
    },
    {
      "type": "objectgroup",
      "id": 11,
      "name": "Instances",
      "draworder": "index",
      "opacity": 1.0,
      "visible": true,
      "x": 0,
      "y": 0,
      "objects": [
        {
          "id": 1,
          "name": "",
          "type": "obj_solid_block",
          "gid": 255,
          "x": 128.0,
          "y": 784.0,
          "width": 128.0,
          "height": 20.0,
          "rotation": -0.0,
          "visible": true
        },
        {
          "id": 2,
          "name": "",
          "type": "obj_solid_block",
          "gid": 255,
          "x": 384.0,
          "y": 784.0,
          "width": 128.0,
          "height": 176.0,
          "rotation": -0.0,
          "visible": true
        },
        {
          "id": 3,
          "name": "",
          "type": "obj_solid_block",
          "gid": 255,
          "x": 512.0,
          "y": 848.0,
          "width": 128.0,
          "height": 112.0,
          "rotation": -0.0,
          "visible": true
        },
        {
          "id": 4,
          "name": "",
          "type": "obj_solid_block",
          "gid": 255,
          "x": 640.0,
          "y": 784.0,
          "width": 128.0,
          "height": 176.0,
          "rotation": -0.0,
          "visible": true
        },
        {
          "id": 5,
          "name": "",
          "type": "obj_solid_block",
          "gid": 255,
          "x": 256.0,
          "y": 1088.0,
          "width": 1024.0,
          "height": 128.0,
          "rotation": -0.0,
          "visible": true
        },
        {
          "id": 6,
          "name": "",
          "type": "obj_solid_block",
          "gid": 255,
          "x": 832.0,
          "y": 992.0,
          "width": 448.0,
          "height": 96.0,
          "rotation": -0.0,
          "visible": true
        },
        {
          "id": 7,
          "name": "",
          "type": "obj_solid_block",
          "gid": 255,
          "x": 1152.0,
          "y": 1344.0,
          "width": 320.0,
          "height": 320.0,
          "rotation": -0.0,
          "visible": true
        },
        {
          "id": 8,
          "name": "",
          "type": "obj_solid_block",
          "gid": 255,
          "x": 1599.9998,
          "y": 1408.0,
          "width": 63.0,
          "height": 256.0,
          "rotation": 359.98021766,
          "visible": true
        },
        {
          "id": 9,
          "name": "",
          "type": "obj_solid_block",
          "gid": 255,
          "x": 1668.0,
          "y": 1536.0,
          "width": 316.0,
          "height": 128.0,
          "rotation": -0.0,
          "visible": true
        },
        {
          "id": 10,
          "name": "",
          "type": "obj_solid_block",
          "gid": 255,
          "x": 2240.0,
          "y": 1536.0,
          "width": 128.0,
          "height": 32.0,
          "rotation": -0.0,
          "visible": true
        },
        {
          "id": 11,
          "name": "",
          "type": "obj_solid_block",
          "gid": 255,
          "x": 2624.0,
          "y": 1536.0,
          "width": 192.0,
          "height": 128.0,
          "rotation": -0.0,
          "visible": true
        },
        {
          "id": 12,
          "name": "",
          "type": "obj_solid_block",
          "gid": 255,
          "x": 2944.0,
          "y": 1536.0,
          "width": 196.0,
          "height": 128.0,
          "rotation": -0.0,
          "visible": true
        },
        {
          "id": 13,
          "name": "",
          "type": "obj_solid_block",
          "gid": 255,
          "x": 3265.0,
          "y": 1408.0,
          "width": 191.0,
          "height": 256.0,
          "rotation": -0.0,
          "visible": true
        },
        {
          "id": 14,
          "name": "",
          "type": "obj_solid_block",
          "gid": 255,
          "x": 3584.0,
          "y": 1408.0,
          "width": 256.0,
          "height": 256.0,
          "rotation": -0.0,
          "visible": true
        },
        {
          "id": 15,
          "name": "",
          "type": "obj_solid_block",
          "gid": 255,
          "x": 3840.0,
          "y": 1344.0,
          "width": 192.0,
          "height": 320.0,
          "rotation": -0.0,
          "visible": true
        },
        {
          "id": 16,
          "name": "",
          "type": "obj_solid_block",
          "gid": 255,
          "x": 4032.0,
          "y": 1088.0,
          "width": 128.0,
          "height": 576.0,
          "rotation": -0.0,
          "visible": true
        },
        {
          "id": 17,
          "name": "",
          "type": "obj_solid_block",
          "gid": 255,
          "x": 4288.0,
          "y": 1088.0,
          "width": 128.0,
          "height": 64.0,
          "rotation": -0.0,
          "visible": true
        },
        {
          "id": 18,
          "name": "",
          "type": "obj_solid_block",
          "gid": 255,
          "x": 4608.0,
          "y": 960.0,
          "width": 256.0,
          "height": 704.0,
          "rotation": -0.0,
          "visible": true
        },
        {
          "id": 19,
          "name": "",
          "type": "obj_solid_block",
          "gid": 255,
          "x": 4224.0,
          "y": 768.0,
          "width": 192.0,
          "height": 128.0,
          "rotation": -0.0,
          "visible": true
        },
        {
          "id": 20,
          "name": "",
          "type": "obj_solid_block",
          "gid": 255,
          "x": 4032.0,
          "y": 704.0,
          "width": 192.0,
          "height": 192.0,
          "rotation": -0.0,
          "visible": true
        },
        {
          "id": 21,
          "name": "",
          "type": "obj_solid_block",
          "gid": 255,
          "x": 3904.0,
          "y": 640.0,
          "width": 192.0,
          "height": 256.0,
          "rotation": -0.0,
          "visible": true
        },
        {
          "id": 22,
          "name": "",
          "type": "obj_solid_block",
          "gid": 255,
          "x": 3776.0,
          "y": 576.0,
          "width": 128.0,
          "height": 320.0,
          "rotation": -0.0,
          "visible": true
        },
        {
          "id": 23,
          "name": "",
          "type": "obj_solid_block",
          "gid": 255,
          "x": 3712.0,
          "y": 832.0,
          "width": 128.0,
          "height": 256.0,
          "rotation": -0.0,
          "visible": true
        },
        {
          "id": 24,
          "name": "",
          "type": "obj_solid_block",
          "gid": 255,
          "x": 3456.0,
          "y": 896.0,
          "width": 192.0,
          "height": 128.0,
          "rotation": -0.0,
          "visible": true
        },
        {
          "id": 25,
          "name": "",
          "type": "obj_solid_block",
          "gid": 255,
          "x": 3648.0,
          "y": 896.0,
          "width": 64.0,
          "height": 192.0,
          "rotation": -0.0,
          "visible": true
        },
        {
          "id": 26,
          "name": "",
          "type": "obj_solid_block",
          "gid": 255,
          "x": 2880.0,
          "y": 1024.0,
          "width": 128.0,
          "height": 256.0,
          "rotation": -0.0,
          "visible": true
        },
        {
          "id": 27,
          "name": "",
          "type": "obj_solid_block",
          "gid": 255,
          "x": 3080.0,
          "y": 1088.0,
          "width": 264.0,
          "height": 192.0,
          "rotation": -0.0,
          "visible": true
        },
        {
          "id": 28,
          "name": "",
          "type": "obj_solid_block",
          "gid": 255,
          "x": 3008.0,
          "y": 1088.0,
          "width": 72.0,
          "height": 192.0,
          "rotation": -0.0,
          "visible": true
        },
        {
          "id": 29,
          "name": "",
          "type": "obj_solid_block",
          "gid": 255,
          "x": 2432.0,
          "y": 960.0,
          "width": 256.0,
          "height": 384.0,
          "rotation": -0.0,
          "visible": true
        },
        {
          "id": 30,
          "name": "",
          "type": "obj_solid_block",
          "gid": 255,
          "x": 1920.0,
          "y": 960.0,
          "width": 192.0,
          "height": 384.0,
          "rotation": -0.0,
          "visible": true
        },
        {
          "id": 31,
          "name": "",
          "type": "obj_solid_block",
          "gid": 255,
          "x": 2112.0,
          "y": 1088.0,
          "width": 320.0,
          "height": 256.0,
          "rotation": -0.0,
          "visible": true
        },
        {
          "id": 32,
          "name": "",
          "type": "obj_solid_block",
          "gid": 255,
          "x": 1472.0,
          "y": 1104.0,
          "width": 448.0,
          "height": 112.0,
          "rotation": -0.0,
          "visible": true
        },
        {
          "id": 33,
          "name": "",
          "type": "obj_solid_block",
          "gid": 255,
          "x": 3776.0,
          "y": 0.0,
          "width": 1216.0,
          "height": 320.0,
          "rotation": -0.0,
          "visible": true
        },
        {
          "id": 34,
          "name": "",
          "type": "obj_solid_block",
          "gid": 255,
          "x": 4864.0,
          "y": 320.0,
          "width": 128.0,
          "height": 1344.0,
          "rotation": -0.0,
          "visible": true
        },
        {
          "id": 35,
          "name": "",
          "type": "obj_solid_block",
          "gid": 255,
          "x": 0.0,
          "y": 1280.0,
          "width": 96.0,
          "height": 120.0,
          "rotation": -0.0,
          "visible": true
        },
        {
          "id": 36,
          "name": "",
          "type": "obj_solid_block",
          "gid": 255,
          "x": 308.0,
          "y": 1408.0,
          "width": 204.0,
          "height": 256.0,
          "rotation": -0.0,
          "visible": true
        },
        {
          "id": 37,
          "name": "",
          "type": "obj_solid_block",
          "gid": 255,
          "x": 640.0,
          "y": 1376.0,
          "width": 128.0,
          "height": 64.0,
          "rotation": -0.0,
          "visible": true
        },
        {
          "id": 38,
          "name": "",
          "type": "obj_solid_block",
          "gid": 255,
          "x": 896.0,
          "y": 1376.0,
          "width": 128.0,
          "height": 64.0,
          "rotation": -0.0,
          "visible": true
        },
        {
          "id": 39,
          "name": "",
          "type": "obj_solid_block",
          "gid": 255,
          "x": 224.0,
          "y": 1344.0,
          "width": 32.0,
          "height": 32.0,
          "rotation": -0.0,
          "visible": true
        },
        {
          "id": 40,
          "name": "",
          "type": "obj_kaf_slope2",
          "gid": 120,
          "x": 96.0,
          "y": 1280.0,
          "width": 128.0,
          "height": 128.0,
          "rotation": -0.0,
          "visible": true
        },
        {
          "id": 41,
          "name": "",
          "type": "obj_kaf_slope2",
          "gid": 120,
          "x": 224.0,
          "y": 1344.0,
          "width": 128.0,
          "height": 128.0,
          "rotation": -0.0,
          "visible": true
        },
        {
          "id": 42,
          "name": "",
          "type": "obj_kaf_slope2",
          "gid": 120,
          "x": 736.0,
          "y": 784.0,
          "width": 128.0,
          "height": 128.0,
          "rotation": -0.0,
          "visible": true
        },
        {
          "id": 43,
          "name": "",
          "type": "obj_kaf_slope2",
          "gid": 120,
          "x": 864.0,
          "y": 848.0,
          "width": 128.0,
          "height": 128.0,
          "rotation": -0.0,
          "visible": true
        },
        {
          "id": 44,
          "name": "",
          "type": "obj_kaf_slope2",
          "gid": 120,
          "x": 2976.0,
          "y": 1024.0,
          "width": 128.0,
          "height": 128.0,
          "rotation": -0.0,
          "visible": true
        },
        {
          "id": 45,
          "name": "",
          "type": "obj_kaf_slope2",
          "gid": 120,
          "x": 3872.0,
          "y": 576.0,
          "width": 128.0,
          "height": 128.0,
          "rotation": -0.0,
          "visible": true
        },
        {
          "id": 46,
          "name": "",
          "type": "obj_kaf_slope2",
          "gid": 2147483768,
          "x": 3616.0,
          "y": 832.0,
          "width": 128.0,
          "height": 128.0,
          "rotation": -0.0,
          "visible": true
        },
        {
          "id": 47,
          "name": "",
          "type": "obj_kaf_slope2",
          "gid": 2147483768,
          "x": 4512.0,
          "y": 960.0,
          "width": 128.0,
          "height": 128.0,
          "rotation": -0.0,
          "visible": true
        },
        {
          "id": 48,
          "name": "",
          "type": "obj_kaf_slope2",
          "gid": 2147483768,
          "x": 4384.0,
          "y": 1024.0,
          "width": 128.0,
          "height": 128.0,
          "rotation": -0.0,
          "visible": true
        },
        {
          "id": 49,
          "name": "",
          "type": "obj_spring_right",
          "gid": 264,
          "x": 2688.0,
          "y": 964.0,
          "width": 44.0,
          "height": 44.0,
          "rotation": -0.0,
          "visible": true
        },
        {
          "id": 50,
          "name": "",
          "type": "obj_bspring_up",
          "gid": 34,
          "x": 1888.0,
          "y": 1072.0,
          "width": 32.0,
          "height": 32.0,
          "rotation": -0.0,
          "visible": true
        },
        {
          "id": 51,
          "name": "",
          "type": "obj_spring_up",
          "gid": 265,
          "x": 1360.0,
          "y": 1312.0,
          "width": 32.0,
          "height": 32.0,
          "rotation": -0.0,
          "visible": true
        },
        {
          "id": 52,
          "name": "",
          "type": "obj_spring_left",
          "gid": 262,
          "x": 3796.0,
          "y": 1364.0,
          "width": 44.0,
          "height": 44.0,
          "rotation": -0.0,
          "visible": true
        },
        {
          "id": 53,
          "name": "",
          "type": "obj_spring_up",
          "gid": 265,
          "x": 4000.0,
          "y": 1312.0,
          "width": 32.0,
          "height": 32.0,
          "rotation": -0.0,
          "visible": true
        },
        {
          "id": 54,
          "name": "",
          "type": "obj_spring_left",
          "gid": 262,
          "x": 4820.0,
          "y": 916.0,
          "width": 44.0,
          "height": 44.0,
          "rotation": -0.0,
          "visible": true
        },
        {
          "id": 55,
          "name": "",
          "type": "obj_yspring_up",
          "gid": 299,
          "x": 3744.0,
          "y": 800.0,
          "width": 32.0,
          "height": 32.0,
          "rotation": -0.0,
          "visible": true
        },
        {
          "id": 56,
          "name": "",
          "type": "obj_solid_block",
          "gid": 255,
          "x": 1663.0,
          "y": 1408.0,
          "width": 296.0,
          "height": 128.0,
          "rotation": 26.6,
          "visible": true
        },
        {
          "id": 57,
          "name": "",
          "type": "obj_solid_block",
          "gid": 255,
          "x": 3001.0,
          "y": 1540.0,
          "width": 296.0,
          "height": 128.0,
          "rotation": 333.4,
          "visible": true
        },
        {
          "id": 58,
          "name": "",
          "type": "obj_solid_block",
          "gid": 255,
          "x": 992.0,
          "y": 912.0,
          "width": 96.0,
          "height": 80.0,
          "rotation": -0.0,
          "visible": true
        },
        {
          "id": 59,
          "name": "",
          "type": "obj_solid_block",
          "gid": 255,
          "x": 768.0,
          "y": 912.0,
          "width": 96.0,
          "height": 48.0,
          "rotation": -0.0,
          "visible": true
        },
        {
          "id": 60,
          "name": "",
          "type": "obj_solid_block",
          "gid": 255,
          "x": 832.0,
          "y": 960.0,
          "width": 160.0,
          "height": 32.0,
          "rotation": -0.0,
          "visible": true
        },
        {
          "id": 61,
          "name": "",
          "type": "obj_solid_block",
          "gid": 255,
          "x": 1984.0,
          "y": 1555.0,
          "width": 640.0,
          "height": 109.0,
          "rotation": -0.0,
          "visible": true
        },
        {
          "id": 62,
          "name": "",
          "type": "obj_solid_block",
          "gid": 255,
          "x": 3456.0,
          "y": 1425.0,
          "width": 128.0,
          "height": 239.0,
          "rotation": -0.0,
          "visible": true
        },
        {
          "id": 63,
          "name": "",
          "type": "obj_solid_block",
          "gid": 255,
          "x": 512.0,
          "y": 1426.0,
          "width": 640.0,
          "height": 238.0,
          "rotation": -0.0,
          "visible": true
        },
        {
          "id": 64,
          "name": "",
          "type": "obj_solid_block",
          "gid": 255,
          "x": 4288.0,
          "y": 1088.0,
          "width": 128.0,
          "height": 576.0,
          "rotation": -0.0,
          "visible": true
        },
        {
          "id": 65,
          "name": "",
          "type": "obj_solid_block",
          "gid": 255,
          "x": 2112.0,
          "y": 994.0,
          "width": 320.0,
          "height": 94.0,
          "rotation": -0.0,
          "visible": true
        },
        {
          "id": 66,
          "name": "",
          "type": "obj_damage",
          "gid": 49,
          "x": 512.0,
          "y": 1422.0,
          "width": 128.0,
          "height": 18.0,
          "rotation": -0.0,
          "visible": true
        },
        {
          "id": 67,
          "name": "",
          "type": "obj_damage",
          "gid": 49,
          "x": 768.0,
          "y": 1424.0,
          "width": 128.0,
          "height": 18.0,
          "rotation": -0.0,
          "visible": true
        },
        {
          "id": 68,
          "name": "",
          "type": "obj_damage",
          "gid": 49,
          "x": 1024.0,
          "y": 1424.0,
          "width": 128.0,
          "height": 18.0,
          "rotation": -0.0,
          "visible": true
        },
        {
          "id": 69,
          "name": "",
          "type": "obj_damage",
          "gid": 49,
          "x": 1984.0,
          "y": 1552.0,
          "width": 256.0,
          "height": 18.0,
          "rotation": -0.0,
          "visible": true
        },
        {
          "id": 70,
          "name": "",
          "type": "obj_damage",
          "gid": 49,
          "x": 2368.0,
          "y": 1552.0,
          "width": 256.0,
          "height": 18.0,
          "rotation": -0.0,
          "visible": true
        },
        {
          "id": 71,
          "name": "",
          "type": "obj_damage",
          "gid": 49,
          "x": 3456.0,
          "y": 1424.0,
          "width": 128.0,
          "height": 18.0,
          "rotation": -0.0,
          "visible": true
        },
        {
          "id": 72,
          "name": "",
          "type": "obj_damage",
          "gid": 49,
          "x": 2112.0,
          "y": 992.0,
          "width": 320.0,
          "height": 18.0,
          "rotation": -0.0,
          "visible": true
        },
        {
          "id": 73,
          "name": "",
          "type": "obj_spawnpoint",
          "gid": 259,
          "x": 211.0,
          "y": 752.0,
          "width": 32.0,
          "height": 32.0,
          "rotation": -0.0,
          "visible": true
        },
        {
          "id": 74,
          "name": "",
          "type": "obj_spawnpoint",
          "gid": 259,
          "x": 2007.0,
          "y": 928.0,
          "width": 32.0,
          "height": 32.0,
          "rotation": -0.0,
          "visible": true
        },
        {
          "id": 75,
          "name": "",
          "type": "obj_exespawn",
          "gid": 85,
          "x": 2288.0,
          "y": 1504.0,
          "width": 32.0,
          "height": 32.0,
          "rotation": -0.0,
          "visible": true
        },
        {
          "id": 76,
          "name": "",
          "type": "obj_exespawn",
          "gid": 85,
          "x": 4303.0,
          "y": 736.0,
          "width": 32.0,
          "height": 32.0,
          "rotation": -0.0,
          "visible": true
        },
        {
          "id": 77,
          "name": "",
          "type": "obj_spawnpoint",
          "gid": 259,
          "x": 3911.0,
          "y": 1312.0,
          "width": 32.0,
          "height": 32.0,
          "rotation": -0.0,
          "visible": true
        },
        {
          "id": 78,
          "name": "",
          "type": "obj_spawnpoint",
          "gid": 259,
          "x": 3343.0,
          "y": 1376.0,
          "width": 32.0,
          "height": 32.0,
          "rotation": -0.0,
          "visible": true
        },
        {
          "id": 79,
          "name": "",
          "type": "obj_spawnpoint",
          "gid": 259,
          "x": 2551.0,
          "y": 928.0,
          "width": 32.0,
          "height": 32.0,
          "rotation": -0.0,
          "visible": true
        },
        {
          "id": 80,
          "name": "",
          "type": "obj_exespawn",
          "gid": 85,
          "x": 3535.0,
          "y": 864.0,
          "width": 32.0,
          "height": 32.0,
          "rotation": -0.0,
          "visible": true
        },
        {
          "id": 81,
          "name": "",
          "type": "obj_exespawn",
          "gid": 85,
          "x": 631.0,
          "y": 1056.0,
          "width": 32.0,
          "height": 32.0,
          "rotation": -0.0,
          "visible": true
        },
        {
          "id": 82,
          "name": "",
          "type": "obj_spawnpoint",
          "gid": 259,
          "x": 944.0,
          "y": 1344.0,
          "width": 32.0,
          "height": 32.0,
          "rotation": -0.0,
          "visible": true
        },
        {
          "id": 83,
          "name": "",
          "type": "obj_spawnpoint",
          "gid": 259,
          "x": 688.0,
          "y": 1344.0,
          "width": 32.0,
          "height": 32.0,
          "rotation": -0.0,
          "visible": true
        },
        {
          "id": 84,
          "name": "",
          "type": "obj_ringspawn",
          "gid": 251,
          "x": 2287.0,
          "y": 1400.0,
          "width": 32.0,
          "height": 32.0,
          "rotation": -0.0,
          "visible": true
        },
        {
          "id": 85,
          "name": "",
          "type": "obj_ringspawn",
          "gid": 251,
          "x": 775.0,
          "y": 1000.0,
          "width": 32.0,
          "height": 32.0,
          "rotation": -0.0,
          "visible": true
        },
        {
          "id": 86,
          "name": "",
          "type": "obj_ringspawn",
          "gid": 251,
          "x": 4031.0,
          "y": 536.0,
          "width": 32.0,
          "height": 32.0,
          "rotation": -0.0,
          "visible": true
        },
        {
          "id": 87,
          "name": "",
          "type": "obj_ringspawn",
          "gid": 251,
          "x": 2255.0,
          "y": 872.0,
          "width": 32.0,
          "height": 32.0,
          "rotation": -0.0,
          "visible": true
        },
        {
          "id": 88,
          "name": "",
          "type": "obj_ring_spawner",
          "gid": 249,
          "x": 360.0,
          "y": 1376.0,
          "width": 16.0,
          "height": 16.0,
          "rotation": -0.0,
          "visible": true
        },
        {
          "id": 89,
          "name": "",
          "type": "obj_ring_spawner",
          "gid": 249,
          "x": 544.0,
          "y": 1354.0,
          "width": 16.0,
          "height": 16.0,
          "rotation": -0.0,
          "visible": true
        },
        {
          "id": 90,
          "name": "",
          "type": "obj_ring_spawner",
          "gid": 249,
          "x": 952.0,
          "y": 1312.0,
          "width": 16.0,
          "height": 16.0,
          "rotation": -0.0,
          "visible": true
        },
        {
          "id": 91,
          "name": "",
          "type": "obj_ring_spawner",
          "gid": 249,
          "x": 592.0,
          "y": 1354.0,
          "width": 16.0,
          "height": 16.0,
          "rotation": -0.0,
          "visible": true
        },
        {
          "id": 92,
          "name": "",
          "type": "obj_ring_spawner",
          "gid": 249,
          "x": 2296.0,
          "y": 1464.0,
          "width": 16.0,
          "height": 16.0,
          "rotation": -0.0,
          "visible": true
        },
        {
          "id": 93,
          "name": "",
          "type": "obj_ring_spawner",
          "gid": 249,
          "x": 2952.0,
          "y": 1504.0,
          "width": 16.0,
          "height": 16.0,
          "rotation": -0.0,
          "visible": true
        },
        {
          "id": 94,
          "name": "",
          "type": "obj_ring_spawner",
          "gid": 249,
          "x": 2984.0,
          "y": 1504.0,
          "width": 16.0,
          "height": 16.0,
          "rotation": -0.0,
          "visible": true
        },
        {
          "id": 95,
          "name": "",
          "type": "obj_ring_spawner",
          "gid": 249,
          "x": 2920.0,
          "y": 960.0,
          "width": 16.0,
          "height": 16.0,
          "rotation": -0.0,
          "visible": true
        },
        {
          "id": 96,
          "name": "",
          "type": "obj_ring_spawner",
          "gid": 249,
          "x": 3144.0,
          "y": 1056.0,
          "width": 16.0,
          "height": 16.0,
          "rotation": -0.0,
          "visible": true
        },
        {
          "id": 97,
          "name": "",
          "type": "obj_ring_spawner",
          "gid": 249,
          "x": 2112.0,
          "y": 908.0,
          "width": 16.0,
          "height": 16.0,
          "rotation": -0.0,
          "visible": true
        },
        {
          "id": 98,
          "name": "",
          "type": "obj_ring_spawner",
          "gid": 249,
          "x": 2415.0,
          "y": 908.0,
          "width": 16.0,
          "height": 16.0,
          "rotation": -0.0,
          "visible": true
        },
        {
          "id": 99,
          "name": "",
          "type": "obj_ring_spawner",
          "gid": 249,
          "x": 592.0,
          "y": 1016.0,
          "width": 16.0,
          "height": 16.0,
          "rotation": -0.0,
          "visible": true
        },
        {
          "id": 100,
          "name": "",
          "type": "obj_ring_spawner",
          "gid": 249,
          "x": 680.0,
          "y": 720.0,
          "width": 16.0,
          "height": 16.0,
          "rotation": -0.0,
          "visible": true
        },
        {
          "id": 101,
          "name": "",
          "type": "obj_ring_spawner",
          "gid": 249,
          "x": 544.0,
          "y": 1016.0,
          "width": 16.0,
          "height": 16.0,
          "rotation": -0.0,
          "visible": true
        },
        {
          "id": 102,
          "name": "",
          "type": "obj_ring_spawner",
          "gid": 249,
          "x": 456.0,
          "y": 720.0,
          "width": 16.0,
          "height": 16.0,
          "rotation": -0.0,
          "visible": true
        },
        {
          "id": 103,
          "name": "",
          "type": "obj_ring_spawner",
          "gid": 249,
          "x": 4672.0,
          "y": 888.0,
          "width": 16.0,
          "height": 16.0,
          "rotation": -0.0,
          "visible": true
        },
        {
          "id": 104,
          "name": "",
          "type": "obj_ring_spawner",
          "gid": 249,
          "x": 4720.0,
          "y": 888.0,
          "width": 16.0,
          "height": 16.0,
          "rotation": -0.0,
          "visible": true
        },
        {
          "id": 105,
          "name": "",
          "type": "obj_ring_spawner",
          "gid": 249,
          "x": 3784.0,
          "y": 544.0,
          "width": 16.0,
          "height": 16.0,
          "rotation": -0.0,
          "visible": true
        },
        {
          "id": 106,
          "name": "",
          "type": "obj_ring_spawner",
          "gid": 249,
          "x": 3848.0,
          "y": 544.0,
          "width": 16.0,
          "height": 16.0,
          "rotation": -0.0,
          "visible": true
        },
        {
          "id": 107,
          "name": "",
          "type": "obj_ring_spawner",
          "gid": 249,
          "x": 4312.0,
          "y": 1056.0,
          "width": 16.0,
          "height": 16.0,
          "rotation": -0.0,
          "visible": true
        },
        {
          "id": 108,
          "name": "",
          "type": "obj_ring_spawner",
          "gid": 249,
          "x": 4128.0,
          "y": 1056.0,
          "width": 16.0,
          "height": 16.0,
          "rotation": -0.0,
          "visible": true
        },
        {
          "id": 109,
          "name": "",
          "type": "obj_ring_spawner",
          "gid": 249,
          "x": 3952.0,
          "y": 1272.0,
          "width": 16.0,
          "height": 16.0,
          "rotation": -0.0,
          "visible": true
        },
        {
          "id": 110,
          "name": "",
          "type": "obj_ring_spawner",
          "gid": 249,
          "x": 3904.0,
          "y": 1272.0,
          "width": 16.0,
          "height": 16.0,
          "rotation": -0.0,
          "visible": true
        },
        {
          "id": 111,
          "name": "",
          "type": "obj_ring_spawner",
          "gid": 249,
          "x": 1648.0,
          "y": 1080.0,
          "width": 16.0,
          "height": 16.0,
          "rotation": -0.0,
          "visible": true
        },
        {
          "id": 112,
          "name": "",
          "type": "obj_ring_spawner",
          "gid": 249,
          "x": 1680.0,
          "y": 1080.0,
          "width": 16.0,
          "height": 16.0,
          "rotation": -0.0,
          "visible": true
        },
        {
          "id": 113,
          "name": "",
          "type": "obj_ring_spawner",
          "gid": 249,
          "x": 1712.0,
          "y": 1080.0,
          "width": 16.0,
          "height": 16.0,
          "rotation": -0.0,
          "visible": true
        },
        {
          "id": 114,
          "name": "",
          "type": "obj_ring_spawner",
          "gid": 249,
          "x": 1176.0,
          "y": 952.0,
          "width": 16.0,
          "height": 16.0,
          "rotation": -0.0,
          "visible": true
        },
        {
          "id": 123,
          "name": "",
          "type": "obj_parallax",
          "gid": 211,
          "x": -8.0,
          "y": -24.0,
          "width": 16.0,
          "height": 16.0,
          "rotation": -0.0,
          "visible": true
        },
        {
          "id": 124,
          "name": "",
          "type": "obj_solid_block",
          "gid": 255,
          "x": 4992.0,
          "y": 0.0,
          "width": 40.0,
          "height": 1664.0,
          "rotation": -0.0,
          "visible": true
        },
        {
          "id": 125,
          "name": "",
          "type": "obj_bspring_right",
          "gid": 33,
          "x": 0.0,
          "y": 1236.0,
          "width": 44.0,
          "height": 44.0,
          "rotation": -0.0,
          "visible": true
        },
        {
          "id": 126,
          "name": "",
          "type": "obj_deathtp",
          "gid": 58,
          "x": 512.0,
          "y": 1422.0477,
          "width": 640.0,
          "height": 23.0,
          "rotation": -0.0,
          "visible": true
        },
        {
          "id": 127,
          "name": "",
          "type": "obj_deathtp_point",
          "gid": 59,
          "x": 464.0,
          "y": 1376.0,
          "width": 32.0,
          "height": 32.0,
          "rotation": -0.0,
          "visible": true
        },
        {
          "id": 128,
          "name": "",
          "type": "obj_deathtp_point",
          "gid": 59,
          "x": 656.0,
          "y": 1344.0,
          "width": 32.0,
          "height": 32.0,
          "rotation": -0.0,
          "visible": true
        },
        {
          "id": 129,
          "name": "",
          "type": "obj_deathtp_point",
          "gid": 59,
          "x": 720.0,
          "y": 1344.0,
          "width": 32.0,
          "height": 32.0,
          "rotation": -0.0,
          "visible": true
        },
        {
          "id": 130,
          "name": "",
          "type": "obj_deathtp_point",
          "gid": 59,
          "x": 912.0,
          "y": 1344.0,
          "width": 32.0,
          "height": 32.0,
          "rotation": -0.0,
          "visible": true
        },
        {
          "id": 131,
          "name": "",
          "type": "obj_deathtp_point",
          "gid": 59,
          "x": 976.0,
          "y": 1344.0,
          "width": 32.0,
          "height": 32.0,
          "rotation": -0.0,
          "visible": true
        },
        {
          "id": 132,
          "name": "",
          "type": "obj_deathtp_point",
          "gid": 59,
          "x": 1168.0,
          "y": 1312.0,
          "width": 32.0,
          "height": 32.0,
          "rotation": -0.0,
          "visible": true
        },
        {
          "id": 133,
          "name": "",
          "type": "obj_deathtp_point",
          "gid": 59,
          "x": 1624.0,
          "y": 1376.0,
          "width": 32.0,
          "height": 32.0,
          "rotation": -0.0,
          "visible": true
        },
        {
          "id": 134,
          "name": "",
          "type": "obj_deathtp_point",
          "gid": 59,
          "x": 1408.0,
          "y": 1312.0,
          "width": 32.0,
          "height": 32.0,
          "rotation": -0.0,
          "visible": true
        },
        {
          "id": 135,
          "name": "",
          "type": "obj_deathtp",
          "gid": 58,
          "x": 1440.0,
          "y": 1416.0,
          "width": 184.0,
          "height": 16.0,
          "rotation": -0.0,
          "visible": true
        },
        {
          "id": 136,
          "name": "",
          "type": "obj_deathtp_point",
          "gid": 59,
          "x": 1936.0,
          "y": 1504.0,
          "width": 32.0,
          "height": 32.0,
          "rotation": -0.0,
          "visible": true
        },
        {
          "id": 137,
          "name": "",
          "type": "obj_deathtp_point",
          "gid": 59,
          "x": 2256.0,
          "y": 1504.0,
          "width": 32.0,
          "height": 32.0,
          "rotation": -0.0,
          "visible": true
        },
        {
          "id": 138,
          "name": "",
          "type": "obj_deathtp_point",
          "gid": 59,
          "x": 2320.0,
          "y": 1504.0,
          "width": 32.0,
          "height": 32.0,
          "rotation": -0.0,
          "visible": true
        },
        {
          "id": 139,
          "name": "",
          "type": "obj_deathtp_point",
          "gid": 59,
          "x": 2648.0,
          "y": 1504.0,
          "width": 32.0,
          "height": 32.0,
          "rotation": -0.0,
          "visible": true
        },
        {
          "id": 140,
          "name": "",
          "type": "obj_deathtp",
          "gid": 58,
          "x": 1984.0,
          "y": 1552.0,
          "width": 256.0,
          "height": 12.0,
          "rotation": -0.0,
          "visible": true
        },
        {
          "id": 141,
          "name": "",
          "type": "obj_deathtp",
          "gid": 58,
          "x": 2368.0,
          "y": 1552.0,
          "width": 256.0,
          "height": 8.0,
          "rotation": -0.0,
          "visible": true
        },
        {
          "id": 142,
          "name": "",
          "type": "obj_deathtp_point",
          "gid": 59,
          "x": 3600.0,
          "y": 1376.0,
          "width": 32.0,
          "height": 32.0,
          "rotation": -0.0,
          "visible": true
        },
        {
          "id": 143,
          "name": "",
          "type": "obj_deathtp_point",
          "gid": 59,
          "x": 3408.0,
          "y": 1376.0,
          "width": 32.0,
          "height": 32.0,
          "rotation": -0.0,
          "visible": true
        },
        {
          "id": 144,
          "name": "",
          "type": "obj_deathtp",
          "gid": 58,
          "x": 3456.0,
          "y": 1423.9706,
          "width": 128.0,
          "height": 16.0,
          "rotation": -0.0,
          "visible": true
        },
        {
          "id": 145,
          "name": "",
          "type": "obj_deathtp",
          "gid": 58,
          "x": 2112.0,
          "y": 992.0,
          "width": 320.0,
          "height": 16.0,
          "rotation": -0.0,
          "visible": true
        },
        {
          "id": 146,
          "name": "",
          "type": "obj_deathtp_point",
          "gid": 59,
          "x": 2448.0,
          "y": 928.0,
          "width": 32.0,
          "height": 32.0,
          "rotation": -0.0,
          "visible": true
        },
        {
          "id": 147,
          "name": "",
          "type": "obj_deathtp_point",
          "gid": 59,
          "x": 2064.0,
          "y": 928.0,
          "width": 32.0,
          "height": 32.0,
          "rotation": -0.0,
          "visible": true
        },
        {
          "id": 148,
          "name": "",
          "type": "obj_angleallower",
          "gid": 19,
          "x": 744.0,
          "y": 752.0,
          "width": 32.0,
          "height": 32.0,
          "rotation": -0.0,
          "visible": true
        },
        {
          "id": 149,
          "name": "",
          "type": "obj_angleallower",
          "gid": 19,
          "x": 4600.0,
          "y": 928.0,
          "width": 32.0,
          "height": 32.0,
          "rotation": -0.0,
          "visible": true
        },
        {
          "id": 150,
          "name": "",
          "type": "obj_angleallower",
          "gid": 19,
          "x": 3880.0,
          "y": 544.0,
          "width": 32.0,
          "height": 32.0,
          "rotation": -0.0,
          "visible": true
        },
        {
          "id": 151,
          "name": "",
          "type": "obj_angleallower",
          "gid": 19,
          "x": 3704.0,
          "y": 800.0,
          "width": 32.0,
          "height": 32.0,
          "rotation": -0.0,
          "visible": true
        },
        {
          "id": 152,
          "name": "",
          "type": "obj_angleallower",
          "gid": 19,
          "x": 2984.0,
          "y": 992.0,
          "width": 32.0,
          "height": 32.0,
          "rotation": -0.0,
          "visible": true
        },
        {
          "id": 153,
          "name": "",
          "type": "obj_angleallower",
          "gid": 19,
          "x": 104.0,
          "y": 1248.0,
          "width": 32.0,
          "height": 32.0,
          "rotation": -0.0,
          "visible": true
        },
        {
          "id": 154,
          "name": "",
          "type": "obj_solid_block",
          "gid": 255,
          "x": 3344.0,
          "y": 1168.0,
          "width": 192.0,
          "height": 112.0,
          "rotation": -0.0,
          "visible": true
        },
        {
          "id": 155,
          "name": "",
          "type": "obj_vv_lavacolumn",
          "gid": 277,
          "x": 1484.0,
          "y": 1388.0,
          "width": 113.0,
          "height": 200.0,
          "rotation": -0.0,
          "visible": true,
          "properties": [
            {
              "name": "nid",
              "type": "float",
              "value": 1.0
            },
            {
              "name": "isHigh",
              "type": "bool",
              "value": true
            }
          ]
        },
        {
          "id": 156,
          "name": "",
          "type": "obj_vv_lavacolumn",
          "gid": 277,
          "x": 520.0,
          "y": 736.0,
          "width": 113.0,
          "height": 200.0,
          "rotation": -0.0,
          "visible": true
        },
        {
          "id": 157,
          "name": "",
          "type": "obj_vv_lavacolumn",
          "gid": 277,
          "x": 4168.0,
          "y": 1084.0,
          "width": 113.0,
          "height": 200.0,
          "rotation": -0.0,
          "visible": true,
          "properties": [
            {
              "name": "nid",
              "type": "float",
              "value": 3.0
            },
            {
              "name": "isHigh",
              "type": "bool",
              "value": true
            }
          ]
        },
        {
          "id": 158,
          "name": "",
          "type": "obj_vv_lavacolumn",
          "gid": 277,
          "x": 2820.0,
          "y": 1524.0,
          "width": 113.0,
          "height": 200.0,
          "rotation": -0.0,
          "visible": true,
          "properties": [
            {
              "name": "nid",
              "type": "float",
              "value": 2.0
            },
            {
              "name": "isHigh",
              "type": "bool",
              "value": true
            }
          ]
        },
        {
          "id": 159,
          "name": "",
          "type": "obj_solid_block",
          "gid": 255,
          "x": 4160.0,
          "y": 1176.0,
          "width": 128.0,
          "height": 168.0,
          "rotation": -0.0,
          "visible": true
        },
        {
          "id": 160,
          "name": "",
          "type": "obj_solid_block",
          "gid": 255,
          "x": 512.0,
          "y": 795.0,
          "width": 128.0,
          "height": 165.0,
          "rotation": -0.0,
          "visible": true
        },
        {
          "id": 161,
          "name": "",
          "type": "obj_deathtp_point",
          "gid": 59,
          "x": 448.0,
          "y": 752.0,
          "width": 32.0,
          "height": 32.0,
          "rotation": -0.0,
          "visible": true
        },
        {
          "id": 162,
          "name": "",
          "type": "obj_deathtp_point",
          "gid": 59,
          "x": 672.0,
          "y": 752.0,
          "width": 32.0,
          "height": 32.0,
          "rotation": -0.0,
          "visible": true
        },
        {
          "id": 163,
          "name": "",
          "type": "obj_solid_block",
          "gid": 255,
          "x": 1472.0,
          "y": 1423.0,
          "width": 127.0,
          "height": 252.0,
          "rotation": -0.0,
          "visible": true
        },
        {
          "id": 164,
          "name": "",
          "type": "obj_solid_block",
          "gid": 255,
          "x": 2816.0,
          "y": 1551.0,
          "width": 128.0,
          "height": 249.0,
          "rotation": -0.0,
          "visible": true
        },
        {
          "id": 165,
          "name": "",
          "type": "obj_solid_block",
          "gid": 255,
          "x": 4160.0,
          "y": 1107.7958,
          "width": 128.0,
          "height": 556.249984,
          "rotation": -0.0,
          "visible": true
        },
        {
          "id": 166,
          "name": "",
          "type": "obj_damage",
          "gid": 49,
          "x": 1472.0,
          "y": 1420.0,
          "width": 128.0,
          "height": 4.0,
          "rotation": -0.0,
          "visible": true
        },
        {
          "id": 167,
          "name": "",
          "type": "obj_damage",
          "gid": 49,
          "x": 2816.0,
          "y": 1547.0,
          "width": 128.0,
          "height": 5.0,
          "rotation": -0.0,
          "visible": true
        },
        {
          "id": 168,
          "name": "",
          "type": "obj_deathtp_point",
          "gid": 59,
          "x": 2768.0,
          "y": 1504.0,
          "width": 32.0,
          "height": 32.0,
          "rotation": -0.0,
          "visible": true
        },
        {
          "id": 169,
          "name": "",
          "type": "obj_deathtp_point",
          "gid": 59,
          "x": 2976.0,
          "y": 1504.0,
          "width": 32.0,
          "height": 32.0,
          "rotation": -0.0,
          "visible": true
        },
        {
          "id": 170,
          "name": "",
          "type": "obj_damage",
          "gid": 49,
          "x": 4160.0,
          "y": 1108.0,
          "width": 128.0,
          "height": 4.0,
          "rotation": -0.0,
          "visible": true
        },
        {
          "id": 171,
          "name": "",
          "type": "obj_deathtp_point",
          "gid": 59,
          "x": 4116.0,
          "y": 1056.0,
          "width": 32.0,
          "height": 32.0,
          "rotation": -0.0,
          "visible": true
        },
        {
          "id": 172,
          "name": "",
          "type": "obj_deathtp_point",
          "gid": 59,
          "x": 4300.0,
          "y": 1056.0,
          "width": 32.0,
          "height": 32.0,
          "rotation": -0.0,
          "visible": true
        },
        {
          "id": 173,
          "name": "",
          "type": "obj_deathtp",
          "gid": 58,
          "x": 1472.0,
          "y": 1414.0,
          "width": 128.0,
          "height": 12.0,
          "rotation": -0.0,
          "visible": true
        },
        {
          "id": 174,
          "name": "",
          "type": "obj_deathtp",
          "gid": 58,
          "x": 2816.0,
          "y": 1542.0,
          "width": 128.0,
          "height": 12.0,
          "rotation": -0.0,
          "visible": true
        },
        {
          "id": 175,
          "name": "",
          "type": "obj_deathtp",
          "gid": 58,
          "x": 4160.0,
          "y": 1102.0,
          "width": 128.0,
          "height": 12.0,
          "rotation": -0.0,
          "visible": true
        },
        {
          "id": 176,
          "name": "",
          "type": "obj_vv_vase",
          "gid": 278,
          "x": 180.0,
          "y": 752.0,
          "width": 24.0,
          "height": 32.0,
          "rotation": -0.0,
          "visible": true
        },
        {
          "id": 177,
          "name": "",
          "type": "obj_vv_vase",
          "gid": 278,
          "x": 684.0,
          "y": 1056.0,
          "width": 24.0,
          "height": 32.0,
          "rotation": -0.0,
          "visible": true,
          "properties": [
            {
              "name": "nid",
              "type": "float",
              "value": 1.0
            }
          ]
        },
        {
          "id": 178,
          "name": "",
          "type": "obj_vv_vase",
          "gid": 278,
          "x": 740.0,
          "y": 1056.0,
          "width": 24.0,
          "height": 32.0,
          "rotation": -0.0,
          "visible": true,
          "properties": [
            {
              "name": "nid",
              "type": "float",
              "value": 2.0
            }
          ]
        },
        {
          "id": 179,
          "name": "",
          "type": "obj_vv_vase",
          "gid": 278,
          "x": 796.0,
          "y": 1056.0,
          "width": 24.0,
          "height": 32.0,
          "rotation": -0.0,
          "visible": true,
          "properties": [
            {
              "name": "nid",
              "type": "float",
              "value": 3.0
            }
          ]
        },
        {
          "id": 180,
          "name": "",
          "type": "obj_vv_vase",
          "gid": 278,
          "x": 1096.0,
          "y": 960.0,
          "width": 24.0,
          "height": 32.0,
          "rotation": -0.0,
          "visible": true,
          "properties": [
            {
              "name": "nid",
              "type": "float",
              "value": 4.0
            }
          ]
        },
        {
          "id": 181,
          "name": "",
          "type": "obj_vv_vase",
          "gid": 278,
          "x": 1276.0,
          "y": 1312.0,
          "width": 24.0,
          "height": 32.0,
          "rotation": -0.0,
          "visible": true,
          "properties": [
            {
              "name": "nid",
              "type": "float",
              "value": 5.0
            }
          ]
        },
        {
          "id": 182,
          "name": "",
          "type": "obj_vv_vase",
          "gid": 278,
          "x": 1560.0,
          "y": 1072.0,
          "width": 24.0,
          "height": 32.0,
          "rotation": -0.0,
          "visible": true,
          "properties": [
            {
              "name": "nid",
              "type": "float",
              "value": 6.0
            }
          ]
        },
        {
          "id": 183,
          "name": "",
          "type": "obj_vv_vase",
          "gid": 278,
          "x": 1600.0,
          "y": 1072.0,
          "width": 24.0,
          "height": 32.0,
          "rotation": -0.0,
          "visible": true,
          "properties": [
            {
              "name": "nid",
              "type": "float",
              "value": 7.0
            }
          ]
        },
        {
          "id": 184,
          "name": "",
          "type": "obj_vv_vase",
          "gid": 278,
          "x": 1780.0,
          "y": 1072.0,
          "width": 24.0,
          "height": 32.0,
          "rotation": -0.0,
          "visible": true,
          "properties": [
            {
              "name": "nid",
              "type": "float",
              "value": 8.0
            }
          ]
        },
        {
          "id": 185,
          "name": "",
          "type": "obj_vv_vase",
          "gid": 278,
          "x": 3364.0,
          "y": 1136.0,
          "width": 24.0,
          "height": 32.0,
          "rotation": -0.0,
          "visible": true,
          "properties": [
            {
              "name": "nid",
              "type": "float",
              "value": 9.0
            }
          ]
        },
        {
          "id": 186,
          "name": "",
          "type": "obj_vv_vase",
          "gid": 278,
          "x": 3696.0,
          "y": 1376.0,
          "width": 24.0,
          "height": 32.0,
          "rotation": -0.0,
          "visible": true,
          "properties": [
            {
              "name": "nid",
              "type": "float",
              "value": 10.0
            }
          ]
        },
        {
          "id": 187,
          "name": "",
          "type": "obj_vv_vase",
          "gid": 278,
          "x": 4652.0,
          "y": 928.0,
          "width": 24.0,
          "height": 32.0,
          "rotation": -0.0,
          "visible": true,
          "properties": [
            {
              "name": "nid",
              "type": "float",
              "value": 11.0
            }
          ]
        },
        {
          "id": 188,
          "name": "",
          "type": "obj_vv_vase",
          "gid": 278,
          "x": 4732.0,
          "y": 928.0,
          "width": 24.0,
          "height": 32.0,
          "rotation": -0.0,
          "visible": true,
          "properties": [
            {
              "name": "nid",
              "type": "float",
              "value": 12.0
            }
          ]
        },
        {
          "id": 189,
          "name": "",
          "type": "obj_vv_vase",
          "gid": 278,
          "x": 4360.0,
          "y": 736.0,
          "width": 24.0,
          "height": 32.0,
          "rotation": -0.0,
          "visible": true,
          "properties": [
            {
              "name": "nid",
              "type": "float",
              "value": 13.0
            }
          ]
        },
        {
          "id": 191,
          "name": "",
          "type": "obj_damage",
          "gid": 49,
          "x": 512.0,
          "y": 793.0,
          "width": 128.0,
          "height": 17.0,
          "rotation": -0.0,
          "visible": true
        },
        {
          "id": 192,
          "name": "",
          "type": "obj_angleanuller",
          "gid": 20,
          "x": 4160.0,
          "y": 1092.0,
          "width": 128.0,
          "height": 20.0,
          "rotation": -0.0,
          "visible": true
        },
        {
          "id": 193,
          "name": "",
          "type": "obj_angleanuller",
          "gid": 20,
          "x": 3456.0,
          "y": 1408.0,
          "width": 128.0,
          "height": 28.0,
          "rotation": -0.0,
          "visible": true
        },
        {
          "id": 194,
          "name": "",
          "type": "obj_angleanuller",
          "gid": 20,
          "x": 1984.0,
          "y": 1540.0,
          "width": 640.0,
          "height": 16.0,
          "rotation": -0.0,
          "visible": true
        },
        {
          "id": 195,
          "name": "",
          "type": "obj_angleanuller",
          "gid": 20,
          "x": 1464.0,
          "y": 1408.0,
          "width": 135.0,
          "height": 16.0,
          "rotation": -0.0,
          "visible": true
        },
        {
          "id": 196,
          "name": "",
          "type": "obj_angleanuller",
          "gid": 20,
          "x": 512.0,
          "y": 1408.0,
          "width": 640.0,
          "height": 36.0,
          "rotation": -0.0,
          "visible": true
        },
        {
          "id": 197,
          "name": "",
          "type": "obj_angleanuller_eggsafe",
          "gid": 21,
          "x": 480.0,
          "y": 1376.0,
          "width": 40.0,
          "height": 32.0,
          "rotation": -0.0,
          "visible": true
        },
        {
          "id": 198,
          "name": "",
          "type": "obj_angleanuller_eggsafe",
          "gid": 21,
          "x": 1591.0,
          "y": 1376.0,
          "width": 40.0,
          "height": 32.0,
          "rotation": -0.0,
          "visible": true
        },
        {
          "id": 199,
          "name": "",
          "type": "obj_angleanuller_eggsafe",
          "gid": 21,
          "x": 1952.0,
          "y": 1504.0,
          "width": 40.0,
          "height": 32.0,
          "rotation": -0.0,
          "visible": true
        },
        {
          "id": 200,
          "name": "",
          "type": "obj_angleanuller_eggsafe",
          "gid": 21,
          "x": 2616.0,
          "y": 1504.0,
          "width": 40.0,
          "height": 32.0,
          "rotation": -0.0,
          "visible": true
        },
        {
          "id": 201,
          "name": "",
          "type": "obj_angleanuller_eggsafe",
          "gid": 21,
          "x": 2784.0,
          "y": 1504.0,
          "width": 40.0,
          "height": 32.0,
          "rotation": -0.0,
          "visible": true
        },
        {
          "id": 202,
          "name": "",
          "type": "obj_angleanuller_eggsafe",
          "gid": 21,
          "x": 2936.0,
          "y": 1504.0,
          "width": 40.0,
          "height": 32.0,
          "rotation": -0.0,
          "visible": true
        },
        {
          "id": 203,
          "name": "",
          "type": "obj_angleanuller",
          "gid": 20,
          "x": 2816.0,
          "y": 1536.0,
          "width": 128.0,
          "height": 16.0,
          "rotation": -0.0,
          "visible": true
        },
        {
          "id": 204,
          "name": "",
          "type": "obj_angleanuller_eggsafe",
          "gid": 21,
          "x": 3576.0,
          "y": 1376.0,
          "width": 40.0,
          "height": 32.0,
          "rotation": -0.0,
          "visible": true
        },
        {
          "id": 205,
          "name": "",
          "type": "obj_angleanuller_eggsafe",
          "gid": 21,
          "x": 3424.0,
          "y": 1376.0,
          "width": 40.0,
          "height": 32.0,
          "rotation": -0.0,
          "visible": true
        },
        {
          "id": 206,
          "name": "",
          "type": "obj_angleanuller",
          "gid": 20,
          "x": 512.0,
          "y": 784.0,
          "width": 128.0,
          "height": 24.0,
          "rotation": -0.0,
          "visible": true
        },
        {
          "id": 207,
          "name": "",
          "type": "obj_angleanuller_eggsafe",
          "gid": 21,
          "x": 480.0,
          "y": 752.0,
          "width": 40.0,
          "height": 32.0,
          "rotation": -0.0,
          "visible": true
        },
        {
          "id": 208,
          "name": "",
          "type": "obj_angleanuller_eggsafe",
          "gid": 21,
          "x": 632.0,
          "y": 752.0,
          "width": 40.0,
          "height": 32.0,
          "rotation": -0.0,
          "visible": true
        },
        {
          "id": 209,
          "name": "",
          "type": "obj_angleanuller",
          "gid": 20,
          "x": 2112.0,
          "y": 964.0,
          "width": 320.0,
          "height": 32.0,
          "rotation": -0.0,
          "visible": true
        },
        {
          "id": 210,
          "name": "",
          "type": "obj_angleanuller_eggsafe",
          "gid": 21,
          "x": 2080.0,
          "y": 928.0,
          "width": 40.0,
          "height": 32.0,
          "rotation": -0.0,
          "visible": true
        },
        {
          "id": 211,
          "name": "",
          "type": "obj_angleanuller_eggsafe",
          "gid": 21,
          "x": 2424.0,
          "y": 928.0,
          "width": 40.0,
          "height": 32.0,
          "rotation": -0.0,
          "visible": true
        },
        {
          "id": 212,
          "name": "",
          "type": "obj_angleanuller_eggsafe",
          "gid": 21,
          "x": 4280.0,
          "y": 1056.0,
          "width": 40.0,
          "height": 32.0,
          "rotation": -0.0,
          "visible": true
        },
        {
          "id": 213,
          "name": "",
          "type": "obj_angleanuller_eggsafe",
          "gid": 21,
          "x": 4128.0,
          "y": 1056.0,
          "width": 40.0,
          "height": 32.0,
          "rotation": -0.0,
          "visible": true
        },
        {
          "id": 215,
          "name": "",
          "type": "obj_angleanuller_eggsafe",
          "gid": 21,
          "x": 2216.0,
          "y": 1504.0,
          "width": 40.0,
          "height": 32.0,
          "rotation": -0.0,
          "visible": true
        },
        {
          "id": 216,
          "name": "",
          "type": "obj_angleanuller_eggsafe",
          "gid": 21,
          "x": 2352.0,
          "y": 1504.0,
          "width": 40.0,
          "height": 32.0,
          "rotation": -0.0,
          "visible": true
        },
        {
          "id": 217,
          "name": "",
          "type": "obj_solid_block",
          "gid": 255,
          "x": 0.0,
          "y": 804.0,
          "width": 256.0,
          "height": 156.0,
          "rotation": -0.0,
          "visible": true
        },
        {
          "id": 218,
          "name": "",
          "type": "obj_angleanuller",
          "gid": 20,
          "x": 0.0,
          "y": 784.0,
          "width": 128.0,
          "height": 24.0,
          "rotation": -0.0,
          "visible": true
        },
        {
          "id": 219,
          "name": "",
          "type": "obj_angleanuller_eggsafe",
          "gid": 21,
          "x": 128.0,
          "y": 752.0,
          "width": 40.0,
          "height": 32.0,
          "rotation": -0.0,
          "visible": true
        },
        {
          "id": 220,
          "name": "",
          "type": "obj_damage",
          "gid": 49,
          "x": 0.0,
          "y": 792.0,
          "width": 128.0,
          "height": 17.0,
          "rotation": -0.0,
          "visible": true
        },
        {
          "id": 221,
          "name": "",
          "type": "obj_deathtp",
          "gid": 58,
          "x": 512.0,
          "y": 790.0,
          "width": 128.0,
          "height": 12.0,
          "rotation": -0.0,
          "visible": true
        },
        {
          "id": 222,
          "name": "",
          "type": "obj_deathtp",
          "gid": 58,
          "x": 0.0,
          "y": 790.0,
          "width": 128.0,
          "height": 12.0,
          "rotation": -0.0,
          "visible": true
        },
        {
          "id": 223,
          "name": "",
          "type": "obj_deathtp_point",
          "gid": 59,
          "x": 136.0,
          "y": 752.0,
          "width": 32.0,
          "height": 32.0,
          "rotation": -0.0,
          "visible": true
        },
        {
          "id": 224,
          "name": "",
          "type": "obj_solid_block",
          "gid": 255,
          "x": 3137.0,
          "y": 1472.0,
          "width": 130.0,
          "height": 192.0,
          "rotation": -0.0,
          "visible": true
        },
        {
          "id": 225,
          "name": "",
          "type": "obj_solid_block",
          "gid": 255,
          "x": 1672.0,
          "y": 1480.0,
          "width": 132.0,
          "height": 56.00000384,
          "rotation": -0.0,
          "visible": true
        },
        {
          "id": 226,
          "name": "",
          "type": "obj_solid_block",
          "gid": 255,
          "x": 1672.0,
          "y": 1452.0,
          "width": 80.0,
          "height": 28.00000512,
          "rotation": -0.0,
          "visible": true
        },
        {
          "id": 227,
          "name": "",
          "type": "obj_solid_block",
          "gid": 255,
          "x": 3193.0,
          "y": 1444.0,
          "width": 72.0,
          "height": 28.00000512,
          "rotation": -0.0,
          "visible": true
        },
        {
          "id": 228,
          "name": "",
          "type": "obj_solid_block",
          "gid": 255,
          "x": 1804.0,
          "y": 1508.0,
          "width": 58.0,
          "height": 28.00000512,
          "rotation": -0.0,
          "visible": true
        },
        {
          "id": 229,
          "name": "",
          "type": "obj_solid_block",
          "gid": 255,
          "x": 4416.0,
          "y": 1088.0,
          "width": 191.9999872,
          "height": 576.0,
          "rotation": -0.0,
          "visible": true
        },
        {
          "id": 230,
          "name": "",
          "type": "obj_solid_block",
          "gid": 255,
          "x": 0.0,
          "y": 1400.0,
          "width": 308.0,
          "height": 264.0,
          "rotation": -0.0,
          "visible": true
        },
        {
          "id": 231,
          "name": "",
          "type": "obj_solid_block2",
          "gid": 256,
          "x": -28.0,
          "y": 0.0,
          "width": 28.0,
          "height": 1664.0,
          "rotation": -0.0,
          "visible": true
        }
      ],
      "properties": [
        {
          "name": "depth",
          "type": "int",
          "value": 0
        },
        {
          "name": "effect",
          "type": "string",
          "value": "_filter_heathaze"
        },
        {
          "name": "effect.g_Distort1Speed",
          "type": "float",
          "value": 0.01
        },
        {
          "name": "effect.g_Distort2Speed",
          "type": "float",
          "value": 0.025
        },
        {
          "name": "effect.g_Distort1Scale",
          "type": "float",
          "value": 1.3
        },
        {
          "name": "effect.g_Distort2Scale",
          "type": "float",
          "value": 3.3
        },
        {
          "name": "effect.g_Distort1Amount",
          "type": "float",
          "value": 1.0
        },
        {
          "name": "effect.g_Distort2Amount",
          "type": "float",
          "value": 2.0
        },
        {
          "name": "effect.g_ChromaSpreadAmount",
          "type": "float",
          "value": 0.5
        },
        {
          "name": "effect.g_CamOffsetScale",
          "type": "float",
          "value": 1.0
        },
        {
          "name": "effect.g_DistortTexture",
          "type": "string",
          "value": "_filter_heathaze_noise_sprite"
        }
      ]
    },
    {
      "type": "objectgroup",
      "id": 12,
      "name": "TilesFore",
      "draworder": "index",
      "opacity": 1.0,
      "visible": true,
      "x": 0,
      "y": 0,
      "objects": [],
      "properties": [
        {
          "name": "depth",
          "type": "int",
          "value": -10
        },
        {
          "name": "effect",
          "type": "string",
          "value": "_filter_heathaze"
        },
        {
          "name": "effect.g_Distort1Speed",
          "type": "float",
          "value": 0.01
        },
        {
          "name": "effect.g_Distort2Speed",
          "type": "float",
          "value": 0.025
        },
        {
          "name": "effect.g_Distort1Scale",
          "type": "float",
          "value": 1.3
        },
        {
          "name": "effect.g_Distort2Scale",
          "type": "float",
          "value": 3.3
        },
        {
          "name": "effect.g_Distort1Amount",
          "type": "float",
          "value": 1.0
        },
        {
          "name": "effect.g_Distort2Amount",
          "type": "float",
          "value": 2.0
        },
        {
          "name": "effect.g_ChromaSpreadAmount",
          "type": "float",
          "value": 0.5
        },
        {
          "name": "effect.g_CamOffsetScale",
          "type": "float",
          "value": 1.0
        },
        {
          "name": "effect.g_DistortTexture",
          "type": "string",
          "value": "_filter_heathaze_noise_sprite"
        }
      ]
    },
    {
      "type": "objectgroup",
      "id": 16,
      "name": "LevelArt vv_tiles3",
      "draworder": "index",
      "opacity": 1.0,
      "visible": true,
      "x": 0,
      "y": 0,
      "objects": [
        {
          "id": 259,
          "name": "",
          "type": "",
          "gid": 10861,
          "x": 0.0,
          "y": 0.0,
          "width": 1248.0,
          "height": 1664.0,
          "rotation": -0.0,
          "visible": true,
          "properties": [
            {
              "name": "animation_speed",
              "type": "float",
              "value": 0.0
            }
          ]
        },
        {
          "id": 260,
          "name": "",
          "type": "",
          "gid": 10861,
          "x": 1248.0,
          "y": 0.0,
          "width": 1248.0,
          "height": 1664.0,
          "rotation": -0.0,
          "visible": true,
          "properties": [
            {
              "name": "animation_speed",
              "type": "float",
              "value": 0.0
            },
            {
              "name": "frame",
              "type": "float",
              "value": 1.0
            }
          ]
        },
        {
          "id": 261,
          "name": "",
          "type": "",
          "gid": 10861,
          "x": 2496.0,
          "y": 0.0,
          "width": 1248.0,
          "height": 1664.0,
          "rotation": -0.0,
          "visible": true,
          "properties": [
            {
              "name": "animation_speed",
              "type": "float",
              "value": 0.0
            },
            {
              "name": "frame",
              "type": "float",
              "value": 2.0
            }
          ]
        },
        {
          "id": 262,
          "name": "",
          "type": "",
          "gid": 10861,
          "x": 3744.0,
          "y": 0.0,
          "width": 1248.0,
          "height": 1664.0,
          "rotation": -0.0,
          "visible": true,
          "properties": [
            {
              "name": "animation_speed",
              "type": "float",
              "value": 0.0
            },
            {
              "name": "frame",
              "type": "float",
              "value": 3.0
            }
          ]
        }
      ],
      "properties": [
        {
          "name": "depth",
          "type": "int",
          "value": -10
        },
        {
          "name": "asset_layer",
          "type": "bool",
          "value": true
        }
      ]
    },
    {
      "type": "objectgroup",
      "id": 13,
      "name": "Assets_2",
      "draworder": "index",
      "opacity": 1.0,
      "visible": true,
      "x": 0,
      "y": 0,
      "objects": [
        {
          "id": 245,
          "name": "",
          "type": "",
          "gid": 10855,
          "x": 516.0,
          "y": 848.0,
          "width": 12.0,
          "height": 208.0,
          "rotation": -0.0,
          "visible": true
        },
        {
          "id": 246,
          "name": "",
          "type": "",
          "gid": 10855,
          "x": 623.0,
          "y": 848.0,
          "width": 12.0,
          "height": 208.0,
          "rotation": -0.0,
          "visible": true
        },
        {
          "id": 247,
          "name": "",
          "type": "",
          "gid": 10855,
          "x": 2243.0,
          "y": 1088.0,
          "width": 12.0,
          "height": 208.0,
          "rotation": -0.0,
          "visible": true
        },
        {
          "id": 248,
          "name": "",
          "type": "",
          "gid": 10855,
          "x": 2243.0,
          "y": 1296.0,
          "width": 12.0,
          "height": 208.0,
          "rotation": -0.0,
          "visible": true
        },
        {
          "id": 249,
          "name": "",
          "type": "",
          "gid": 10855,
          "x": 2352.0,
          "y": 1296.0,
          "width": 12.0,
          "height": 208.0,
          "rotation": -0.0,
          "visible": true
        },
        {
          "id": 250,
          "name": "",
          "type": "",
          "gid": 10855,
          "x": 2352.0,
          "y": 1088.0,
          "width": 12.0,
          "height": 208.0,
          "rotation": -0.0,
          "visible": true
        }
      ],
      "properties": [
        {
          "name": "depth",
          "type": "int",
          "value": -11
        },
        {
          "name": "effect",
          "type": "string",
          "value": "_filter_heathaze"
        },
        {
          "name": "effect.g_Distort1Speed",
          "type": "float",
          "value": 0.01
        },
        {
          "name": "effect.g_Distort2Speed",
          "type": "float",
          "value": 0.025
        },
        {
          "name": "effect.g_Distort1Scale",
          "type": "float",
          "value": 1.3
        },
        {
          "name": "effect.g_Distort2Scale",
          "type": "float",
          "value": 3.3
        },
        {
          "name": "effect.g_Distort1Amount",
          "type": "float",
          "value": 1.0
        },
        {
          "name": "effect.g_Distort2Amount",
          "type": "float",
          "value": 2.0
        },
        {
          "name": "effect.g_ChromaSpreadAmount",
          "type": "float",
          "value": 0.5
        },
        {
          "name": "effect.g_CamOffsetScale",
          "type": "float",
          "value": 1.0
        },
        {
          "name": "effect.g_DistortTexture",
          "type": "string",
          "value": "_filter_heathaze_noise_sprite"
        },
        {
          "name": "asset_layer",
          "type": "bool",
          "value": true
        }
      ]
    }
  ]
}