{
  "type": "map",
  "version": "1.10",
  "orientation": "orthogonal",
  "renderorder": "right-down",
  "infinite": false,
  "width": 448,
  "height": 288,
  "tilewidth": 8,
  "tileheight": 8,
  "nextlayerid": 9,
  "nextobjectid": 257,
  "properties": [
    {
      "name": "persistent",
      "type": "bool",
      "value": false
    },
    {
      "name": "views_enabled",
      "type": "bool",
      "value": true
    },
    {
      "name": "clear_view_background",
      "type": "bool",
      "value": false
    },
    {
      "name": "view_visible",
      "type": "bool",
      "value": true
    },
    {
      "name": "view_x",
      "type": "int",
      "value": 0
    },
    {
      "name": "view_y",
      "type": "int",
      "value": 0
    },
    {
      "name": "view_width",
      "type": "int",
      "value": 480
    },
    {
      "name": "view_height",
      "type": "int",
      "value": 270
    },
    {
      "name": "port_x",
      "type": "int",
      "value": 0
    },
    {
      "name": "port_y",
      "type": "int",
      "value": 0
    },
    {
      "name": "port_width",
      "type": "int",
      "value": 480
    },
    {
      "name": "port_height",
      "type": "int",
      "value": 270
    }
  ],
  "tilesets": [
    {
      "firstgid": 1,
      "source": "Tilesets/objects.tsj"
    },
    {
      "firstgid": 10000,
      "source": "Tilesets/sprites.tsj"
    }
  ],
  "layers": [
    {
      "type": "imagelayer",
      "id": 1,
      "name": "Background4",
      "image": "../Textures/Zones/YouCantRun/ycr4.png",
      "imagewidth": 768,
      "imageheight": 40,
      "repeatx": true,
      "repeaty": false,
      "offsetx": 0.0,
      "offsety": 256.0,
      "parallaxx": 0.2,
      "parallaxy": 0.0,
      "opacity": 1.0,
      "visible": true,
      "x": 0,
      "y": 0,
      "properties": [
        {
          "name": "depth",
          "type": "int",
          "value": 400
        }
      ]
    },
    {
      "type": "imagelayer",
      "id": 2,
      "name": "Background3",
      "image": "../Textures/Zones/YouCantRun/ycr3.png",
      "imagewidth": 512,
      "imageheight": 80,
      "repeatx": true,
      "repeaty": false,
      "offsetx": 0.0,
      "offsety": 176.0,
      "parallaxx": 0.3,
      "parallaxy": 0.0,
      "opacity": 1.0,
      "visible": true,
      "x": 0,
      "y": 0,
      "properties": [
        {
          "name": "depth",
          "type": "int",
          "value": 300
        }
      ]
    },
    {
      "type": "imagelayer",
      "id": 3,
      "name": "Background2",
      "image": "../Textures/Zones/YouCantRun/ycr2.png",
      "imagewidth": 512,
      "imageheight": 96,
      "repeatx": true,
      "repeaty": false,
      "offsetx": 0.0,
      "offsety": 80.0,
      "parallaxx": 0.4,
      "parallaxy": 0.0,
      "opacity": 1.0,
      "visible": true,
      "x": 0,
      "y": 0,
      "properties": [
        {
          "name": "depth",
          "type": "int",
          "value": 200
        }
      ]
    },
    {
      "type": "imagelayer",
      "id": 4,
      "name": "Background",
      "image": "../Textures/Zones/YouCantRun/ycr.png",
      "imagewidth": 512,
      "imageheight": 80,
      "repeatx": true,
      "repeaty": false,
      "offsetx": 0.0,
      "offsety": 0.0,
      "parallaxx": 0.5,
      "parallaxy": 0.0,
      "opacity": 1.0,
      "visible": true,
      "x": 0,
      "y": 0,
      "properties": [
        {
          "name": "depth",
          "type": "int",
          "value": 100
        }
      ]
    },
    {
      "type": "objectgroup",
      "id": 7,
      "name": "LevelArt ycr_tiles",
      "draworder": "index",
      "opacity": 1.0,
      "visible": true,
      "x": 0,
      "y": 0,
      "objects": [
        {
          "id": 253,
          "name": "",
          "type": "",
          "gid": 10886,
          "x": 0.0,
          "y": 0.0,
          "width": 1792.0,
          "height": 1152.0,
          "rotation": -0.0,
          "visible": true,
          "properties": [
            {
              "name": "animation_speed",
              "type": "float",
              "value": 0.0
            }
          ]
        },
        {
          "id": 254,
          "name": "",
          "type": "",
          "gid": 10886,
          "x": 1792.0,
          "y": 0.0,
          "width": 1792.0,
          "height": 1152.0,
          "rotation": -0.0,
          "visible": true,
          "properties": [
            {
              "name": "animation_speed",
              "type": "float",
              "value": 0.0
            },
            {
              "name": "frame",
              "type": "float",
              "value": 1.0
            }
          ]
        }
      ],
      "properties": [
        {
          "name": "depth",
          "type": "int",
          "value": 90
        },
        {
          "name": "asset_layer",
          "type": "bool",
          "value": true
        }
      ]
    },
    {
      "type": "objectgroup",
      "id": 8,
      "name": "LevelArt ycr_tiles2",
      "draworder": "index",
      "opacity": 1.0,
      "visible": true,
      "x": 0,
      "y": 0,
      "objects": [
        {
          "id": 255,
          "name": "",
          "type": "",
          "gid": 10887,
          "x": 0.0,
          "y": 1152.0,
          "width": 1792.0,
          "height": 1152.0,
          "rotation": -0.0,
          "visible": true,
          "properties": [
            {
              "name": "animation_speed",
              "type": "float",
              "value": 0.0
            }
          ]
        },
        {
          "id": 256,
          "name": "",
          "type": "",
          "gid": 10887,
          "x": 1792.0,
          "y": 1152.0,
          "width": 1792.0,
          "height": 1152.0,
          "rotation": -0.0,
          "visible": true,
          "properties": [
            {
              "name": "animation_speed",
              "type": "float",
              "value": 0.0
            },
            {
              "name": "frame",
              "type": "float",
              "value": 1.0
            }
          ]
        }
      ],
      "properties": [
        {
          "name": "depth",
          "type": "int",
          "value": 90
        },
        {
          "name": "asset_layer",
          "type": "bool",
          "value": true
        }
      ]
    },
    {
      "type": "objectgroup",
      "id": 5,
      "name": "Instances",
      "draworder": "index",
      "opacity": 1.0,
      "visible": true,
      "x": 0,
      "y": 0,
      "objects": [
        {
          "id": 1,
          "name": "",
          "type": "obj_parallax",
          "gid": 211,
          "x": 0.0,
          "y": -16.0,
          "width": 16.0,
          "height": 16.0,
          "rotation": -0.0,
          "visible": true
        },
        {
          "id": 2,
          "name": "",
          "type": "obj_solid_block",
          "gid": 255,
          "x": 2816.0,
          "y": 0.0,
          "width": 768.0,
          "height": 536.0,
          "rotation": -0.0,
          "visible": true
        },
        {
          "id": 3,
          "name": "",
          "type": "obj_solid_block",
          "gid": 255,
          "x": 2720.0,
          "y": 0.0,
          "width": 96.0,
          "height": 848.000064,
          "rotation": 0.03426402,
          "visible": true
        },
        {
          "id": 4,
          "name": "",
          "type": "obj_solid_block",
          "gid": 255,
          "x": 2560.0,
          "y": -4.0,
          "width": 160.0,
          "height": 772.0,
          "rotation": -0.0,
          "visible": true
        },
        {
          "id": 5,
          "name": "",
          "type": "obj_solid_block",
          "gid": 255,
          "x": 2688.0,
          "y": 768.0,
          "width": 32.0,
          "height": 80.0,
          "rotation": -0.0,
          "visible": true
        },
        {
          "id": 6,
          "name": "",
          "type": "obj_solid_block",
          "gid": 255,
          "x": 2816.0,
          "y": 672.0,
          "width": 128.0,
          "height": 128.0,
          "rotation": -0.0,
          "visible": true
        },
        {
          "id": 7,
          "name": "",
          "type": "obj_solid_block",
          "gid": 255,
          "x": 2912.0,
          "y": 896.0,
          "width": 96.0,
          "height": 64.0,
          "rotation": -0.0,
          "visible": true
        },
        {
          "id": 8,
          "name": "",
          "type": "obj_solid_block",
          "gid": 255,
          "x": 3008.0,
          "y": 864.0,
          "width": 580.0,
          "height": 392.0,
          "rotation": -0.0,
          "visible": true
        },
        {
          "id": 9,
          "name": "",
          "type": "obj_solid_block",
          "gid": 255,
          "x": 3072.0,
          "y": 536.0,
          "width": 516.0,
          "height": 328.0,
          "rotation": -0.0,
          "visible": true
        },
        {
          "id": 10,
          "name": "",
          "type": "obj_solid_block",
          "gid": 255,
          "x": 2752.0,
          "y": 928.0,
          "width": 160.0,
          "height": 32.0,
          "rotation": -0.0,
          "visible": true
        },
        {
          "id": 11,
          "name": "",
          "type": "obj_solid_block",
          "gid": 255,
          "x": 2560.0,
          "y": 960.0,
          "width": 64.0,
          "height": 424.0,
          "rotation": -0.0,
          "visible": true
        },
        {
          "id": 12,
          "name": "",
          "type": "obj_solid_block",
          "gid": 255,
          "x": 2624.0,
          "y": 1256.0,
          "width": 960.000064,
          "height": 128.0,
          "rotation": -0.0,
          "visible": true
        },
        {
          "id": 13,
          "name": "",
          "type": "obj_solid_block",
          "gid": 255,
          "x": 3328.0,
          "y": 1384.0,
          "width": 256.0,
          "height": 920.0,
          "rotation": -0.0,
          "visible": true
        },
        {
          "id": 14,
          "name": "",
          "type": "obj_solid_block",
          "gid": 255,
          "x": 3072.0,
          "y": 1888.0,
          "width": 256.0,
          "height": 416.0,
          "rotation": -0.0,
          "visible": true
        },
        {
          "id": 15,
          "name": "",
          "type": "obj_solid_block",
          "gid": 255,
          "x": 2304.0,
          "y": 2048.0,
          "width": 768.0,
          "height": 256.0,
          "rotation": -0.0,
          "visible": true
        },
        {
          "id": 16,
          "name": "",
          "type": "obj_solid_block",
          "gid": 255,
          "x": 2112.0,
          "y": 1984.0,
          "width": 192.0,
          "height": 320.0,
          "rotation": -0.0,
          "visible": true
        },
        {
          "id": 17,
          "name": "",
          "type": "obj_solid_block",
          "gid": 255,
          "x": 1920.0,
          "y": 1952.0,
          "width": 192.0,
          "height": 352.0,
          "rotation": -0.0,
          "visible": true
        },
        {
          "id": 18,
          "name": "",
          "type": "obj_solid_block",
          "gid": 255,
          "x": 1280.0,
          "y": 1984.0,
          "width": 408.0,
          "height": 320.0,
          "rotation": -0.0,
          "visible": true
        },
        {
          "id": 19,
          "name": "",
          "type": "obj_solid_block",
          "gid": 255,
          "x": 1024.0,
          "y": 2016.0,
          "width": 256.0,
          "height": 288.0,
          "rotation": -0.0,
          "visible": true
        },
        {
          "id": 20,
          "name": "",
          "type": "obj_solid_block",
          "gid": 255,
          "x": 1024.0,
          "y": 1984.0,
          "width": 64.0,
          "height": 32.0,
          "rotation": -0.0,
          "visible": true
        },
        {
          "id": 21,
          "name": "",
          "type": "obj_solid_block",
          "gid": 255,
          "x": 1088.0,
          "y": 1952.0,
          "width": 64.0,
          "height": 64.0,
          "rotation": -0.0,
          "visible": true
        },
        {
          "id": 22,
          "name": "",
          "type": "obj_solid_block",
          "gid": 255,
          "x": 1216.0,
          "y": 1920.0,
          "width": 64.0,
          "height": 96.0,
          "rotation": -0.0,
          "visible": true
        },
        {
          "id": 23,
          "name": "",
          "type": "obj_solid_block",
          "gid": 255,
          "x": 896.0,
          "y": 2048.0,
          "width": 128.0,
          "height": 256.0,
          "rotation": -0.0,
          "visible": true
        },
        {
          "id": 24,
          "name": "",
          "type": "obj_solid_block",
          "gid": 255,
          "x": 768.0,
          "y": 2208.0,
          "width": 128.0,
          "height": 96.0,
          "rotation": -0.0,
          "visible": true
        },
        {
          "id": 25,
          "name": "",
          "type": "obj_solid_block",
          "gid": 255,
          "x": 640.0,
          "y": 2112.0,
          "width": 64.0,
          "height": 192.0,
          "rotation": -0.0,
          "visible": true
        },
        {
          "id": 26,
          "name": "",
          "type": "obj_solid_block",
          "gid": 255,
          "x": 704.0,
          "y": 2144.0,
          "width": 64.0,
          "height": 160.0,
          "rotation": -0.0,
          "visible": true
        },
        {
          "id": 27,
          "name": "",
          "type": "obj_solid_block",
          "gid": 255,
          "x": 576.0,
          "y": 2080.0,
          "width": 64.0,
          "height": 224.0,
          "rotation": -0.0,
          "visible": true
        },
        {
          "id": 28,
          "name": "",
          "type": "obj_solid_block",
          "gid": 255,
          "x": 512.0,
          "y": 2048.0,
          "width": 64.0,
          "height": 256.0,
          "rotation": -0.0,
          "visible": true
        },
        {
          "id": 29,
          "name": "",
          "type": "obj_solid_block",
          "gid": 255,
          "x": 256.0,
          "y": 1632.0,
          "width": 256.0,
          "height": 672.0,
          "rotation": -0.0,
          "visible": true
        },
        {
          "id": 30,
          "name": "",
          "type": "obj_solid_block",
          "gid": 255,
          "x": 0.0,
          "y": 768.0,
          "width": 256.0,
          "height": 1536.000128,
          "rotation": -0.0,
          "visible": true
        },
        {
          "id": 31,
          "name": "",
          "type": "obj_solid_block",
          "gid": 255,
          "x": 256.0,
          "y": 1216.0,
          "width": 512.0,
          "height": 176.0000128,
          "rotation": -0.0,
          "visible": true
        },
        {
          "id": 32,
          "name": "",
          "type": "obj_solid_block",
          "gid": 255,
          "x": 768.0,
          "y": 1440.0,
          "width": 128.0,
          "height": 128.0,
          "rotation": -0.0,
          "visible": true
        },
        {
          "id": 33,
          "name": "",
          "type": "obj_solid_block",
          "gid": 255,
          "x": 640.0,
          "y": 1632.0,
          "width": 128.0,
          "height": 384.0,
          "rotation": -0.0,
          "visible": true
        },
        {
          "id": 34,
          "name": "",
          "type": "obj_solid_block",
          "gid": 255,
          "x": 768.0,
          "y": 1632.0,
          "width": 64.0,
          "height": 272.0,
          "rotation": -0.0,
          "visible": true
        },
        {
          "id": 35,
          "name": "",
          "type": "obj_platform_jumptrough",
          "gid": 221,
          "x": 576.0,
          "y": 1960.0,
          "width": 64.0,
          "height": 32.0,
          "rotation": -0.0,
          "visible": true
        },
        {
          "id": 36,
          "name": "",
          "type": "obj_solid_block",
          "gid": 255,
          "x": 960.0,
          "y": 1664.0,
          "width": 64.0,
          "height": 240.0,
          "rotation": -0.0,
          "visible": true
        },
        {
          "id": 37,
          "name": "",
          "type": "obj_solid_block",
          "gid": 255,
          "x": 832.0,
          "y": 1712.0,
          "width": 128.0,
          "height": 192.0,
          "rotation": -0.0,
          "visible": true
        },
        {
          "id": 38,
          "name": "",
          "type": "obj_solid_block",
          "gid": 255,
          "x": 1024.0,
          "y": 1440.0,
          "width": 256.0,
          "height": 432.0,
          "rotation": -0.0,
          "visible": true
        },
        {
          "id": 39,
          "name": "",
          "type": "obj_solid_block",
          "gid": 255,
          "x": 1120.0,
          "y": 1408.0,
          "width": 160.0,
          "height": 32.0,
          "rotation": -0.0,
          "visible": true
        },
        {
          "id": 40,
          "name": "",
          "type": "obj_solid_block",
          "gid": 255,
          "x": 1280.0,
          "y": 1376.0,
          "width": 128.0,
          "height": 192.0,
          "rotation": -0.0,
          "visible": true
        },
        {
          "id": 41,
          "name": "",
          "type": "obj_solid_block",
          "gid": 255,
          "x": 1216.0,
          "y": 1376.0,
          "width": 64.0,
          "height": 32.0,
          "rotation": -0.0,
          "visible": true
        },
        {
          "id": 42,
          "name": "",
          "type": "obj_solid_block",
          "gid": 255,
          "x": 1728.0,
          "y": 1408.0,
          "width": 64.0,
          "height": 416.0,
          "rotation": -0.0,
          "visible": true
        },
        {
          "id": 43,
          "name": "",
          "type": "obj_solid_block",
          "gid": 255,
          "x": 1536.0,
          "y": 1568.0,
          "width": 64.0,
          "height": 256.0,
          "rotation": -0.0,
          "visible": true
        },
        {
          "id": 44,
          "name": "",
          "type": "obj_solid_block",
          "gid": 255,
          "x": 1792.0,
          "y": 1536.0,
          "width": 64.0,
          "height": 288.0,
          "rotation": -0.0,
          "visible": true
        },
        {
          "id": 45,
          "name": "",
          "type": "obj_solid_block",
          "gid": 255,
          "x": 1856.0,
          "y": 1568.0,
          "width": 64.0,
          "height": 256.0,
          "rotation": -0.0,
          "visible": true
        },
        {
          "id": 46,
          "name": "",
          "type": "obj_solid_block",
          "gid": 255,
          "x": 1920.0,
          "y": 1600.0,
          "width": 64.0,
          "height": 224.0000128,
          "rotation": -0.0,
          "visible": true
        },
        {
          "id": 47,
          "name": "",
          "type": "obj_solid_block",
          "gid": 255,
          "x": 1984.0,
          "y": 1632.0,
          "width": 320.0,
          "height": 192.0,
          "rotation": -0.0,
          "visible": true
        },
        {
          "id": 48,
          "name": "",
          "type": "obj_solid_block",
          "gid": 255,
          "x": 1408.0,
          "y": 1696.0,
          "width": 128.0,
          "height": 144.0,
          "rotation": -0.0,
          "visible": true
        },
        {
          "id": 49,
          "name": "",
          "type": "obj_solid_block",
          "gid": 255,
          "x": 2304.0,
          "y": 1696.0,
          "width": 96.0,
          "height": 128.0,
          "rotation": -0.0,
          "visible": true
        },
        {
          "id": 50,
          "name": "",
          "type": "obj_solid_block",
          "gid": 255,
          "x": 2400.0,
          "y": 1664.0,
          "width": 96.0,
          "height": 160.0,
          "rotation": -0.0,
          "visible": true
        },
        {
          "id": 51,
          "name": "",
          "type": "obj_solid_block",
          "gid": 255,
          "x": 2496.0,
          "y": 1632.0,
          "width": 64.0,
          "height": 192.0,
          "rotation": -0.0,
          "visible": true
        },
        {
          "id": 52,
          "name": "",
          "type": "obj_solid_block",
          "gid": 255,
          "x": 2560.0,
          "y": 1536.0,
          "width": 256.0,
          "height": 288.0,
          "rotation": -0.0,
          "visible": true
        },
        {
          "id": 53,
          "name": "",
          "type": "obj_solid_block",
          "gid": 255,
          "x": 2176.0,
          "y": 1280.0,
          "width": 128.0,
          "height": 288.0,
          "rotation": -0.0,
          "visible": true
        },
        {
          "id": 54,
          "name": "",
          "type": "obj_solid_block",
          "gid": 255,
          "x": 2304.0,
          "y": 1440.0,
          "width": 128.0,
          "height": 128.0,
          "rotation": -0.0,
          "visible": true
        },
        {
          "id": 55,
          "name": "",
          "type": "obj_solid_block",
          "gid": 255,
          "x": 896.0,
          "y": 1184.0,
          "width": 640.0,
          "height": 96.0,
          "rotation": -0.0,
          "visible": true
        },
        {
          "id": 56,
          "name": "",
          "type": "obj_solid_block",
          "gid": 255,
          "x": 384.0,
          "y": 672.0,
          "width": 224.0,
          "height": 464.0,
          "rotation": -0.0,
          "visible": true
        },
        {
          "id": 57,
          "name": "",
          "type": "obj_solid_block",
          "gid": 255,
          "x": 608.0,
          "y": 640.0,
          "width": 96.0,
          "height": 496.0,
          "rotation": -0.0,
          "visible": true
        },
        {
          "id": 58,
          "name": "",
          "type": "obj_solid_block",
          "gid": 255,
          "x": 704.0,
          "y": 608.0,
          "width": 64.0,
          "height": 528.0,
          "rotation": -0.0,
          "visible": true
        },
        {
          "id": 59,
          "name": "",
          "type": "obj_solid_block",
          "gid": 255,
          "x": 768.0,
          "y": 608.0,
          "width": 512.0,
          "height": 272.0,
          "rotation": -0.0,
          "visible": true
        },
        {
          "id": 60,
          "name": "",
          "type": "obj_solid_block",
          "gid": 255,
          "x": 768.0,
          "y": 1008.0,
          "width": 320.0,
          "height": 48.0,
          "rotation": -0.0,
          "visible": true
        },
        {
          "id": 61,
          "name": "",
          "type": "obj_solid_block",
          "gid": 255,
          "x": 960.0,
          "y": 960.0,
          "width": 128.0,
          "height": 48.0,
          "rotation": -0.0,
          "visible": true
        },
        {
          "id": 62,
          "name": "",
          "type": "obj_solid_block",
          "gid": 255,
          "x": 768.0,
          "y": 928.0,
          "width": 64.0,
          "height": 80.0,
          "rotation": -0.0,
          "visible": true
        },
        {
          "id": 63,
          "name": "",
          "type": "obj_solid_block",
          "gid": 255,
          "x": 1216.0,
          "y": 960.0,
          "width": 128.0,
          "height": 224.0,
          "rotation": -0.0,
          "visible": true
        },
        {
          "id": 64,
          "name": "",
          "type": "obj_solid_block",
          "gid": 255,
          "x": 1344.0,
          "y": 960.0,
          "width": 448.0,
          "height": 176.0000128,
          "rotation": -0.0,
          "visible": true
        },
        {
          "id": 65,
          "name": "",
          "type": "obj_solid_block",
          "gid": 255,
          "x": 1792.0,
          "y": 960.0,
          "width": 256.0,
          "height": 96.0,
          "rotation": -0.0,
          "visible": true
        },
        {
          "id": 66,
          "name": "",
          "type": "obj_solid_block",
          "gid": 255,
          "x": 1408.0,
          "y": 512.0,
          "width": 384.0,
          "height": 288.0000256,
          "rotation": -0.0,
          "visible": true
        },
        {
          "id": 67,
          "name": "",
          "type": "obj_solid_block",
          "gid": 255,
          "x": 1408.0,
          "y": 800.0,
          "width": 128.0,
          "height": 80.0,
          "rotation": -0.0,
          "visible": true
        },
        {
          "id": 68,
          "name": "",
          "type": "obj_platform_jumptrough",
          "gid": 221,
          "x": 1376.0,
          "y": 1872.0,
          "width": 32.0,
          "height": 32.0,
          "rotation": -0.0,
          "visible": true
        },
        {
          "id": 69,
          "name": "",
          "type": "obj_platform_jumptrough",
          "gid": 221,
          "x": 1280.0,
          "y": 1800.0,
          "width": 32.0,
          "height": 32.0,
          "rotation": -0.0,
          "visible": true
        },
        {
          "id": 70,
          "name": "",
          "type": "obj_platform_jumptrough",
          "gid": 221,
          "x": 1376.0,
          "y": 1728.0,
          "width": 32.0,
          "height": 32.0,
          "rotation": -0.0,
          "visible": true
        },
        {
          "id": 71,
          "name": "",
          "type": "obj_platform_jumptrough",
          "gid": 221,
          "x": 256.0,
          "y": 1104.0,
          "width": 32.0,
          "height": 32.0,
          "rotation": -0.0,
          "visible": true
        },
        {
          "id": 72,
          "name": "",
          "type": "obj_platform_jumptrough",
          "gid": 221,
          "x": 352.0,
          "y": 1024.0,
          "width": 32.0,
          "height": 32.0,
          "rotation": -0.0,
          "visible": true
        },
        {
          "id": 73,
          "name": "",
          "type": "obj_platform_jumptrough",
          "gid": 221,
          "x": 256.0,
          "y": 936.0,
          "width": 32.0,
          "height": 32.0,
          "rotation": -0.0,
          "visible": true
        },
        {
          "id": 74,
          "name": "",
          "type": "obj_platform_jumptrough",
          "gid": 221,
          "x": 352.0,
          "y": 840.0,
          "width": 32.0,
          "height": 32.0,
          "rotation": -0.0,
          "visible": true
        },
        {
          "id": 75,
          "name": "",
          "type": "obj_platform_jumptrough",
          "gid": 221,
          "x": 256.0,
          "y": 768.0,
          "width": 32.0,
          "height": 32.0,
          "rotation": -0.0,
          "visible": true
        },
        {
          "id": 76,
          "name": "",
          "type": "obj_platform_jumptrough",
          "gid": 221,
          "x": 1280.0,
          "y": 848.0,
          "width": 32.0,
          "height": 32.0,
          "rotation": -0.0,
          "visible": true
        },
        {
          "id": 77,
          "name": "",
          "type": "obj_platform_jumptrough",
          "gid": 221,
          "x": 1376.0,
          "y": 768.0,
          "width": 32.0,
          "height": 32.0,
          "rotation": -0.0,
          "visible": true
        },
        {
          "id": 78,
          "name": "",
          "type": "obj_platform_jumptrough",
          "gid": 221,
          "x": 1280.0,
          "y": 688.0,
          "width": 32.0,
          "height": 32.0,
          "rotation": -0.0,
          "visible": true
        },
        {
          "id": 79,
          "name": "",
          "type": "obj_platform_jumptrough",
          "gid": 221,
          "x": 1376.0,
          "y": 608.0,
          "width": 32.0,
          "height": 32.0,
          "rotation": -0.0,
          "visible": true
        },
        {
          "id": 80,
          "name": "",
          "type": "obj_platform_jumptrough",
          "gid": 221,
          "x": 1376.0,
          "y": 512.0,
          "width": 32.0,
          "height": 32.0,
          "rotation": -0.0,
          "visible": true
        },
        {
          "id": 81,
          "name": "",
          "type": "obj_platform_jumptrough",
          "gid": 221,
          "x": 1088.0,
          "y": 960.0,
          "width": 128.0,
          "height": 32.0,
          "rotation": -0.0,
          "visible": true
        },
        {
          "id": 82,
          "name": "",
          "type": "obj_solid_block",
          "gid": 255,
          "x": 832.0,
          "y": 928.0,
          "width": 133.0,
          "height": 32.0,
          "rotation": 14.0,
          "visible": true
        },
        {
          "id": 83,
          "name": "",
          "type": "obj_solid_block",
          "gid": 255,
          "x": 832.0,
          "y": 1632.0,
          "width": 133.0,
          "height": 32.0,
          "rotation": 14.0,
          "visible": true
        },
        {
          "id": 84,
          "name": "",
          "type": "obj_solid_block",
          "gid": 255,
          "x": 1600.0,
          "y": 1376.0,
          "width": 133.0,
          "height": 32.0,
          "rotation": 14.0,
          "visible": true
        },
        {
          "id": 85,
          "name": "",
          "type": "obj_solid_block",
          "gid": 255,
          "x": 2623.0,
          "y": 960.0,
          "width": 133.0,
          "height": 32.0,
          "rotation": 346.0,
          "visible": true
        },
        {
          "id": 86,
          "name": "",
          "type": "obj_platform_jumptrough",
          "gid": 221,
          "x": 512.0,
          "y": 1632.0,
          "width": 128.0,
          "height": 24.0,
          "rotation": -0.0,
          "visible": true
        },
        {
          "id": 87,
          "name": "",
          "type": "obj_solid_block",
          "gid": 255,
          "x": 1792.0,
          "y": 2207.0,
          "width": 128.0,
          "height": 98.0,
          "rotation": -0.0,
          "visible": true
        },
        {
          "id": 88,
          "name": "",
          "type": "obj_ycr_slope",
          "gid": 295,
          "x": 2048.0,
          "y": 672.0,
          "width": 512.0,
          "height": 96.0,
          "rotation": -0.0,
          "visible": true
        },
        {
          "id": 89,
          "name": "",
          "type": "obj_ycr_slope",
          "gid": 2147483943,
          "x": 1792.0,
          "y": 512.0,
          "width": 512.0,
          "height": 96.0,
          "rotation": -0.0,
          "visible": true
        },
        {
          "id": 90,
          "name": "",
          "type": "obj_ycr_slope",
          "gid": 2147483943,
          "x": 1536.0,
          "y": 1216.0,
          "width": 512.0,
          "height": 96.0,
          "rotation": -0.0,
          "visible": true
        },
        {
          "id": 91,
          "name": "",
          "type": "obj_ycr_slope",
          "gid": 295,
          "x": 2048.0,
          "y": 1088.0,
          "width": 0.0,
          "height": 96.0,
          "rotation": -0.0,
          "visible": true
        },
        {
          "id": 92,
          "name": "",
          "type": "obj_ycr_slope",
          "gid": 295,
          "x": 2560.0,
          "y": 1888.0,
          "width": 512.0,
          "height": 96.0,
          "rotation": -0.0,
          "visible": true
        },
        {
          "id": 93,
          "name": "",
          "type": "obj_ycr_slope",
          "gid": 295,
          "x": 2048.0,
          "y": 1088.0,
          "width": 512.0,
          "height": 96.0,
          "rotation": -0.0,
          "visible": true
        },
        {
          "id": 94,
          "name": "",
          "type": "obj_ycr_slope2",
          "gid": 2147483944,
          "x": 2048.0,
          "y": 960.0,
          "width": 256.0,
          "height": 64.0,
          "rotation": -0.0,
          "visible": true
        },
        {
          "id": 95,
          "name": "",
          "type": "obj_ycr_slope2",
          "gid": 296,
          "x": 3072.0,
          "y": 1632.0,
          "width": 256.0,
          "height": 64.0,
          "rotation": -0.0,
          "visible": true
        },
        {
          "id": 96,
          "name": "",
          "type": "obj_ycr_slope2",
          "gid": 2147483944,
          "x": 2816.0,
          "y": 1728.0,
          "width": 256.0,
          "height": 64.0,
          "rotation": -0.0,
          "visible": true
        },
        {
          "id": 97,
          "name": "",
          "type": "obj_ycr_slope2",
          "gid": 2147483944,
          "x": 2816.0,
          "y": 1536.0,
          "width": 256.0,
          "height": 64.0,
          "rotation": -0.0,
          "visible": true
        },
        {
          "id": 98,
          "name": "",
          "type": "obj_yspring_up",
          "gid": 299,
          "x": 1184.0,
          "y": 1152.0,
          "width": 32.0,
          "height": 32.0,
          "rotation": -0.0,
          "visible": true
        },
        {
          "id": 99,
          "name": "",
          "type": "obj_yspring_up",
          "gid": 299,
          "x": 816.0,
          "y": 1408.0,
          "width": 32.0,
          "height": 32.0,
          "rotation": -0.0,
          "visible": true
        },
        {
          "id": 100,
          "name": "",
          "type": "obj_yspring_up",
          "gid": 299,
          "x": 992.0,
          "y": 1632.0,
          "width": 32.0,
          "height": 32.0,
          "rotation": -0.0,
          "visible": true
        },
        {
          "id": 101,
          "name": "",
          "type": "obj_spring_up",
          "gid": 265,
          "x": 608.0,
          "y": 1928.0,
          "width": 32.0,
          "height": 32.0,
          "rotation": -0.0,
          "visible": true
        },
        {
          "id": 102,
          "name": "",
          "type": "obj_bspring_up",
          "gid": 34,
          "x": 768.0,
          "y": 2176.0,
          "width": 32.0,
          "height": 32.0,
          "rotation": -0.0,
          "visible": true
        },
        {
          "id": 103,
          "name": "",
          "type": "obj_yspring_up",
          "gid": 299,
          "x": 1888.0,
          "y": 2176.0,
          "width": 32.0,
          "height": 32.0,
          "rotation": -0.0,
          "visible": true
        },
        {
          "id": 104,
          "name": "",
          "type": "obj_yspring_up",
          "gid": 299,
          "x": 2304.0,
          "y": 1408.0,
          "width": 32.0,
          "height": 32.0,
          "rotation": -0.0,
          "visible": true
        },
        {
          "id": 105,
          "name": "",
          "type": "obj_yspring_up",
          "gid": 299,
          "x": 2016.0,
          "y": 928.0,
          "width": 32.0,
          "height": 32.0,
          "rotation": -0.0,
          "visible": true
        },
        {
          "id": 106,
          "name": "",
          "type": "obj_bspring_up",
          "gid": 34,
          "x": 3040.0,
          "y": 2016.0,
          "width": 32.0,
          "height": 32.0,
          "rotation": -0.0,
          "visible": true
        },
        {
          "id": 107,
          "name": "",
          "type": "obj_spring_up",
          "gid": 265,
          "x": 308.0,
          "y": 1184.0,
          "width": 32.0,
          "height": 32.0,
          "rotation": -0.0,
          "visible": true
        },
        {
          "id": 108,
          "name": "",
          "type": "obj_spike",
          "gid": 260,
          "x": 1152.0,
          "y": 1984.0,
          "width": 32.0,
          "height": 32.0,
          "rotation": -0.0,
          "visible": true
        },
        {
          "id": 109,
          "name": "",
          "type": "obj_spike",
          "gid": 260,
          "x": 1184.0,
          "y": 1984.0,
          "width": 32.0,
          "height": 32.0,
          "rotation": -0.0,
          "visible": true
        },
        {
          "id": 110,
          "name": "",
          "type": "obj_spike",
          "gid": 260,
          "x": 800.0,
          "y": 2176.0,
          "width": 32.0,
          "height": 32.0,
          "rotation": -0.0,
          "visible": true
        },
        {
          "id": 111,
          "name": "",
          "type": "obj_spike",
          "gid": 260,
          "x": 832.0,
          "y": 2176.0,
          "width": 32.0,
          "height": 32.0,
          "rotation": -0.0,
          "visible": true
        },
        {
          "id": 112,
          "name": "",
          "type": "obj_spike",
          "gid": 260,
          "x": 864.0,
          "y": 2176.0,
          "width": 32.0,
          "height": 32.0,
          "rotation": -0.0,
          "visible": true
        },
        {
          "id": 113,
          "name": "",
          "type": "obj_spike",
          "gid": 260,
          "x": 2528.0,
          "y": 640.0,
          "width": 32.0,
          "height": 32.0,
          "rotation": -0.0,
          "visible": true
        },
        {
          "id": 114,
          "name": "",
          "type": "obj_ringspawn",
          "gid": 251,
          "x": 339.0,
          "y": 1496.0,
          "width": 32.0,
          "height": 32.0,
          "rotation": -0.0,
          "visible": true
        },
        {
          "id": 115,
          "name": "",
          "type": "obj_ringspawn",
          "gid": 251,
          "x": 2855.0,
          "y": 588.0,
          "width": 32.0,
          "height": 32.0,
          "rotation": -0.0,
          "visible": true
        },
        {
          "id": 116,
          "name": "",
          "type": "obj_ringspawn",
          "gid": 251,
          "x": 915.0,
          "y": 524.0,
          "width": 32.0,
          "height": 32.0,
          "rotation": -0.0,
          "visible": true
        },
        {
          "id": 117,
          "name": "",
          "type": "obj_ringspawn",
          "gid": 251,
          "x": 1839.0,
          "y": 2096.0,
          "width": 32.0,
          "height": 32.0,
          "rotation": -0.0,
          "visible": true
        },
        {
          "id": 118,
          "name": "",
          "type": "obj_spawnpoint",
          "gid": 259,
          "x": 1395.0,
          "y": 1952.0,
          "width": 32.0,
          "height": 32.0,
          "rotation": -0.0,
          "visible": true
        },
        {
          "id": 119,
          "name": "",
          "type": "obj_spawnpoint",
          "gid": 259,
          "x": 1231.0,
          "y": 576.0,
          "width": 32.0,
          "height": 32.0,
          "rotation": -0.0,
          "visible": true
        },
        {
          "id": 120,
          "name": "",
          "type": "obj_spawnpoint",
          "gid": 259,
          "x": 1819.0,
          "y": 928.0,
          "width": 32.0,
          "height": 32.0,
          "rotation": -0.0,
          "visible": true
        },
        {
          "id": 121,
          "name": "",
          "type": "obj_spawnpoint",
          "gid": 259,
          "x": 679.0,
          "y": 1600.0,
          "width": 32.0,
          "height": 32.0,
          "rotation": -0.0,
          "visible": true
        },
        {
          "id": 122,
          "name": "",
          "type": "obj_exespawn",
          "gid": 85,
          "x": 599.0,
          "y": 2048.0,
          "width": 32.0,
          "height": 32.0,
          "rotation": -0.0,
          "visible": true
        },
        {
          "id": 123,
          "name": "",
          "type": "obj_exespawn",
          "gid": 85,
          "x": 2879.0,
          "y": 1504.0,
          "width": 32.0,
          "height": 32.0,
          "rotation": -0.0,
          "visible": true
        },
        {
          "id": 124,
          "name": "",
          "type": "obj_exespawn",
          "gid": 85,
          "x": 2867.0,
          "y": 1696.0,
          "width": 32.0,
          "height": 32.0,
          "rotation": -0.0,
          "visible": true
        },
        {
          "id": 125,
          "name": "",
          "type": "obj_exespawn",
          "gid": 85,
          "x": 2247.0,
          "y": 1248.0,
          "width": 32.0,
          "height": 32.0,
          "rotation": -0.0,
          "visible": true
        },
        {
          "id": 126,
          "name": "",
          "type": "obj_spawnpoint",
          "gid": 259,
          "x": 2567.0,
          "y": 928.0,
          "width": 32.0,
          "height": 32.0,
          "rotation": -0.0,
          "visible": true
        },
        {
          "id": 127,
          "name": "",
          "type": "obj_exespawn",
          "gid": 85,
          "x": 419.0,
          "y": 1184.0,
          "width": 32.0,
          "height": 32.0,
          "rotation": -0.0,
          "visible": true
        },
        {
          "id": 136,
          "name": "",
          "type": "obj_movingspike",
          "gid": 195,
          "x": 1506.0,
          "y": 1668.0,
          "width": 30.0,
          "height": 28.0,
          "rotation": -0.0,
          "visible": true
        },
        {
          "id": 137,
          "name": "",
          "type": "obj_movingspike",
          "gid": 195,
          "x": 1796.0,
          "y": 2180.0,
          "width": 30.0,
          "height": 28.0,
          "rotation": -0.0,
          "visible": true
        },
        {
          "id": 138,
          "name": "",
          "type": "obj_movingspike",
          "gid": 195,
          "x": 1826.0,
          "y": 2180.0,
          "width": 30.0,
          "height": 28.0,
          "rotation": -0.0,
          "visible": true
        },
        {
          "id": 139,
          "name": "",
          "type": "obj_movingspike",
          "gid": 195,
          "x": 1856.0,
          "y": 2180.0,
          "width": 30.0,
          "height": 28.0,
          "rotation": -0.0,
          "visible": true
        },
        {
          "id": 140,
          "name": "",
          "type": "obj_movingspike",
          "gid": 195,
          "x": 2307.0,
          "y": 1668.0,
          "width": 30.0,
          "height": 28.0,
          "rotation": -0.0,
          "visible": true
        },
        {
          "id": 141,
          "name": "",
          "type": "obj_movingspike",
          "gid": 195,
          "x": 2336.0,
          "y": 1668.0,
          "width": 30.0,
          "height": 28.0,
          "rotation": -0.0,
          "visible": true
        },
        {
          "id": 142,
          "name": "",
          "type": "obj_movingspike",
          "gid": 195,
          "x": 2367.0,
          "y": 1668.0,
          "width": 30.0,
          "height": 28.0,
          "rotation": -0.0,
          "visible": true
        },
        {
          "id": 143,
          "name": "",
          "type": "obj_movingspike",
          "gid": 195,
          "x": 256.0,
          "y": 1604.0,
          "width": 30.0,
          "height": 28.0,
          "rotation": -0.0,
          "visible": true
        },
        {
          "id": 144,
          "name": "",
          "type": "obj_movingspike",
          "gid": 195,
          "x": 286.0,
          "y": 1604.0,
          "width": 30.0,
          "height": 28.0,
          "rotation": -0.0,
          "visible": true
        },
        {
          "id": 145,
          "name": "",
          "type": "obj_movingspike",
          "gid": 195,
          "x": 316.0,
          "y": 1604.0,
          "width": 30.0,
          "height": 28.0,
          "rotation": -0.0,
          "visible": true
        },
        {
          "id": 146,
          "name": "",
          "type": "obj_movingspike",
          "gid": 195,
          "x": 346.0,
          "y": 1604.0,
          "width": 30.0,
          "height": 28.0,
          "rotation": -0.0,
          "visible": true
        },
        {
          "id": 147,
          "name": "",
          "type": "obj_movingspike",
          "gid": 195,
          "x": 372.0,
          "y": 1604.0,
          "width": 30.0,
          "height": 28.0,
          "rotation": -0.0,
          "visible": true
        },
        {
          "id": 148,
          "name": "",
          "type": "obj_movingspike",
          "gid": 195,
          "x": 402.0,
          "y": 1604.0,
          "width": 30.0,
          "height": 28.0,
          "rotation": -0.0,
          "visible": true
        },
        {
          "id": 149,
          "name": "",
          "type": "obj_movingspike",
          "gid": 195,
          "x": 432.0,
          "y": 1604.0,
          "width": 30.0,
          "height": 28.0,
          "rotation": -0.0,
          "visible": true
        },
        {
          "id": 150,
          "name": "",
          "type": "obj_movingspike",
          "gid": 195,
          "x": 1856.0,
          "y": 1540.0,
          "width": 30.0,
          "height": 28.0,
          "rotation": -0.0,
          "visible": true
        },
        {
          "id": 151,
          "name": "",
          "type": "obj_movingspike",
          "gid": 195,
          "x": 1886.0,
          "y": 1540.0,
          "width": 30.0,
          "height": 28.0,
          "rotation": -0.0,
          "visible": true
        },
        {
          "id": 152,
          "name": "",
          "type": "obj_bspring_up",
          "gid": 34,
          "x": 2528.0,
          "y": 1600.0,
          "width": 32.0,
          "height": 32.0,
          "rotation": -0.0,
          "visible": true
        },
        {
          "id": 153,
          "name": "",
          "type": "obj_angleanuller_eggsafe",
          "gid": 21,
          "x": 1024.0,
          "y": 1288.0,
          "width": 272.0,
          "height": 196.0,
          "rotation": -0.0,
          "visible": true
        },
        {
          "id": 154,
          "name": "",
          "type": "obj_angleanuller_eggsafe",
          "gid": 21,
          "x": 512.0,
          "y": 1956.0,
          "width": 392.0,
          "height": 260.0,
          "rotation": -0.0,
          "visible": true
        },
        {
          "id": 155,
          "name": "",
          "type": "obj_angleanuller_eggsafe",
          "gid": 21,
          "x": 1024.0,
          "y": 1872.0,
          "width": 256.0,
          "height": 196.0,
          "rotation": -0.0,
          "visible": true
        },
        {
          "id": 156,
          "name": "",
          "type": "obj_angleanuller_eggsafe",
          "gid": 21,
          "x": 2788.0,
          "y": 760.0,
          "width": 332.0,
          "height": 168.0,
          "rotation": -0.0,
          "visible": true
        },
        {
          "id": 157,
          "name": "",
          "type": "obj_angleanuller_eggsafe",
          "gid": 21,
          "x": 2304.0,
          "y": 1504.0,
          "width": 256.0,
          "height": 196.0,
          "rotation": -0.0,
          "visible": true
        },
        {
          "id": 158,
          "name": "",
          "type": "obj_angleanuller_eggsafe",
          "gid": 21,
          "x": 1792.0,
          "y": 1444.0,
          "width": 256.0,
          "height": 196.0,
          "rotation": -0.0,
          "visible": true
        },
        {
          "id": 159,
          "name": "",
          "type": "obj_angleanuller_eggsafe",
          "gid": 21,
          "x": 548.0,
          "y": 476.0,
          "width": 272.0,
          "height": 196.0,
          "rotation": -0.0,
          "visible": true
        },
        {
          "id": 160,
          "name": "",
          "type": "obj_ring_spawner",
          "gid": 249,
          "x": 1800.0,
          "y": 484.0,
          "width": 16.0,
          "height": 16.0,
          "rotation": -0.0,
          "visible": true
        },
        {
          "id": 161,
          "name": "",
          "type": "obj_ring_spawner",
          "gid": 249,
          "x": 1828.0,
          "y": 484.0,
          "width": 16.0,
          "height": 16.0,
          "rotation": -0.0,
          "visible": true
        },
        {
          "id": 162,
          "name": "",
          "type": "obj_ring_spawner",
          "gid": 249,
          "x": 1856.0,
          "y": 484.0,
          "width": 16.0,
          "height": 16.0,
          "rotation": -0.0,
          "visible": true
        },
        {
          "id": 163,
          "name": "",
          "type": "obj_ring_spawner",
          "gid": 249,
          "x": 2219.0,
          "y": 680.0,
          "width": 16.0,
          "height": 16.0,
          "rotation": -0.0,
          "visible": true
        },
        {
          "id": 164,
          "name": "",
          "type": "obj_ring_spawner",
          "gid": 249,
          "x": 2247.0,
          "y": 680.0,
          "width": 16.0,
          "height": 16.0,
          "rotation": -0.0,
          "visible": true
        },
        {
          "id": 165,
          "name": "",
          "type": "obj_ring_spawner",
          "gid": 249,
          "x": 2275.0,
          "y": 680.0,
          "width": 16.0,
          "height": 16.0,
          "rotation": -0.0,
          "visible": true
        },
        {
          "id": 166,
          "name": "",
          "type": "obj_ring_spawner",
          "gid": 249,
          "x": 548.0,
          "y": 1608.0,
          "width": 16.0,
          "height": 16.0,
          "rotation": -0.0,
          "visible": true
        },
        {
          "id": 167,
          "name": "",
          "type": "obj_ring_spawner",
          "gid": 249,
          "x": 264.0,
          "y": 1084.0,
          "width": 16.0,
          "height": 16.0,
          "rotation": -0.0,
          "visible": true
        },
        {
          "id": 168,
          "name": "",
          "type": "obj_ring_spawner",
          "gid": 249,
          "x": 360.0,
          "y": 1000.0,
          "width": 16.0,
          "height": 16.0,
          "rotation": -0.0,
          "visible": true
        },
        {
          "id": 169,
          "name": "",
          "type": "obj_ring_spawner",
          "gid": 249,
          "x": 932.0,
          "y": 2020.0,
          "width": 16.0,
          "height": 16.0,
          "rotation": -0.0,
          "visible": true
        },
        {
          "id": 170,
          "name": "",
          "type": "obj_ring_spawner",
          "gid": 249,
          "x": 972.0,
          "y": 2020.0,
          "width": 16.0,
          "height": 16.0,
          "rotation": -0.0,
          "visible": true
        },
        {
          "id": 171,
          "name": "",
          "type": "obj_ring_spawner",
          "gid": 249,
          "x": 1450.0,
          "y": 1960.0,
          "width": 16.0,
          "height": 16.0,
          "rotation": -0.0,
          "visible": true
        },
        {
          "id": 172,
          "name": "",
          "type": "obj_ring_spawner",
          "gid": 249,
          "x": 1356.0,
          "y": 1960.0,
          "width": 16.0,
          "height": 16.0,
          "rotation": -0.0,
          "visible": true
        },
        {
          "id": 173,
          "name": "",
          "type": "obj_ring_spawner",
          "gid": 249,
          "x": 3012.0,
          "y": 2024.0,
          "width": 16.0,
          "height": 16.0,
          "rotation": -0.0,
          "visible": true
        },
        {
          "id": 174,
          "name": "",
          "type": "obj_ring_spawner",
          "gid": 249,
          "x": 2972.0,
          "y": 2024.0,
          "width": 16.0,
          "height": 16.0,
          "rotation": -0.0,
          "visible": true
        },
        {
          "id": 175,
          "name": "",
          "type": "obj_ring_spawner",
          "gid": 249,
          "x": 2928.0,
          "y": 2024.0,
          "width": 16.0,
          "height": 16.0,
          "rotation": -0.0,
          "visible": true
        },
        {
          "id": 176,
          "name": "",
          "type": "obj_ring_spawner",
          "gid": 249,
          "x": 1856.0,
          "y": 2156.0,
          "width": 16.0,
          "height": 16.0,
          "rotation": -0.0,
          "visible": true
        },
        {
          "id": 177,
          "name": "",
          "type": "obj_ring_spawner",
          "gid": 249,
          "x": 1800.0,
          "y": 2156.0,
          "width": 16.0,
          "height": 16.0,
          "rotation": -0.0,
          "visible": true
        },
        {
          "id": 178,
          "name": "",
          "type": "obj_ring_spawner",
          "gid": 249,
          "x": 1100.0,
          "y": 932.0,
          "width": 16.0,
          "height": 16.0,
          "rotation": -0.0,
          "visible": true
        },
        {
          "id": 179,
          "name": "",
          "type": "obj_ring_spawner",
          "gid": 249,
          "x": 1128.0,
          "y": 932.0,
          "width": 16.0,
          "height": 16.0,
          "rotation": -0.0,
          "visible": true
        },
        {
          "id": 180,
          "name": "",
          "type": "obj_ring_spawner",
          "gid": 249,
          "x": 1156.0,
          "y": 932.0,
          "width": 16.0,
          "height": 16.0,
          "rotation": -0.0,
          "visible": true
        },
        {
          "id": 181,
          "name": "",
          "type": "obj_ring_spawner",
          "gid": 249,
          "x": 1016.0,
          "y": 584.0,
          "width": 16.0,
          "height": 16.0,
          "rotation": -0.0,
          "visible": true
        },
        {
          "id": 182,
          "name": "",
          "type": "obj_ring_spawner",
          "gid": 249,
          "x": 988.0,
          "y": 584.0,
          "width": 16.0,
          "height": 16.0,
          "rotation": -0.0,
          "visible": true
        },
        {
          "id": 183,
          "name": "",
          "type": "obj_ring_spawner",
          "gid": 249,
          "x": 1044.0,
          "y": 584.0,
          "width": 16.0,
          "height": 16.0,
          "rotation": -0.0,
          "visible": true
        },
        {
          "id": 184,
          "name": "",
          "type": "obj_ring_spawner",
          "gid": 249,
          "x": 2952.0,
          "y": 868.0,
          "width": 16.0,
          "height": 16.0,
          "rotation": -0.0,
          "visible": true
        },
        {
          "id": 185,
          "name": "",
          "type": "obj_solid_block",
          "gid": 255,
          "x": 1600.0,
          "y": 1792.0,
          "width": 128.0,
          "height": 32.0,
          "rotation": -0.0,
          "visible": true
        },
        {
          "id": 186,
          "name": "",
          "type": "obj_solid_block",
          "gid": 255,
          "x": 1408.0,
          "y": 1840.0,
          "width": 128.0,
          "height": 64.0,
          "rotation": -0.0,
          "visible": true
        },
        {
          "id": 187,
          "name": "",
          "type": "obj_solid_block",
          "gid": 255,
          "x": 1688.0,
          "y": 1984.0,
          "width": 104.0,
          "height": 320.0,
          "rotation": -0.0,
          "visible": true
        },
        {
          "id": 188,
          "name": "",
          "type": "obj_angleanuller_eggsafe",
          "gid": 21,
          "x": 1716.0,
          "y": 1816.0,
          "width": 256.0,
          "height": 168.0,
          "rotation": -0.0,
          "visible": true
        },
        {
          "id": 189,
          "name": "",
          "type": "obj_movingspike",
          "gid": 195,
          "x": 2816.0,
          "y": 644.0,
          "width": 30.0,
          "height": 28.0,
          "rotation": -0.0,
          "visible": true
        },
        {
          "id": 190,
          "name": "",
          "type": "obj_movingspike",
          "gid": 195,
          "x": 2846.0,
          "y": 644.0,
          "width": 30.0,
          "height": 28.0,
          "rotation": -0.0,
          "visible": true
        },
        {
          "id": 191,
          "name": "",
          "type": "obj_bspring_up",
          "gid": 34,
          "x": 3040.0,
          "y": 832.0,
          "width": 32.0,
          "height": 32.0,
          "rotation": -0.0,
          "visible": true
        },
        {
          "id": 192,
          "name": "",
          "type": "obj_solid_block",
          "gid": 255,
          "x": 1344.0,
          "y": 1136.0,
          "width": 192.0,
          "height": 48.00002304,
          "rotation": -0.0,
          "visible": true
        },
        {
          "id": 193,
          "name": "",
          "type": "obj_angleanuller_eggsafe",
          "gid": 21,
          "x": 1368.0,
          "y": 1644.0,
          "width": 172.0,
          "height": 120.0,
          "rotation": -0.0,
          "visible": true
        },
        {
          "id": 194,
          "name": "",
          "type": "obj_bspring_up",
          "gid": 34,
          "x": 1792.0,
          "y": 1504.0,
          "width": 32.0,
          "height": 32.0,
          "rotation": -0.0,
          "visible": true
        },
        {
          "id": 195,
          "name": "",
          "type": "obj_soundemitter",
          "gid": 258,
          "x": 1867.0,
          "y": 1536.0,
          "width": 32.0,
          "height": 32.0,
          "rotation": -0.0,
          "visible": true,
          "properties": [
            {
              "name": "stype",
              "type": "float",
              "value": 0.0
            },
            {
              "name": "stype",
              "type": "int",
              "value": 0
            }
          ]
        },
        {
          "id": 196,
          "name": "",
          "type": "obj_soundemitter",
          "gid": 258,
          "x": 1843.0,
          "y": 2176.0,
          "width": 32.0,
          "height": 32.0,
          "rotation": -0.0,
          "visible": true,
          "properties": [
            {
              "name": "stype",
              "type": "float",
              "value": 0.0
            },
            {
              "name": "stype",
              "type": "int",
              "value": 0
            }
          ]
        },
        {
          "id": 197,
          "name": "",
          "type": "obj_soundemitter",
          "gid": 258,
          "x": 1499.0,
          "y": 1664.0,
          "width": 32.0,
          "height": 32.0,
          "rotation": -0.0,
          "visible": true,
          "properties": [
            {
              "name": "stype",
              "type": "float",
              "value": 0.0
            },
            {
              "name": "stype",
              "type": "int",
              "value": 0
            }
          ]
        },
        {
          "id": 198,
          "name": "",
          "type": "obj_soundemitter",
          "gid": 258,
          "x": 2827.0,
          "y": 640.0,
          "width": 32.0,
          "height": 32.0,
          "rotation": -0.0,
          "visible": true,
          "properties": [
            {
              "name": "stype",
              "type": "float",
              "value": 0.0
            },
            {
              "name": "stype",
              "type": "int",
              "value": 0
            }
          ]
        },
        {
          "id": 199,
          "name": "",
          "type": "obj_soundemitter",
          "gid": 258,
          "x": 339.0,
          "y": 1600.0,
          "width": 32.0,
          "height": 32.0,
          "rotation": -0.0,
          "visible": true,
          "properties": [
            {
              "name": "stype",
              "type": "float",
              "value": 0.0
            },
            {
              "name": "stype",
              "type": "int",
              "value": 0
            }
          ]
        },
        {
          "id": 200,
          "name": "",
          "type": "obj_angleanuller",
          "gid": 20,
          "x": 2816.0,
          "y": 640.0,
          "width": 108.0000064,
          "height": 32.0,
          "rotation": -0.0,
          "visible": true
        },
        {
          "id": 201,
          "name": "",
          "type": "obj_angleanuller",
          "gid": 20,
          "x": 1464.0,
          "y": 1664.0,
          "width": 72.0,
          "height": 32.0,
          "rotation": -0.0,
          "visible": true
        },
        {
          "id": 202,
          "name": "",
          "type": "obj_angleanuller",
          "gid": 20,
          "x": 1856.0,
          "y": 1536.0,
          "width": 68.0,
          "height": 32.0,
          "rotation": -0.0,
          "visible": true
        },
        {
          "id": 203,
          "name": "",
          "type": "obj_angleanuller",
          "gid": 20,
          "x": 256.0,
          "y": 1600.0,
          "width": 232.0,
          "height": 32.0,
          "rotation": -0.0,
          "visible": true
        },
        {
          "id": 204,
          "name": "",
          "type": "obj_angleanuller",
          "gid": 20,
          "x": 576.0,
          "y": 2048.0,
          "width": 68.0,
          "height": 32.0,
          "rotation": -0.0,
          "visible": true
        },
        {
          "id": 205,
          "name": "",
          "type": "obj_angleanuller",
          "gid": 20,
          "x": 2304.0,
          "y": 1664.0,
          "width": 108.0,
          "height": 32.0,
          "rotation": -0.0,
          "visible": true
        },
        {
          "id": 206,
          "name": "",
          "type": "obj_soundemitter",
          "gid": 258,
          "x": 2335.0,
          "y": 1668.0,
          "width": 32.0,
          "height": 32.0,
          "rotation": -0.0,
          "visible": true,
          "properties": [
            {
              "name": "stype",
              "type": "float",
              "value": 0.0
            },
            {
              "name": "stype",
              "type": "int",
              "value": 0
            }
          ]
        },
        {
          "id": 207,
          "name": "",
          "type": "obj_angleanuller",
          "gid": 20,
          "x": 1792.0,
          "y": 2176.0,
          "width": 128.0,
          "height": 32.0,
          "rotation": -0.0,
          "visible": true
        },
        {
          "id": 208,
          "name": "",
          "type": "obj_corpse_knux",
          "gid": 46,
          "x": 768.0,
          "y": 905.0,
          "width": 59.0,
          "height": 29.0,
          "rotation": -0.0,
          "visible": true
        },
        {
          "id": 209,
          "name": "",
          "type": "obj_bspring_left",
          "gid": 32,
          "x": 3284.0,
          "y": 1844.0,
          "width": 44.0,
          "height": 44.0,
          "rotation": -0.0,
          "visible": true
        },
        {
          "id": 210,
          "name": "",
          "type": "obj_bspring_up",
          "gid": 34,
          "x": 2528.0,
          "y": 1056.0,
          "width": 32.0,
          "height": 32.0,
          "rotation": -0.0,
          "visible": true
        },
        {
          "id": 211,
          "name": "",
          "type": "obj_ring_spawner",
          "gid": 249,
          "x": 1512.0,
          "y": 1644.0,
          "width": 16.0,
          "height": 16.0,
          "rotation": -0.0,
          "visible": true
        },
        {
          "id": 212,
          "name": "",
          "type": "obj_ring_spawner",
          "gid": 249,
          "x": 1436.0,
          "y": 1644.0,
          "width": 16.0,
          "height": 16.0,
          "rotation": -0.0,
          "visible": true
        },
        {
          "id": 213,
          "name": "",
          "type": "obj_ring_spawner",
          "gid": 249,
          "x": 1476.0,
          "y": 1644.0,
          "width": 16.0,
          "height": 16.0,
          "rotation": -0.0,
          "visible": true
        },
        {
          "id": 214,
          "name": "",
          "type": "obj_bspring_up",
          "gid": 34,
          "x": 1328.0,
          "y": 928.0,
          "width": 32.0,
          "height": 32.0,
          "rotation": -0.0,
          "visible": true
        },
        {
          "id": 215,
          "name": "",
          "type": "obj_solid_block",
          "gid": 255,
          "x": 1536.0,
          "y": 1376.0,
          "width": 64.0,
          "height": 192.0,
          "rotation": -0.0,
          "visible": true
        },
        {
          "id": 216,
          "name": "",
          "type": "obj_movingspike",
          "gid": 195,
          "x": 1886.0,
          "y": 2180.0,
          "width": 30.0,
          "height": 28.0,
          "rotation": -0.0,
          "visible": true
        },
        {
          "id": 217,
          "name": "",
          "type": "obj_solid_block",
          "gid": 255,
          "x": 1024.0,
          "y": 0.000045776367,
          "width": 256.0,
          "height": 516.0,
          "rotation": -0.0,
          "visible": true
        },
        {
          "id": 218,
          "name": "",
          "type": "obj_solid_block",
          "gid": 255,
          "x": 768.0,
          "y": 0.0,
          "width": 256.0,
          "height": 368.0000256,
          "rotation": -0.0,
          "visible": true
        },
        {
          "id": 219,
          "name": "",
          "type": "obj_solid_block",
          "gid": 255,
          "x": 512.0,
          "y": 0.000061035156,
          "width": 256.0,
          "height": 512.0,
          "rotation": -0.0,
          "visible": true
        },
        {
          "id": 220,
          "name": "",
          "type": "obj_solid_block",
          "gid": 255,
          "x": 256.0,
          "y": 0.000030517578,
          "width": 256.0,
          "height": 540.0,
          "rotation": -0.0,
          "visible": true
        },
        {
          "id": 221,
          "name": "",
          "type": "obj_solid_block",
          "gid": 255,
          "x": 0.0,
          "y": 0.0,
          "width": 256.0,
          "height": 612.0,
          "rotation": -0.0,
          "visible": true
        },
        {
          "id": 222,
          "name": "",
          "type": "obj_solid_block",
          "gid": 255,
          "x": 1276.0,
          "y": -20.0,
          "width": 1296.0,
          "height": 20.00003072,
          "rotation": -0.0,
          "visible": true
        },
        {
          "id": 223,
          "name": "",
          "type": "obj_solid_block",
          "gid": 255,
          "x": 896.0,
          "y": 1280.0,
          "width": 128.0,
          "height": 24.0,
          "rotation": -0.0,
          "visible": true
        },
        {
          "id": 224,
          "name": "",
          "type": "obj_solid_block",
          "gid": 255,
          "x": 2112.0,
          "y": 1952.0,
          "width": 140.0,
          "height": 32.0,
          "rotation": 14.0,
          "visible": true
        },
        {
          "id": 225,
          "name": "",
          "type": "obj_deathtp",
          "gid": 58,
          "x": 768.0,
          "y": 2176.0,
          "width": 128.0,
          "height": 32.0,
          "rotation": -0.0,
          "visible": true
        },
        {
          "id": 226,
          "name": "",
          "type": "obj_deathtp_point",
          "gid": 59,
          "x": 720.0,
          "y": 2112.0,
          "width": 32.0,
          "height": 32.0,
          "rotation": -0.0,
          "visible": true
        },
        {
          "id": 227,
          "name": "",
          "type": "obj_deathtp",
          "gid": 58,
          "x": 1152.0,
          "y": 1984.0,
          "width": 64.0,
          "height": 32.0,
          "rotation": -0.0,
          "visible": true
        },
        {
          "id": 228,
          "name": "",
          "type": "obj_deathtp_point",
          "gid": 59,
          "x": 1024.0,
          "y": 1952.0,
          "width": 32.0,
          "height": 32.0,
          "rotation": -0.0,
          "visible": true
        },
        {
          "id": 229,
          "name": "",
          "type": "obj_deathtp_point",
          "gid": 59,
          "x": 1304.0,
          "y": 1952.0,
          "width": 32.0,
          "height": 32.0,
          "rotation": -0.0,
          "visible": true
        },
        {
          "id": 230,
          "name": "",
          "type": "obj_deathtp_point",
          "gid": 59,
          "x": 520.0,
          "y": 1600.0,
          "width": 32.0,
          "height": 32.0,
          "rotation": -0.0,
          "visible": true
        },
        {
          "id": 231,
          "name": "",
          "type": "obj_deathtp",
          "gid": 58,
          "x": 256.0,
          "y": 1624.0,
          "width": 200.0,
          "height": 12.0,
          "rotation": -0.0,
          "visible": true
        },
        {
          "id": 232,
          "name": "",
          "type": "obj_deathtp_point",
          "gid": 59,
          "x": 1408.0,
          "y": 1664.0,
          "width": 32.0,
          "height": 32.0,
          "rotation": -0.0,
          "visible": true
        },
        {
          "id": 233,
          "name": "",
          "type": "obj_deathtp",
          "gid": 58,
          "x": 1464.0,
          "y": 1688.0,
          "width": 76.0,
          "height": 8.0,
          "rotation": -0.0,
          "visible": true
        },
        {
          "id": 234,
          "name": "",
          "type": "obj_deathtp_point",
          "gid": 59,
          "x": 1952.0,
          "y": 1568.0,
          "width": 32.0,
          "height": 32.0,
          "rotation": -0.0,
          "visible": true
        },
        {
          "id": 235,
          "name": "",
          "type": "obj_deathtp",
          "gid": 58,
          "x": 1856.0,
          "y": 1564.0,
          "width": 64.0,
          "height": 4.0,
          "rotation": -0.0,
          "visible": true
        },
        {
          "id": 236,
          "name": "",
          "type": "obj_deathtp_point",
          "gid": 59,
          "x": 2420.0,
          "y": 1632.0,
          "width": 32.0,
          "height": 32.0,
          "rotation": -0.0,
          "visible": true
        },
        {
          "id": 237,
          "name": "",
          "type": "obj_deathtp_point",
          "gid": 59,
          "x": 2256.0,
          "y": 1600.0,
          "width": 32.0,
          "height": 32.0,
          "rotation": -0.0,
          "visible": true
        },
        {
          "id": 238,
          "name": "",
          "type": "obj_deathtp",
          "gid": 58,
          "x": 2304.0,
          "y": 1692.0,
          "width": 96.0,
          "height": 4.0,
          "rotation": -0.0,
          "visible": true
        },
        {
          "id": 239,
          "name": "",
          "type": "obj_deathtp_point",
          "gid": 59,
          "x": 1740.0,
          "y": 1952.0,
          "width": 32.0,
          "height": 32.0,
          "rotation": -0.0,
          "visible": true
        },
        {
          "id": 240,
          "name": "",
          "type": "obj_deathtp_point",
          "gid": 59,
          "x": 1940.0,
          "y": 1920.0,
          "width": 32.0,
          "height": 32.0,
          "rotation": -0.0,
          "visible": true
        },
        {
          "id": 241,
          "name": "",
          "type": "obj_deathtp",
          "gid": 58,
          "x": 1792.0,
          "y": 2200.0,
          "width": 128.0,
          "height": 8.0,
          "rotation": -0.0,
          "visible": true
        },
        {
          "id": 242,
          "name": "",
          "type": "obj_movingspike",
          "gid": 195,
          "x": 769.0,
          "y": 2180.0,
          "width": 30.0,
          "height": 28.0,
          "rotation": -0.0,
          "visible": true
        },
        {
          "id": 243,
          "name": "",
          "type": "obj_deathtp",
          "gid": 58,
          "x": 2816.0,
          "y": 668.0,
          "width": 68.0,
          "height": 4.0,
          "rotation": -0.0,
          "visible": true
        },
        {
          "id": 244,
          "name": "",
          "type": "obj_deathtp_point",
          "gid": 59,
          "x": 2912.0,
          "y": 640.0,
          "width": 32.0,
          "height": 32.0,
          "rotation": -0.0,
          "visible": true
        },
        {
          "id": 245,
          "name": "",
          "type": "obj_soundemitter",
          "gid": 258,
          "x": 768.0,
          "y": 2176.0,
          "width": 32.0,
          "height": 32.0,
          "rotation": -0.0,
          "visible": true,
          "properties": [
            {
              "name": "stype",
              "type": "float",
              "value": 0.0
            },
            {
              "name": "stype",
              "type": "int",
              "value": 0
            }
          ]
        },
        {
          "id": 246,
          "name": "",
          "type": "obj_deathtp_point",
          "gid": 59,
          "x": 2444.0,
          "y": 640.0,
          "width": 32.0,
          "height": 32.0,
          "rotation": -0.0,
          "visible": true
        },
        {
          "id": 247,
          "name": "",
          "type": "obj_deathtp",
          "gid": 58,
          "x": 2528.0,
          "y": 636.0,
          "width": 32.0,
          "height": 36.0,
          "rotation": -0.0,
          "visible": true
        },
        {
          "id": 248,
          "name": "",
          "type": "obj_solid_block",
          "gid": 255,
          "x": 2624.0,
          "y": 960.0,
          "width": 384.0,
          "height": 296.0,
          "rotation": -0.0,
          "visible": true
        },
        {
          "id": 249,
          "name": "",
          "type": "obj_solid_block",
          "gid": 255,
          "x": 1600.0,
          "y": 1408.0,
          "width": 128.0,
          "height": 383.9999744,
          "rotation": -0.0,
          "visible": true
        },
        {
          "id": 250,
          "name": "",
          "type": "obj_solid_block",
          "gid": 255,
          "x": 832.0,
          "y": 1664.0,
          "width": 128.0,
          "height": 49.99996928,
          "rotation": -0.0,
          "visible": true
        },
        {
          "id": 251,
          "name": "",
          "type": "obj_solid_block",
          "gid": 255,
          "x": 832.0,
          "y": 960.0,
          "width": 128.0,
          "height": 49.99996928,
          "rotation": -0.0,
          "visible": true
        },
        {
          "id": 252,
          "name": "",
          "type": "obj_solid_block2",
          "gid": 256,
          "x": -20.0,
          "y": 520.0,
          "width": 20.0,
          "height": 327.999936,
          "rotation": -0.0,
          "visible": true
        }
      ],
      "properties": [
        {
          "name": "depth",
          "type": "int",
          "value": 0
        }
      ]
    },
    {
      "type": "objectgroup",
      "id": 6,
      "name": "Smoke",
      "draworder": "index",
      "opacity": 1.0,
      "visible": false,
      "x": 0,
      "y": 0,
      "objects": [
        {
          "id": 128,
          "name": "",
          "type": "obj_ycr_smokearea",
          "gid": 298,
          "x": 256.0,
          "y": 768.0,
          "width": 512.0,
          "height": 448.0,
          "rotation": -0.0,
          "visible": true,
          "properties": [
            {
              "name": "nid",
              "type": "int",
              "value": 1
            }
          ]
        },
        {
          "id": 129,
          "name": "",
          "type": "obj_ycr_smokearea",
          "gid": 298,
          "x": 544.0,
          "y": 352.0,
          "width": 672.000064,
          "height": 320.0,
          "rotation": -0.0,
          "visible": true,
          "properties": [
            {
              "name": "nid",
              "type": "int",
              "value": 0
            }
          ]
        },
        {
          "id": 130,
          "name": "",
          "type": "obj_ycr_smokearea",
          "gid": 298,
          "x": 768.00006,
          "y": 848.0,
          "width": 1023.999936,
          "height": 112.0,
          "rotation": -0.0,
          "visible": true,
          "properties": [
            {
              "name": "nid",
              "type": "int",
              "value": 2
            }
          ]
        },
        {
          "id": 131,
          "name": "",
          "type": "obj_ycr_smokearea",
          "gid": 298,
          "x": 1792.0,
          "y": 400.0,
          "width": 771.999936,
          "height": 400.000128,
          "rotation": -0.0,
          "visible": true,
          "properties": [
            {
              "name": "nid",
              "type": "int",
              "value": 4
            }
          ]
        },
        {
          "id": 132,
          "name": "",
          "type": "obj_ycr_smokearea",
          "gid": 298,
          "x": 511.99985,
          "y": 1656.0,
          "width": 767.999936,
          "height": 552.0,
          "rotation": -0.0,
          "visible": true,
          "properties": [
            {
              "name": "nid",
              "type": "int",
              "value": 6
            }
          ]
        },
        {
          "id": 133,
          "name": "",
          "type": "obj_ycr_smokearea",
          "gid": 298,
          "x": 2560.0,
          "y": 1384.0,
          "width": 767.999936,
          "height": 664.0,
          "rotation": -0.0,
          "visible": true,
          "properties": [
            {
              "name": "nid",
              "type": "int",
              "value": 5
            }
          ]
        },
        {
          "id": 134,
          "name": "",
          "type": "obj_ycr_smokearea",
          "gid": 298,
          "x": 2564.0,
          "y": 608.0,
          "width": 508.000032,
          "height": 320.0,
          "rotation": -0.0,
          "visible": true,
          "properties": [
            {
              "name": "nid",
              "type": "int",
              "value": 4
            }
          ]
        },
        {
          "id": 135,
          "name": "",
          "type": "obj_ycr_smokearea",
          "gid": 298,
          "x": 1216.0,
          "y": 512.0,
          "width": 192.000064,
          "height": 336.0,
          "rotation": -0.0,
          "visible": true,
          "properties": [
            {
              "name": "nid",
              "type": "int",
              "value": 3
            }
          ]
        }
      ],
      "properties": [
        {
          "name": "depth",
          "type": "int",
          "value": -100
        }
      ]
    }
  ]
}